MingyuTang0728/Universal-Robots-Notts/UR platform/UR5e_motion_full_clean.csv
time,q_0,q_1,q_2,q_3,q_4,q_5,tcp_0,tcp_1,tcp_2,extra__pc_ts
0.0,-3.04344732,-1.52831037,1.3068145,4.98087494,3.94171906,0.64534569,0.488005982,0.113093553,0.596581448,0.0
0.0,-3.04344732,-1.52831037,1.3068145,4.98087494,3.94171906,0.64534569,0.488005982,0.113093553,0.596581448,0.0
0.0,-3.05183965,-1.52810026,1.30551035,4.97416668,3.9456687,0.64532483,0.489483845,0.109327338,0.597476258,0.0
0.0,-3.06020695,-1.52794107,1.30425912,4.96774827,3.94955039,0.6453619,0.490885409,0.105549058,0.598352871,0.0
0.0,-3.06854827,-1.52775658,1.30290729,4.96119766,3.95338988,0.6453619,0.492273221,0.101767085,0.599286113,0.0
0.0,-3.07693321,-1.52761393,1.30166704,4.9542832,3.95710874,0.6453163,0.493644741,0.097940811,0.600235993,0.0
0.0,-3.08539492,-1.527491,1.30043728,4.94725944,3.9608593,0.64537686,0.494990498,0.094063801,0.601204914,0.0
0.0,-3.09374291,-1.52725984,1.29915125,4.94065047,3.96469974,0.64531291,0.496308974,0.090235323,0.602105027,0.0
0.0,-3.10207731,-1.52716388,1.29792911,4.93420549,3.96853089,0.64535439,0.497524119,0.086395648,0.60303143,0.0
0.0,-3.11044866,-1.52695074,1.29674226,4.92758797,3.97240996,0.64535332,0.498775066,0.082529971,0.603901375,0.0
0.0,-3.11888868,-1.5267902,1.29547245,4.92069251,3.97630143,0.64533359,0.49999429,0.07861696,0.60487036,0.0
0.0,-3.12715823,-1.52654417,1.29423649,4.91359158,3.98018003,0.64530867,0.501220457,0.074775494,0.6058075,0.0
0.0,-3.13548357,-1.52637752,1.29306585,4.90704854,3.98403883,0.64534569,0.502345083,0.070890017,0.606702763,0.0
0.0,-3.14397675,-1.52623786,1.29185039,4.90064547,3.98787999,0.6454106,0.503425754,0.066906185,0.607625214,0.0
0.0,-3.15232712,-1.52602475,1.29062683,4.89391068,3.99160671,0.64535332,0.504518569,0.062973129,0.60856154,0.0
0.0,-3.16073329,-1.52584005,1.28942186,4.8868002,3.99543071,0.64533704,0.505595211,0.059006421,0.609541231,0.0
0.0,-3.16916186,-1.525603,1.28820593,4.88010641,3.99929953,0.64538974,0.5066339,0.055019023,0.610458976,0.0
0.0,-3.17752964,-1.5254636,1.28693372,4.87367167,4.00318813,0.64534569,0.507572869,0.051053934,0.611430176,0.0
0.0,-3.18585211,-1.52530904,1.28573209,4.867159,4.00704288,0.6453619,0.508489579,0.047098002,0.612374943,0.0
0.0,-3.19419486,-1.52507491,1.28444273,4.86023146,4.01104879,0.64532918,0.509436177,0.043129375,0.613361722,0.0
0.0,-3.20252592,-1.52491147,1.28324014,4.85315396,4.01490498,0.64538246,0.510326983,0.039145484,0.614373313,0.0
0.0,-3.21101767,-1.52477616,1.28195984,4.84659191,4.0186944,0.64536953,0.511139591,0.03506691,0.615391694,0.0
0.0,-3.21937639,-1.5245888,1.28062422,4.84007856,4.02250433,0.64535761,0.511931402,0.031046639,0.616409313,0.0
0.0,-3.22779423,-1.52448216,1.27930338,4.83347751,4.02620029,0.64534569,0.512657873,0.026980596,0.617482615,0.0
0.0,-3.23621232,-1.52430657,1.27798349,4.82657249,4.03000879,0.64537388,0.513400784,0.022909411,0.618551725,0.0
0.0,-3.24456817,-1.52406047,1.276676,4.81964117,4.03372717,0.64533287,0.514139122,0.018850535,0.619592871,0.0
0.0,-3.25287205,-1.52389083,1.27534134,4.81314003,4.03766203,0.6453414,0.514782414,0.014832205,0.620631044,0.0
0.0,-3.26121814,-1.52378153,1.27406818,4.80661156,4.04156399,0.6453163,0.515367205,0.010784541,0.621680122,0.0
0.0,-3.26964099,-1.52358781,1.27278692,4.79981838,4.04550886,0.64533704,0.515972443,0.006686254,0.622722082,0.0
0.0,-3.27807767,-1.52335676,1.27146513,4.79279672,4.04931164,0.64532918,0.516567819,0.002558131,0.623804455,0.0
0.0,-3.28643257,-1.52322002,1.27019483,4.78598531,4.05309105,0.64530861,0.517072136,-0.001529736,0.624893178,0.0
0.0,-3.29477078,-1.52301911,1.26893789,4.7794921,4.05687475,0.64536631,0.517551781,-0.005617345,0.625911687,0.0
0.0,-3.30315811,-1.52287193,1.26773245,4.77303395,4.06080627,0.6453414,0.5179742,-0.009721797,0.626924601,0.0
0.0,-3.31147081,-1.52270384,1.26650888,4.76613948,4.06462765,0.6453619,0.518392703,-0.013807461,0.62799687,0.0
0.0,-3.31983597,-1.52247432,1.26528675,4.75906382,4.06853723,0.6453619,0.518814817,-0.017926552,0.629057744,0.0
0.0,-3.32826072,-1.52228217,1.26402122,4.75252768,4.07248068,0.64537382,0.519150853,-0.022071346,0.630100973,0.0
0.0,-3.33669883,-1.52211856,1.26284057,4.74613894,4.07628345,0.6453414,0.519428429,-0.026235558,0.631113216,0.0
0.0,-3.34508163,-1.5219595,1.2616213,4.73946292,4.08010721,0.64537811,0.519683148,-0.030376381,0.632183712,0.0
0.0,-3.35344512,-1.52176583,1.26042587,4.73252751,4.08386803,0.6453414,0.519930511,-0.034522809,0.633263364,0.0
0.0,-3.36186868,-1.52154681,1.25919038,4.72552343,4.08766031,0.64537054,0.520152614,-0.038705567,0.634361219,0.0
0.0,-3.37033517,-1.52138178,1.25799829,4.71901151,4.09143305,0.6453371,0.520286029,-0.042905388,0.635414255,0.0
0.0,-3.37855465,-1.5212466,1.25679189,4.71255363,4.09523678,0.64532483,0.520377197,-0.046973453,0.636486561,0.0
0.0,-3.38698489,-1.5210771,1.2555154,4.70576398,4.09913349,0.64538121,0.520454117,-0.051153939,0.637614694,0.0
0.0,-3.39531619,-1.5209362,1.25430614,4.69868438,4.10314035,0.64537811,0.520506995,-0.055278273,0.638757721,0.0
0.0,-3.40369279,-1.52070192,1.25303489,4.69192855,4.10699415,0.64537388,0.520538477,-0.059446562,0.63985853,0.0
0.0,-3.41200549,-1.52055347,1.25174696,4.68543403,4.11083603,0.64534563,0.520483016,-0.063570208,0.64098665,0.0
0.0,-3.42048055,-1.5203283,1.25051672,4.67895381,4.1146493,0.64534908,0.520416403,-0.067792452,0.642050889,0.0
0.0,-3.42887146,-1.52014972,1.24919159,4.67214124,4.11847162,0.64532053,0.520306669,-0.071968105,0.643230741,0.0
0.0,-3.43730218,-1.52003559,1.24788791,4.66502254,4.12225914,0.6453371,0.520139531,-0.076162949,0.644477247,0.0
0.0,-3.44553501,-1.51976402,1.24654943,4.6583883,4.12603474,0.64530867,0.519997768,-0.080271355,0.64560644,0.0
0.0,-3.45391423,-1.51965893,1.24525816,4.65191953,4.12991381,0.64534908,0.519729925,-0.084422541,0.646778016,0.0
0.0,-3.46240527,-1.51942791,1.24396354,4.64535443,4.13377619,0.64536959,0.519475828,-0.088652454,0.647903002,0.0
0.0,-3.47071583,-1.51924786,1.24265319,4.63833396,4.1377511,0.64534908,0.519199373,-0.092777786,0.649117097,0.0
0.0,-3.47904641,-1.51906788,1.24131662,4.63144032,4.14154387,0.64538974,0.518868009,-0.096923185,0.650343207,0.0
0.0,-3.48750288,-1.51897922,1.24004251,4.62496488,4.14533424,0.64531297,0.518430576,-0.101112561,0.651539268,0.0
0.0,-3.49593503,-1.51875714,1.23879081,4.61845605,4.14906359,0.64540195,0.518018395,-0.105314484,0.652666137,0.0
0.0,-3.5041855,-1.51858603,1.23752434,4.61160533,4.15288353,0.64537054,0.517580782,-0.10940917,0.653869381,0.0
0.0,-3.51260406,-1.51838494,1.23630172,4.60464017,4.15664959,0.64537382,0.517104896,-0.113599817,0.655056595,0.0
0.0,-3.52095396,-1.518196,1.23506338,4.59788816,4.16062355,0.6453653,0.516593994,-0.117731486,0.656226128,0.0
0.0,-3.52934581,-1.51806072,1.23377735,4.5913469,4.16456604,0.64534569,0.516003293,-0.121869223,0.657427563,0.0
0.0,-3.53769476,-1.5178897,1.23255474,4.5848128,4.16849136,0.64534908,0.515399563,-0.125990066,0.658582925,0.0
0.0,-3.54607541,-1.51764235,1.2313841,4.57801978,4.17234039,0.64535332,0.514797485,-0.13014828,0.659712798,0.0
0.0,-3.55449111,-1.51757316,1.23023016,4.57103078,4.17610168,0.64539403,0.514074051,-0.134293903,0.660961115,0.0
0.0,-3.56283647,-1.51735842,1.22898132,4.56432407,4.17987347,0.64535332,0.513372696,-0.138419475,0.662149051,0.0
0.0,-3.57119018,-1.51718135,1.2277487,4.55790107,4.18362951,0.64537382,0.512606197,-0.142533638,0.663317655,0.0
0.0,-3.57958514,-1.51696828,1.22656805,4.55125062,4.18748712,0.64536953,0.511828803,-0.1466684,0.664469638,0.0
0.0,-3.58802706,-1.5167868,1.22534448,4.54432218,4.19134474,0.6453619,0.510997159,-0.150816518,0.665699587,0.0
0.0,-3.59634263,-1.51659913,1.22408468,4.53735511,4.19524479,0.64535761,0.510149878,-0.154890883,0.666952042,0.0
0.0,-3.6047526,-1.516398,1.22287923,4.53081958,4.19921827,0.64532489,0.509251801,-0.159000328,0.668115913,0.0
0.0,-3.6132229,-1.51621365,1.22162754,4.52429883,4.20305491,0.64533293,0.508286578,-0.163136345,0.669320161,0.0
0.0,-3.62158758,-1.51607986,1.22036344,4.51754157,4.20680666,0.64537811,0.507278019,-0.167206848,0.670595508,0.0
0.0,-3.629973,-1.51589987,1.21908409,4.51050298,4.2106514,0.64539403,0.506260397,-0.171286713,0.671890722,0.0
0.0,-3.63831836,-1.51573618,1.21772844,4.5038058,4.21437788,0.64534908,0.505182303,-0.17533333,0.673198035,0.0
0.0,-3.64670736,-1.51557274,1.21644909,4.49735849,4.21821022,0.64536953,0.504064906,-0.179385151,0.674434112,0.0
0.0,-3.65502149,-1.51536252,1.21515066,4.49084584,4.22208214,0.64535761,0.502947226,-0.183398545,0.675665827,0.0
0.0,-3.66335255,-1.51523659,1.21385223,4.48399036,4.22603703,0.64537805,0.501764784,-0.187387687,0.676987349,0.0
0.0,-3.67177374,-1.51502045,1.21250517,4.47696178,4.22993088,0.64536953,0.500563812,-0.191438078,0.678314949,0.0
0.0,-3.68022687,-1.51480142,1.21118099,4.47027223,4.23382282,0.64537382,0.49931402,-0.195491145,0.679589199,0.0
0.0,-3.68860299,-1.51467095,1.20989448,4.46373908,4.23761368,0.64539772,0.497995503,-0.199476778,0.680878529,0.0
0.0,-3.6968692,-1.51453559,1.2086199,4.4571592,4.2413969,0.64537382,0.496665763,-0.203398309,0.682169341,0.0
0.0,-3.70524866,-1.51431805,1.20737201,4.45021503,4.24515533,0.64537382,0.495319618,-0.207393189,0.68345571,0.0
0.0,-3.71368891,-1.51418303,1.20611316,4.44321315,4.24884272,0.64534908,0.49388182,-0.211386363,0.684805335,0.0
0.0,-3.72201664,-1.51404342,1.20478994,4.43675248,4.25280571,0.6453414,0.492436937,-0.215285541,0.686106839,0.0
0.0,-3.73042304,-1.51382573,1.20358307,4.43033473,4.25670385,0.6453653,0.490977498,-0.219242425,0.687308334,0.0
0.0,-3.73888618,-1.51369247,1.20239812,4.42358272,4.26064301,0.6453414,0.489441788,-0.223190539,0.688589815,0.0
0.0,-3.74724537,-1.51348679,1.20119364,4.41652219,4.26448059,0.64536953,0.487919358,-0.227102514,0.689891023,0.0
0.0,-3.75558406,-1.51329025,1.19990617,4.40965383,4.26831102,0.6453768,0.48635053,-0.230980771,0.691217265,0.0
0.0,-3.76396949,-1.51315213,1.19877273,4.40324656,4.27210808,0.6453653,0.484714309,-0.23485603,0.692439526,0.0
0.0,-3.77232343,-1.51295099,1.19757683,4.3967611,4.27588224,0.6453414,0.48307073,-0.238718344,0.693674317,0.0
0.0,-3.78070146,-1.51276345,1.19630462,4.38991038,4.27960396,0.6453163,0.481373169,-0.242573111,0.695008732,0.0
0.0,-3.78904301,-1.51256387,1.19508916,4.38279121,4.28345823,0.64532918,0.479670772,-0.246395541,0.696342687,0.0
0.0,-3.79740435,-1.51237785,1.19388229,4.37623469,4.28737402,0.64537382,0.477921687,-0.250199701,0.697605193,0.0
0.0,-3.80589253,-1.5122232,1.19265968,4.36978547,4.29127598,0.64534569,0.476088576,-0.25403607,0.698881449,0.0
0.0,-3.81414849,-1.51199352,1.19145328,4.36304061,4.29520607,0.64538974,0.474316925,-0.257770743,0.700151458,0.0
0.0,-3.82250149,-1.51185108,1.19020731,4.35610978,4.29902172,0.64536953,0.472437802,-0.261508848,0.701519632,0.0
0.0,-3.83088929,-1.51162606,1.18892271,4.34915607,4.30285644,0.64536953,0.470546776,-0.265269007,0.70286888,0.0
0.0,-3.83933431,-1.5114414,1.18761474,4.34248464,4.30662727,0.64535332,0.468579393,-0.269023588,0.704218157,0.0
0.0,-3.84766514,-1.51129883,1.18629486,4.33614652,4.31046343,0.64539838,0.466592912,-0.272684841,0.705551514,0.0
1.0,-3.85606462,-1.51114719,1.18502456,4.32941739,4.31433773,0.64538974,0.464566588,-0.276364498,0.7069093,1.0
1.0,-3.86452848,-1.51091011,1.18367321,4.32250135,4.31821203,0.64537382,0.462515874,-0.280078218,0.708290704,1.0
1.0,-3.87292701,-1.51072836,1.18234617,4.31568639,4.32209015,0.64537811,0.460428091,-0.283722375,0.70967806,1.0
1.0,-3.88124115,-1.51056191,1.18100769,4.30925433,4.32592821,0.64538544,0.458319163,-0.287301715,0.711031083,1.0
1.0,-3.88959557,-1.51038037,1.1797269,4.30272691,4.32982778,0.64535761,0.456182086,-0.290885889,0.712360452,1.0
1.0,-3.89801914,-1.51026173,1.17842752,4.29589669,4.33357906,0.6453653,0.453952632,-0.294461876,0.713780353,1.0
1.0,-3.9063645,-1.51005759,1.17716486,4.2887942,4.33730936,0.64534908,0.451748467,-0.298016114,0.715175979,1.0
1.0,-3.91468198,-1.5098852,1.17590648,4.28209798,4.34113312,0.64534908,0.449515105,-0.301519405,0.716530775,1.0
1.0,-3.92310268,-1.5096691,1.17467291,4.27564733,4.34493446,0.64539832,0.447235994,-0.305067441,0.717819035,1.0
1.0,-3.93156106,-1.50954144,1.17338735,4.26899259,4.34883881,0.64538544,0.444881086,-0.30856406,0.719207933,1.0
1.0,-3.9398318,-1.50936439,1.17213709,4.26207702,4.35279322,0.64535332,0.442578099,-0.311973106,0.720589047,1.0
1.0,-3.94818765,-1.50918121,1.17091686,4.2551543,4.35674381,0.64535332,0.440221606,-0.315401626,0.721954853,1.0
1.0,-3.95664555,-1.50899383,1.16970998,4.24866979,4.36061764,0.6453653,0.437798995,-0.318859636,0.723255773,1.0
1.0,-3.96500284,-1.50878823,1.16849882,4.24219148,4.364326,0.64538538,0.435369447,-0.322264077,0.724554114,1.0
1.0,-3.97334201,-1.50864871,1.16728574,4.23545043,4.3681221,0.64532852,0.432895478,-0.325602847,0.725924065,1.0
1.0,-3.9817012,-1.50851042,1.16609079,4.22837321,4.37191486,0.64538121,0.430383171,-0.328923751,0.727333125,1.0
1.0,-3.99020845,-1.5082974,1.16492254,4.22157447,4.37568998,0.6453619,0.4278216,-0.332319488,0.728652885,1.0
1.0,-3.99853951,-1.50803946,1.16370994,4.21505801,4.37960196,0.6453414,0.42531392,-0.335625241,0.729931127,1.0
1.0,-4.00688726,-1.50787126,1.16243774,4.20848195,4.38354254,0.64530438,0.422733891,-0.33886579,0.731296345,1.0
1.0,-4.0152517,-1.50773763,1.16120607,4.20173614,4.38744068,0.6453653,0.420104769,-0.342076307,0.732685042,1.0
1.0,-4.02361995,-1.50751564,1.16002494,4.19473664,4.39134169,0.64537811,0.417479881,-0.345302886,0.734037127,1.0
1.0,-4.03203017,-1.50736567,1.15872795,4.18805234,4.39507628,0.64534908,0.414762078,-0.348484979,0.73544777,1.0
1.0,-4.04034025,-1.50718398,1.15748102,4.18155639,4.39889288,0.64538538,0.412075593,-0.351616889,0.736790007,1.0
1.0,-4.04874498,-1.50700379,1.15618593,4.17496364,4.40267229,0.64535338,0.409318085,-0.354753931,0.738172389,1.0
1.0,-4.05718595,-1.50685226,1.15487272,4.16799943,4.40638781,0.64534473,0.406497624,-0.357858711,0.739631993,1.0
1.0,-4.06551701,-1.50665571,1.15361387,4.16096084,4.41025114,0.64538538,0.40372142,-0.360909707,0.741048413,1.0
1.0,-4.07386357,-1.50646678,1.15220577,4.15447728,4.41418695,0.64540625,0.400908314,-0.363922226,0.742468062,1.0
1.0,-4.08226997,-1.50635123,1.150904,4.14798658,4.41816235,0.64540195,0.398034602,-0.366906866,0.743874233,1.0
1.0,-4.09069521,-1.50616206,1.14961845,4.14123027,4.42206716,0.64538544,0.395144085,-0.369903692,0.745271334,1.0
1.0,-4.09900696,-1.5059715,1.14829475,4.1343147,4.42581701,0.64534468,0.392249596,-0.37282393,0.746711879,1.0
1.0,-4.1073559,-1.50577806,1.14695436,4.12755172,4.42962551,0.64536953,0.389321733,-0.375728436,0.748138014,1.0
1.0,-4.11579377,-1.50560246,1.14569647,4.12106149,4.43336058,0.64532858,0.386333056,-0.378647603,0.749496737,1.0
1.0,-4.12416536,-1.50552412,1.14445764,4.11454217,4.43721056,0.64538538,0.38332395,-0.381460806,0.750899935,1.0
1.0,-4.13250095,-1.50525727,1.14317733,4.10766284,4.44099045,0.64538544,0.380349509,-0.384310272,0.752274269,1.0
1.0,-4.14090425,-1.50514454,1.14194709,4.10065095,4.44491196,0.64534914,0.37728984,-0.387076733,0.75372109,1.0
1.0,-4.14931089,-1.50493901,1.1406973,4.09401433,4.44886494,0.64537382,0.374240635,-0.38986412,0.755077511,1.0
1.0,-4.1576894,-1.50482487,1.13949043,4.08748786,4.45269871,0.6453371,0.371143983,-0.39257629,0.756447863,1.0
1.0,-4.16601927,-1.50461182,1.13822729,4.08087079,4.45654821,0.64541388,0.368068747,-0.395277648,0.757806126,1.0
1.0,-4.174424,-1.50432352,1.13702232,4.07393424,4.46033049,0.64536953,0.364956993,-0.398014947,0.759139385,1.0
1.0,-4.18283993,-1.50419766,1.13588316,4.06697862,4.46405363,0.64536536,0.361767478,-0.400651192,0.760528766,1.0
1.0,-4.19115741,-1.50404304,1.13464958,4.06050555,4.46784782,0.6453619,0.358609851,-0.403231589,0.761884066,1.0
1.0,-4.19948894,-1.50384652,1.13343794,4.05394713,4.47175789,0.64536953,0.355448411,-0.405803833,0.763215989,1.0
1.0,-4.20792109,-1.50365301,1.13224251,4.04726569,4.47561455,0.64537805,0.352217452,-0.408377649,0.764558291,1.0
1.0,-4.21630603,-1.50349383,1.13099748,4.0402004,4.47955847,0.64533716,0.348971336,-0.410860069,0.765993335,1.0
1.0,-4.22463948,-1.50332721,1.12974626,4.03339021,4.48351812,0.64539409,0.345732886,-0.413301467,0.767392649,1.0
1.0,-4.23304588,-1.50317116,1.1285432,4.02692477,4.48726845,0.64542246,0.342431027,-0.415754046,0.768729348,1.0
1.0,-4.24147612,-1.50302862,1.12731821,4.02033822,4.4910965,0.64537382,0.339098486,-0.418163301,0.770098683,1.0
1.0,-4.24992401,-1.50275849,1.12597114,4.01354186,4.49486733,0.64540195,0.335753806,-0.420586794,0.771489299,1.0
1.0,-4.25822503,-1.50255753,1.12472087,4.00658195,4.49861717,0.64534575,0.332435205,-0.422898844,0.772889064,1.0
1.0,-4.26654917,-1.50234734,1.12338764,3.99991815,4.50244951,0.6453653,0.329096657,-0.425184407,0.774284047,1.0
1.0,-4.27497155,-1.5022334,1.12211925,3.99345367,4.50634575,0.64536196,0.325687547,-0.427431435,0.775669386,1.0
1.0,-4.28343517,-1.5020818,1.12082321,3.98680465,4.51031589,0.64538974,0.322253873,-0.429663075,0.777071229,1.0
1.0,-4.29168743,-1.50188063,1.11943847,3.97985045,4.51425362,0.6454224,0.318890214,-0.431791274,0.778530206,1.0
1.0,-4.30012173,-1.50172909,1.11814815,3.97281949,4.51799583,0.64538974,0.315405518,-0.433931173,0.779978737,1.0
1.0,-4.30850369,-1.50155345,1.11686308,3.96632068,4.52179956,0.64536953,0.311948631,-0.43605475,0.781340207,1.0
1.0,-4.31684643,-1.50139447,1.1155575,3.95983951,4.52554512,0.64536536,0.308481515,-0.438119376,0.782717275,1.0
1.0,-4.32518787,-1.50114828,1.11429865,3.95308749,4.52929401,0.64536953,0.305018348,-0.44019381,0.78405934,1.0
1.0,-4.33357507,-1.50103423,1.11300737,3.94614141,4.53311682,0.64540201,0.301489488,-0.442152827,0.785509344,1.0
1.0,-4.34198219,-1.50087517,1.11177046,3.93936555,4.53697968,0.64539331,0.297958167,-0.444124229,0.786884723,1.0
1.0,-4.35033709,-1.50066364,1.11049587,3.93290631,4.54098177,0.64541817,0.294463462,-0.446080154,0.788207516,1.0
1.0,-4.35866577,-1.50054649,1.10924846,3.92627875,4.54489899,0.64540201,0.290935988,-0.447935391,0.789586723,1.0
1.0,-4.36708683,-1.50031258,1.10802347,3.91948526,4.54876518,0.64538544,0.287371934,-0.449846346,0.790913794,1.0
1.0,-4.37546546,-1.5000919,1.10684616,3.9124438,4.55254221,0.64538974,0.283800046,-0.451698117,0.792254575,1.0
1.0,-4.3837691,-1.49997324,1.1055997,3.90577476,4.55640888,0.64536953,0.280238531,-0.453435772,0.793631828,1.0
1.0,-4.39224393,-1.49976322,1.10444147,3.89933173,4.56016159,0.64534914,0.276603952,-0.455270945,0.794888098,1.0
1.0,-4.40064592,-1.49961755,1.10321552,3.89266412,4.56403255,0.64542669,0.272980102,-0.456982172,0.796236587,1.0
1.0,-4.4090218,-1.49942406,1.10199625,3.88581531,4.56782293,0.64537382,0.269354898,-0.458670105,0.797577947,1.0
1.0,-4.41730351,-1.49924846,1.10080177,3.87886636,4.57169437,0.6453653,0.26576587,-0.460282429,0.798926046,1.0
1.0,-4.42573327,-1.49908944,1.09958345,3.87234275,4.57559061,0.64537686,0.26210298,-0.461906559,0.80023805,1.0
1.0,-4.43407876,-1.49890483,1.09831077,3.86586825,4.5794611,0.6454106,0.258467975,-0.463479268,0.80155472,1.0
1.0,-4.44238919,-1.49869917,1.09708101,3.85909574,4.58332729,0.64538121,0.254839854,-0.465009666,0.802874235,1.0
1.0,-4.45066375,-1.49858212,1.09584934,3.85225551,4.58692122,0.64537382,0.251176084,-0.466438088,0.804247055,1.0
1.0,-4.45885009,-1.498396,1.09463579,3.84554402,4.59059906,0.64540958,0.247567613,-0.467860916,0.805555986,1.0
1.0,-4.46702368,-1.49815455,1.09331066,3.83931653,4.59432507,0.64540958,0.243971597,-0.46928586,0.806827503,1.0
1.0,-4.47493381,-1.49796996,1.09211523,3.83303372,4.59804153,0.64537686,0.240487475,-0.470600777,0.808069623,1.0
1.0,-4.48286409,-1.49784538,1.09089786,3.82671945,4.60170746,0.64539337,0.236971258,-0.471842788,0.809354365,1.0
1.0,-4.49069757,-1.49758141,1.08967525,3.82019298,4.60541868,0.64537686,0.233515429,-0.47310007,0.810592806,1.0
1.0,-4.49841923,-1.4975244,1.08846981,3.81390206,4.60901737,0.6453653,0.230070564,-0.474188204,0.811897663,1.0
1.0,-4.50601119,-1.49736058,1.08726293,3.80811755,4.61254311,0.64535672,0.226696878,-0.475317887,0.813084279,1.0
1.0,-4.51356572,-1.49726458,1.08610469,3.80221002,4.61587763,0.6453653,0.223308797,-0.476369134,0.81429485,1.0
1.0,-4.52101595,-1.49710398,1.08493787,3.79615228,4.61915827,0.64536095,0.21996657,-0.477395568,0.815491729,1.0
1.0,-4.52837033,-1.49697316,1.08379633,3.78999011,4.62251615,0.64538908,0.216669868,-0.478348978,0.81670083,1.0
1.0,-4.53555924,-1.49677126,1.08271009,3.78395717,4.62580776,0.64539337,0.213454586,-0.479305698,0.817828758,1.0
1.0,-4.54273886,-1.4967124,1.08162719,3.77838866,4.62911463,0.64541399,0.21023165,-0.480174777,0.818969729,1.0
1.0,-4.54984111,-1.49656062,1.08052332,3.77287213,4.63244677,0.64540958,0.207055613,-0.481059092,0.820064409,1.0
1.0,-4.55687577,-1.49641215,1.07948238,3.76734178,4.63569164,0.64538121,0.203902472,-0.48191466,0.821129826,1.0
1.0,-4.56379122,-1.49623538,1.07847149,3.76179854,4.63894606,0.64537686,0.200808859,-0.482744173,0.822165294,1.0
1.0,-4.57056731,-1.49604648,1.07752306,3.75604503,4.64213371,0.64537686,0.197774543,-0.483527202,0.823186815,1.0
1.0,-4.5772596,-1.49589919,1.0765031,3.75060145,4.6451602,0.64539772,0.194759816,-0.484250214,0.824224658,1.0
1.0,-4.58390207,-1.49579546,1.07553322,3.7455055,4.64815092,0.64537686,0.19176543,-0.484950357,0.825217773,1.0
1.0,-4.59055478,-1.49565152,1.07459909,3.74039714,4.65108442,0.64536536,0.188763249,-0.485663259,0.826172586,1.0
1.0,-4.59701485,-1.49554328,1.07369262,3.73515479,4.65399837,0.64534479,0.185848179,-0.486289213,0.827145201,1.0
1.0,-4.60332472,-1.49533485,1.07277424,3.72990863,4.65688944,0.64537686,0.183010068,-0.486928415,0.828070673,1.0
1.0,-4.60961122,-1.49518969,1.07185919,3.72455899,4.65985012,0.64538908,0.1801841,-0.487491944,0.829035437,1.0
1.0,-4.61585802,-1.49509603,1.07094795,3.71962325,4.66269302,0.64538544,0.177365377,-0.488028488,0.829974669,1.0
1.0,-4.62199146,-1.49496284,1.07004959,3.71482579,4.66557503,0.64540195,0.174609454,-0.488565215,0.830869737,1.0
1.0,-4.62798912,-1.49483951,1.06911356,3.71011512,4.66839313,0.64536095,0.171912561,-0.489050464,0.831775327,1.0
1.0,-4.63384909,-1.4946605,1.06831772,3.70549504,4.67117357,0.64540958,0.169285643,-0.489572778,0.832574671,1.0
1.0,-4.63975698,-1.49460711,1.06738025,3.70076291,4.67384005,0.645401,0.16661422,-0.489956853,0.833513745,1.0
1.0,-4.64555127,-1.49446279,1.06655485,3.69607799,4.67635822,0.64537382,0.163991001,-0.490396676,0.834347139,1.0
1.0,-4.65125722,-1.49432985,1.06570369,3.69130532,4.6789937,0.64542669,0.161421786,-0.490782356,0.835205467,1.0
1.0,-4.65685302,-1.49425561,1.06490213,3.68689553,4.6814208,0.64539337,0.158886785,-0.491138133,0.836027619,1.0
1.0,-4.66232556,-1.49413657,1.06400758,3.68264691,4.68389702,0.64536095,0.156419045,-0.491478972,0.836850795,1.0
1.0,-4.66770763,-1.49400671,1.06319172,3.67841069,4.68638515,0.64540529,0.153999124,-0.491818185,0.83762838,1.0
1.0,-4.67308182,-1.49395223,1.06240493,3.67422931,4.6887517,0.64538968,0.15157026,-0.492102451,0.838421976,1.0
1.0,-4.67825669,-1.49375789,1.06155712,3.66998784,4.69122696,0.64536953,0.14925405,-0.492415415,0.839178679,1.0
1.0,-4.68338842,-1.49365726,1.06075603,3.66571776,4.69356394,0.64541054,0.146944621,-0.492653814,0.839961317,1.0
1.0,-4.68845696,-1.49355937,1.06002123,3.66147391,4.69591427,0.64540195,0.144669481,-0.492886384,0.840709532,1.0
1.0,-4.69341034,-1.49346968,1.05920631,3.65754621,4.69816113,0.6454258,0.142442053,-0.493091766,0.84146295,1.0
1.0,-4.69814855,-1.49339129,1.05841619,3.65375297,4.70055485,0.64540195,0.140336916,-0.493265008,0.842194061,1.0
1.0,-4.7029925,-1.49325354,1.05765468,3.65002219,4.70274448,0.64540529,0.138161282,-0.493494584,0.842874165,1.0
1.0,-4.70758766,-1.49316946,1.05699665,3.64643495,4.70484781,0.64538479,0.136100947,-0.493681554,0.843516122,1.0
1.0,-4.71215767,-1.49308223,1.05626899,3.64272801,4.70690823,0.64537686,0.134050017,-0.493827243,0.844199662,1.0
1.0,-4.71677739,-1.49300717,1.05562288,3.6391093,4.70892096,0.64538121,0.131971194,-0.493989533,0.84484061,1.0
1.0,-4.72118181,-1.49286626,1.05488569,3.63548009,4.71097612,0.6454258,0.130004103,-0.494133245,0.845490392,1.0
1.0,-4.72542161,-1.49274923,1.05425436,3.63188712,4.71291637,0.6453371,0.128108114,-0.4942602,0.846097846,1.0
1.0,-4.72970277,-1.49271909,1.05358774,3.6284167,4.71487093,0.64536953,0.126195363,-0.494325931,0.846749893,1.0
1.0,-4.73384721,-1.4925604,1.05298073,3.62511651,4.71666384,0.64533287,0.124333218,-0.494484642,0.847292165,1.0
1.0,-4.73787767,-1.49251358,1.05236465,3.62202184,4.718575,0.6454258,0.122541557,-0.494561454,0.847870906,1.0
1.0,-4.74187202,-1.49239358,1.05182201,3.61891191,4.72041559,0.64538544,0.120760164,-0.494693489,0.848380367,1.0
1.0,-4.74579436,-1.49233782,1.05119211,3.61583297,4.72220421,0.64539772,0.119012341,-0.494744741,0.84895688,1.0
1.0,-4.74958319,-1.49226587,1.0506633,3.61279933,4.72398043,0.64536095,0.117329274,-0.494814551,0.849473288,1.0
1.0,-4.75324661,-1.49222227,1.05012828,3.60977332,4.7257247,0.64540625,0.115707184,-0.494842108,0.850004427,1.0
1.0,-4.75687784,-1.49207258,1.04955084,3.60683362,4.72740841,0.64537686,0.114093182,-0.494929047,0.850493007,1.0
1.0,-4.76035709,-1.49204995,1.04900724,3.60391109,4.72905827,0.6453405,0.112555793,-0.494915309,0.851025429,1.0
2.0,-4.76383382,-1.4919912,1.04853231,3.60102622,4.73065281,0.64532858,0.111013255,-0.494941615,0.851503943,2.0
2.0,-4.76719278,-1.49189825,1.04806406,3.59833257,4.73219299,0.64534479,0.109522303,-0.494992801,0.851942389,2.0
2.0,-4.77039546,-1.4918173,1.04761345,3.59568421,4.73367929,0.64539337,0.108104273,-0.495022132,0.852373177,2.0
2.0,-4.77356118,-1.49181847,1.047108,3.59321754,4.735147,0.64538908,0.106706899,-0.494988976,0.852849831,2.0
2.0,-4.77665013,-1.49167955,1.04668552,3.59096066,4.7365241,0.6453653,0.105330694,-0.495081858,0.853198718,2.0
2.0,-4.77955944,-1.49166572,1.04630071,3.58860509,4.73791981,0.64538121,0.104051735,-0.495065464,0.853600599,2.0
2.0,-4.7824604,-1.49166243,1.04579813,3.58631246,4.73919249,0.64538544,0.102767977,-0.495010908,0.854054022,2.0
2.0,-4.78531665,-1.49154885,1.04541141,3.58412568,4.74045658,0.64538121,0.101498024,-0.495065251,0.854390005,2.0
2.0,-4.78799803,-1.49153033,1.0449918,3.58199422,4.7416749,0.64536095,0.100315951,-0.49502889,0.85478103,2.0
2.0,-4.79061372,-1.49144952,1.04460365,3.57980554,4.74284172,0.64533287,0.09915867,-0.495027908,0.855132522,2.0
2.0,-4.79315263,-1.49142236,1.04422456,3.57778279,4.74399376,0.64538908,0.098040074,-0.494997909,0.855489024,2.0
2.0,-4.79559607,-1.49134481,1.04387695,3.57580058,4.74506712,0.64539772,0.096957772,-0.49500242,0.855802311,2.0
2.0,-4.79791099,-1.49134577,1.0435198,3.57386462,4.74613857,0.64536536,0.095944009,-0.494939433,0.85615293,2.0
2.0,-4.80018443,-1.49127384,1.04322225,3.57196919,4.74718475,0.64537686,0.094942853,-0.494940252,0.856436804,2.0
2.0,-4.80233986,-1.49120826,1.04286939,3.57012956,4.74818325,0.64541817,0.093997111,-0.494913476,0.856742815,2.0
2.0,-4.80440742,-1.49126311,1.04257471,3.5684921,4.74915409,0.64540529,0.093097039,-0.494828913,0.857060837,2.0
2.0,-4.80645198,-1.49116139,1.04227001,3.566878,4.75009441,0.64541042,0.092195792,-0.494847965,0.857304879,2.0
2.0,-4.80835325,-1.49120315,1.04197342,3.56534259,4.75094509,0.64539337,0.091365554,-0.494762242,0.857606789,2.0
2.0,-4.81019038,-1.49109829,1.04173834,3.56386249,4.75178766,0.64536536,0.090554657,-0.49479265,0.857804381,2.0
2.0,-4.81192703,-1.49106975,1.0415209,3.56251781,4.75264359,0.6454019,0.089798438,-0.494778236,0.858017596,2.0
2.0,-4.81358129,-1.4910678,1.04124672,3.56121413,4.75338554,0.64539337,0.089075017,-0.494724726,0.858265038,2.0
2.0,-4.81516272,-1.49101862,1.04102785,3.56004111,4.75410032,0.64540631,0.088378983,-0.494724328,0.858451993,2.0
2.0,-4.81662769,-1.49092574,1.040788,3.55889575,4.75477123,0.64541721,0.087733542,-0.49473965,0.858624432,2.0
2.0,-4.81801612,-1.49089741,1.04064542,3.55780141,4.75543833,0.64538974,0.087127176,-0.494734169,0.858779289,2.0
2.0,-4.81927663,-1.4908777,1.0404132,3.55677573,4.75596857,0.64541399,0.086573175,-0.494692522,0.858971911,2.0
2.0,-4.82045395,-1.49082849,1.04020483,3.5558707,4.75650787,0.64539337,0.086057139,-0.494682282,0.859127884,2.0
2.0,-4.82158679,-1.49084171,1.04004604,3.55493562,4.75701857,0.64538908,0.085564099,-0.494634513,0.859294495,2.0
2.0,-4.82257063,-1.49077279,1.03981191,3.5541908,4.75753117,0.64535672,0.085138797,-0.494629431,0.859436984,2.0
2.0,-4.82356662,-1.49081017,1.03971321,3.55337827,4.75791645,0.64540201,0.0847,-0.494580266,0.859576469,2.0
2.0,-4.82438451,-1.49072379,1.03955728,3.55271594,4.75836086,0.64537257,0.084345504,-0.49460166,0.859667489,2.0
2.0,-4.82514221,-1.49080246,1.03945381,3.55210225,4.75869989,0.64544231,0.084021245,-0.494521845,0.859809963,2.0
2.0,-4.8258043,-1.49076204,1.03933841,3.5515496,4.75898743,0.64539337,0.083729453,-0.494518991,0.859894534,2.0
2.0,-4.82641679,-1.49072037,1.03923828,3.55112092,4.75927257,0.64538544,0.083459882,-0.49452957,0.859959847,2.0
2.0,-4.82681698,-1.49071102,1.03919202,3.55069749,4.75945044,0.6454019,0.083285553,-0.49451438,0.860016149,2.0
2.0,-4.82722885,-1.49077221,1.0391348,3.55036609,4.75967884,0.64540958,0.083115372,-0.494458019,0.860102566,2.0
2.0,-4.82753116,-1.49069333,1.03912288,3.55014388,4.75979471,0.64541393,0.082974139,-0.494512448,0.860090894,2.0
2.0,-4.82778424,-1.49065715,1.03909427,3.54998033,4.75986671,0.64540195,0.082856136,-0.494534338,0.860101742,2.0
2.0,-4.82785029,-1.49065274,1.03914816,3.54987161,4.75994587,0.64536953,0.082830634,-0.494546885,0.860085741,2.0
2.0,-4.82791454,-1.49065717,1.03909856,3.54984872,4.75988102,0.6453653,0.082794637,-0.494532809,0.8601123,2.0
2.0,-4.82793123,-1.49064195,1.03916008,3.55001847,4.75985718,0.64538908,0.082778718,-0.494578853,0.860061332,2.0
2.0,-4.82795829,-1.49045961,1.0391019,3.55017774,4.75990248,0.64538479,0.082754839,-0.494708388,0.859984358,2.0
2.0,-4.82815117,-1.49034836,1.0391391,3.55031268,4.75990152,0.64539337,0.082647404,-0.494825488,0.859901257,2.0
2.0,-4.82826966,-1.49012788,1.0391391,3.55059688,4.75989294,0.64539778,0.082566388,-0.495017306,0.859767952,2.0
2.0,-4.8284691,-1.48982755,1.03917057,3.55088632,4.75999022,0.64538908,0.082448168,-0.495280908,0.859581379,2.0
2.0,-4.82883114,-1.48955711,1.03912431,3.55137508,4.76000166,0.64540529,0.082243157,-0.495535863,0.859425091,2.0
2.0,-4.82911271,-1.489082,1.03916151,3.55188577,4.7600255,0.64536828,0.082059411,-0.495950771,0.859130309,2.0
2.0,-4.82949287,-1.48871236,1.03919059,3.55253045,4.76009321,0.64538908,0.081838098,-0.496312387,0.858877111,2.0
2.0,-4.82992441,-1.48813035,1.03921444,3.55328433,4.76012897,0.64541286,0.081569131,-0.496834362,0.858512895,2.0
2.0,-4.83039195,-1.48752252,1.03929502,3.55416839,4.76015758,0.64539337,0.081275547,-0.497405292,0.858097841,2.0
2.0,-4.83092434,-1.48691791,1.03933555,3.55511825,4.7602458,0.64540195,0.080955817,-0.497975006,0.857695518,2.0
2.0,-4.83147079,-1.4861426,1.03938371,3.55620162,4.76033401,0.64538121,0.080612354,-0.498678759,0.857193551,2.0
2.0,-4.83204264,-1.48547568,1.03942234,3.55730407,4.76038074,0.64538538,0.080260561,-0.499308037,0.85674605,2.0
2.0,-4.83267337,-1.48480801,1.03951961,3.5584871,4.76044512,0.6453653,0.079877444,-0.499965894,0.856263376,2.0
2.0,-4.83336896,-1.48401581,1.03955442,3.55985896,4.76052141,0.64541817,0.079451379,-0.500716267,0.855729221,2.0
2.0,-4.83407528,-1.48319041,1.03958589,3.56124084,4.76060104,0.64540195,0.079016506,-0.501489392,0.855178514,2.0
2.0,-4.83490712,-1.48234369,1.03969556,3.56273381,4.76064014,0.64540535,0.078507784,-0.502317714,0.854570379,2.0
2.0,-4.83574599,-1.48135675,1.03979141,3.56433122,4.7607727,0.64539778,0.077990613,-0.503248969,0.853888505,2.0
2.0,-4.83660776,-1.48032741,1.03984624,3.56603114,4.7608242,0.64536095,0.07744885,-0.504208189,0.853193076,2.0
2.0,-4.83755547,-1.47929493,1.03994733,3.56783168,4.76093292,0.64536524,0.076864754,-0.505197181,0.852463842,2.0
2.0,-4.8385138,-1.47818305,1.03999359,3.56975476,4.76095915,0.64539772,0.076258732,-0.506236409,0.85170682,2.0
2.0,-4.83947164,-1.47699446,1.04016,3.571788,4.7611084,0.64538121,0.075651148,-0.507369482,0.850844728,2.0
2.0,-4.84054643,-1.47576678,1.04022295,3.57387559,4.76123667,0.64538121,0.074979441,-0.508513499,0.850002922,2.0
2.0,-4.84166533,-1.47435829,1.04031259,3.57604377,4.76130009,0.64539772,0.074258546,-0.50979576,0.849049245,2.0
2.0,-4.84283728,-1.47302646,1.04044611,3.57818715,4.76137543,0.64540195,0.07351497,-0.511035709,0.848113615,2.0
2.0,-4.84399814,-1.4716099,1.04059154,3.58046357,4.76153231,0.64532429,0.072772719,-0.512346053,0.847114565,2.0
2.0,-4.84521944,-1.47018892,1.04070694,3.58275764,4.76161528,0.64540529,0.071989872,-0.513653616,0.846122601,2.0
2.0,-4.84657079,-1.46874071,1.04077751,3.58510177,4.7617836,0.64536095,0.071144084,-0.514979371,0.84512975,2.0
2.0,-4.84791726,-1.46715606,1.04095155,3.58760898,4.76189995,0.64536536,0.070274011,-0.516435137,0.84400173,2.0
2.0,-4.84928292,-1.46553062,1.0410412,3.59017388,4.76199865,0.64539337,0.069387208,-0.517899116,0.84288272,2.0
2.0,-4.85069746,-1.46396038,1.04118664,3.59291522,4.76216268,0.6453653,0.068478817,-0.519356529,0.841744546,2.0
2.0,-4.85213834,-1.46224498,1.04131681,3.59573857,4.76227856,0.64538121,0.067533953,-0.520912053,0.840528045,2.0
2.0,-4.85366887,-1.46046075,1.04144127,3.59871165,4.76244688,0.64541817,0.066535075,-0.522527724,0.839259898,2.0
2.0,-4.85524685,-1.45864656,1.04161388,3.60184114,4.76254225,0.64538908,0.065493021,-0.52418699,0.83793386,2.0
2.0,-4.85692555,-1.45675555,1.04175312,3.60499589,4.76270914,0.64537686,0.064393932,-0.525892499,0.836576849,2.0
2.0,-4.85854978,-1.45485125,1.04192573,3.60829942,4.76289749,0.64534807,0.063316147,-0.527619146,0.835177295,2.0
2.0,-4.86024922,-1.45279651,1.04208118,3.61158149,4.76306915,0.64538479,0.062178077,-0.52943719,0.833705623,2.0
2.0,-4.86204344,-1.45073436,1.04223234,3.61485164,4.76326227,0.64539337,0.060986128,-0.531256551,0.832228022,2.0
2.0,-4.86388106,-1.44861152,1.04243833,3.61819188,4.76341343,0.64539772,0.059752113,-0.533130304,0.830680627,2.0
2.0,-4.86573071,-1.44636738,1.04258949,3.62169854,4.7635932,0.64537251,0.058495803,-0.535078523,0.829072345,2.0
2.0,-4.86765617,-1.44421102,1.04273588,3.62518279,4.76376009,0.64536095,0.057201041,-0.536961276,0.827508311,2.0
2.0,-4.86954815,-1.44181094,1.04297477,3.62896554,4.76400185,0.64539337,0.055892157,-0.539042838,0.825735283,2.0
2.0,-4.87156266,-1.43942578,1.04312879,3.63290946,4.76416874,0.6453653,0.054505444,-0.541104419,0.823985364,2.0
2.0,-4.87358004,-1.43704112,1.04338247,3.63700788,4.76430702,0.64544231,0.053101362,-0.543192083,0.822164801,2.0
2.0,-4.87561626,-1.4345305,1.04353649,3.64100616,4.76458931,0.64535761,0.051686024,-0.545320923,0.820328046,2.0
2.0,-4.87782735,-1.43200678,1.04372675,3.64500777,4.76479721,0.64536536,0.050157554,-0.547463661,0.818459189,2.0
2.0,-4.87995857,-1.42947315,1.04395897,3.64903705,4.76493025,0.64537251,0.04865456,-0.549608073,0.816554366,2.0
2.0,-4.88221664,-1.4269298,1.04415113,3.65322129,4.76520348,0.64535242,0.047086019,-0.551758263,0.814638326,2.0
2.0,-4.884507,-1.42424913,1.04439527,3.65746705,4.7653923,0.64539337,0.045464839,-0.554001253,0.81260882,2.0
2.0,-4.88679833,-1.42154774,1.0446232,3.66199891,4.7656107,0.64540195,0.043831538,-0.556264298,0.810535056,2.0
2.0,-4.88919527,-1.41883156,1.04490358,3.6667134,4.76582718,0.64540529,0.042124074,-0.558553601,0.808398531,2.0
2.0,-4.89164549,-1.41608498,1.04507286,3.67136304,4.76604223,0.64538121,0.040379622,-0.560819186,0.806296743,2.0
2.0,-4.89404875,-1.41313413,1.04532177,3.67601268,4.76631498,0.64539337,0.038631213,-0.563214912,0.804035878,2.0
2.0,-4.89661855,-1.41018842,1.04561836,3.68062226,4.76649332,0.64541393,0.036769412,-0.565603067,0.801749329,2.0
2.0,-4.89918358,-1.40725026,1.04583437,3.68541114,4.76680613,0.64540195,0.034915039,-0.567967748,0.799475076,2.0
2.0,-4.90181238,-1.40410915,1.04612619,3.69032065,4.76705217,0.64539772,0.032978612,-0.570468455,0.797027603,2.0
2.0,-4.90446407,-1.40098217,1.04638702,3.69554107,4.76726008,0.645401,0.031013049,-0.572958725,0.794555397,2.0
2.0,-4.9072221,-1.39773911,1.04668695,3.70092218,4.7675643,0.64537686,0.028967063,-0.575525628,0.791969007,2.0
2.0,-4.90995556,-1.39453276,1.04693729,3.70608489,4.76784897,0.64538544,0.026932282,-0.578021169,0.789441035,2.0
2.0,-4.91272623,-1.39127997,1.0472253,3.71132676,4.76799345,0.6454258,0.024842884,-0.580536917,0.78684744,2.0
2.0,-4.91549212,-1.38799647,1.04753811,3.71664588,4.76831913,0.64537686,0.022757165,-0.583063028,0.784203357,2.0
2.0,-4.91837162,-1.38458276,1.04782611,3.72210853,4.76856136,0.64540958,0.020568203,-0.585652538,0.781467945,2.0
2.0,-4.92131943,-1.38115074,1.04801637,3.72784774,4.76889134,0.64536095,0.018333649,-0.588232463,0.77872401,2.0
2.0,-4.92429334,-1.37772103,1.04832346,3.73374955,4.769207,0.64541393,0.016063642,-0.590820708,0.775891182,2.0
2.0,-4.92730433,-1.37411143,1.04862959,3.73944871,4.76949883,0.64538544,0.013737337,-0.593477157,0.772966614,2.0
2.0,-4.93040854,-1.37051691,1.04893667,3.74511354,4.76975441,0.64539337,0.01134244,-0.596096678,0.770040777,2.0
2.0,-4.93353755,-1.36688097,1.04921991,3.75088088,4.77006674,0.6454215,0.008919938,-0.598717342,0.767076562,2.0
2.0,-4.93674451,-1.36322104,1.04954559,3.75704925,4.77039385,0.64540958,0.006428702,-0.601358837,0.764013727,2.0
2.0,-4.94001013,-1.35948405,1.04985077,3.76344172,4.7706933,0.64538908,0.003873926,-0.604026144,0.760873552,2.0
2.0,-4.9432419,-1.35568215,1.0501836,3.76964442,4.77091837,0.64536095,0.00131266,-0.60669224,0.757690259,2.0
2.0,-4.94655747,-1.3517457,1.05052835,3.77573316,4.77128363,0.64541811,-0.001315673,-0.609402607,0.754421037,2.0
2.0,-4.94987113,-1.34776013,1.05081445,3.78201453,4.7715621,0.64539337,-0.003971459,-0.612108808,0.751112245,2.0
2.0,-4.95324833,-1.34381311,1.05117399,3.78864877,4.77192736,0.64539337,-0.006673214,-0.614793942,0.747729316,2.0
2.0,-4.95671147,-1.33973549,1.05149776,3.79550664,4.77222586,0.64540195,-0.009467333,-0.617523072,0.744241493,2.0
2.0,-4.96023864,-1.33568212,1.05187446,3.80212657,4.77254963,0.64541393,-0.012306761,-0.620197439,0.740755994,2.0
2.0,-4.96380431,-1.33151184,1.05224592,3.80867354,4.77289247,0.64536095,-0.015196741,-0.622895645,0.737195882,2.0
2.0,-4.96741814,-1.32729913,1.05252344,3.81534974,4.7732234,0.64538544,-0.018135224,-0.625570994,0.733624644,2.0
2.0,-4.97104651,-1.32314612,1.05294115,3.82247178,4.77361298,0.64537686,-0.021093167,-0.628219931,0.729944436,2.0
2.0,-4.97473592,-1.3187788,1.05330545,3.8297445,4.77392292,0.64539337,-0.024141194,-0.630942012,0.726123233,2.0
2.0,-4.9784537,-1.31445681,1.05367405,3.83675401,4.77429581,0.64538115,-0.027203649,-0.633586062,0.722345403,2.0
2.0,-4.98216814,-1.30997466,1.05398638,3.84367005,4.77460957,0.64534908,-0.030302646,-0.636261206,0.718492592,2.0
2.0,-4.98599977,-1.30553521,1.05445654,3.85097997,4.77498961,0.64540195,-0.033487225,-0.638907682,0.714516285,2.0
2.0,-4.98990351,-1.30102264,1.05479795,3.8587219,4.77534056,0.64538908,-0.03674473,-0.641545282,0.710485323,2.0
2.0,-4.99382443,-1.29650925,1.05519992,3.86616055,4.775774,0.64541393,-0.040016052,-0.644133151,0.706446068,2.0
2.0,-4.9977842,-1.29185186,1.05561191,3.87337606,4.77614546,0.64537686,-0.043350082,-0.646738614,0.702323436,2.0
2.0,-5.00180692,-1.28707679,1.05589277,3.88088052,4.77650404,0.64540625,-0.046754919,-0.649348256,0.698137394,2.0
3.0,-5.00581462,-1.28226812,1.05631811,3.88908736,4.7769289,0.64542246,-0.050173864,-0.651970013,0.69374231,3.0
3.0,-5.00994319,-1.27736987,1.05675441,3.89686982,4.77726221,0.64534056,-0.053701132,-0.654562142,0.689323138,3.0
3.0,-5.01408667,-1.272494,1.05719024,3.90460078,4.77771521,0.64538544,-0.057233808,-0.657089832,0.684907815,3.0
3.0,-5.01827497,-1.26766677,1.05758888,3.91251151,4.77808952,0.64538538,-0.060807287,-0.659536861,0.680500853,3.0
3.0,-5.02252144,-1.26281421,1.05798942,3.92101638,4.7785182,0.64535338,-0.064434104,-0.661957131,0.67597786,3.0
3.0,-5.02688271,-1.25785096,1.05832321,3.92914979,4.77890492,0.64535248,-0.068162564,-0.664348981,0.67145122,3.0
3.0,-5.03124375,-1.25270785,1.05874473,3.93703572,4.77934027,0.64539772,-0.071925342,-0.666773722,0.666777985,3.0
3.0,-5.03558869,-1.24754112,1.05915958,3.94538133,4.77973175,0.64540625,-0.075698567,-0.669161022,0.662011205,3.0
3.0,-5.03999716,-1.242339,1.05962545,3.95411746,4.78018808,0.64536095,-0.079526936,-0.671513758,0.657122605,3.0
3.0,-5.04431099,-1.2371084,1.0600546,3.96256034,4.78054571,0.64534044,-0.083309951,-0.673813028,0.652257141,3.0
3.0,-5.04872686,-1.23196282,1.06050235,3.97059123,4.78101397,0.64539778,-0.087142332,-0.676000423,0.647479321,3.0
3.0,-5.05312866,-1.22677787,1.06088621,3.97916667,4.78146601,0.64537388,-0.090981715,-0.678149879,0.642616648,3.0
3.0,-5.05755955,-1.22162511,1.06125051,3.98763673,4.78185749,0.64538121,-0.094846158,-0.680215708,0.637784486,3.0
3.0,-5.06198115,-1.21647514,1.06168777,3.99584405,4.78225565,0.64537686,-0.098709052,-0.68222198,0.632937314,3.0
3.0,-5.06643075,-1.2113796,1.06210834,4.00395362,4.78268862,0.64538121,-0.102582974,-0.684139724,0.62813492,3.0
3.0,-5.07070417,-1.20630674,1.06252367,4.01268165,4.78311539,0.64536536,-0.106339458,-0.686010746,0.623249916,3.0
3.0,-5.07514459,-1.20112138,1.06292945,4.02116935,4.78354263,0.64538115,-0.110230473,-0.687848652,0.618313391,3.0
3.0,-5.07949895,-1.19605739,1.06331283,4.02926366,4.78396225,0.64538974,-0.114044311,-0.68958004,0.613513539,3.0
3.0,-5.08384306,-1.19095843,1.06361515,4.03742949,4.78434849,0.64535242,-0.117860708,-0.691263731,0.608709908,3.0
3.0,-5.08831102,-1.18578465,1.06408102,4.04626052,4.78480053,0.64539772,-0.121774026,-0.692914196,0.603662676,3.0
3.0,-5.09270269,-1.18054815,1.06452734,4.05465285,4.78523254,0.64539337,-0.125646087,-0.69453485,0.598631879,3.0
3.0,-5.09703821,-1.17551808,1.06498462,4.062699,4.78567266,0.64545083,-0.129444776,-0.696019784,0.593775318,3.0
3.0,-5.1014877,-1.17034923,1.06532175,4.07105891,4.78608751,0.64537382,-0.133345387,-0.697479579,0.58883111,3.0
3.0,-5.10580856,-1.16529338,1.06582767,4.0798618,4.78651571,0.64541817,-0.137136512,-0.698854505,0.583803468,3.0
3.0,-5.1102025,-1.1601366,1.06619007,4.08805434,4.78690863,0.64541817,-0.140995602,-0.700196791,0.578857122,3.0
3.0,-5.11461026,-1.15499102,1.06656772,4.09620587,4.7873416,0.64538544,-0.14485684,-0.70147517,0.573906793,3.0
3.0,-5.11903757,-1.14983671,1.0669716,4.10467021,4.78778267,0.64538544,-0.14872841,-0.702691258,0.568883419,3.0
3.0,-5.12340385,-1.14477764,1.06744844,4.11333911,4.78821707,0.64539337,-0.152537533,-0.703818494,0.563851285,3.0
3.0,-5.12773306,-1.13963641,1.06786186,4.12150924,4.78863668,0.64540529,-0.156332611,-0.704927225,0.558856403,3.0
3.0,-5.13215429,-1.13445483,1.0683077,4.12961118,4.78901911,0.64539337,-0.160198067,-0.705976695,0.553817127,3.0
3.0,-5.13658339,-1.12932451,1.06861049,4.13825576,4.78942585,0.6453678,-0.164048676,-0.706937055,0.548807335,3.0
3.0,-5.14097053,-1.12417995,1.06905252,4.14673488,4.78989363,0.64536536,-0.167861003,-0.707854746,0.543730215,3.0
3.0,-5.14535219,-1.11901845,1.06950456,4.15482013,4.79029798,0.64536828,-0.171674293,-0.70872535,0.538683571,3.0
3.0,-5.14976651,-1.11383374,1.06991846,4.16315047,4.79068756,0.64537686,-0.175505899,-0.709532888,0.53360043,3.0
3.0,-5.15418119,-1.10870327,1.07038385,4.1718785,4.79111147,0.6454215,-0.179312787,-0.710252935,0.528468878,3.0
3.0,-5.15862042,-1.10362183,1.07084209,4.18030755,4.79155636,0.6453405,-0.183121477,-0.710900919,0.523413025,3.0
3.0,-5.16298503,-1.09838526,1.07118112,4.18829362,4.79198313,0.64541811,-0.186900319,-0.711567966,0.5183645,3.0
3.0,-5.16733021,-1.09323762,1.07163889,4.19674222,4.79237413,0.64543432,-0.190637292,-0.712134501,0.513249579,3.0
3.0,-5.17173761,-1.08809908,1.07204515,4.20546548,4.79283428,0.64538479,-0.194396187,-0.71262255,0.508128092,3.0
3.0,-5.17606753,-1.08297412,1.07251245,4.21376149,4.79327774,0.64539337,-0.198093233,-0.713074425,0.503039299,3.0
3.0,-5.18050689,-1.07782047,1.07295973,4.2218868,4.79371309,0.64543432,-0.201864688,-0.713461733,0.49796053,3.0
3.0,-5.18493897,-1.07271038,1.07339555,4.23040025,4.79409552,0.64539772,-0.205609962,-0.713763754,0.492864658,3.0
3.0,-5.18928105,-1.06760956,1.07383043,4.23902719,4.79457331,0.64539772,-0.20926534,-0.714023441,0.487760096,3.0
3.0,-5.19368798,-1.06246908,1.07417232,4.24711244,4.79498005,0.64535761,-0.212978309,-0.714246273,0.4827461,3.0
3.0,-5.19808966,-1.05726971,1.0746482,4.25524632,4.79536247,0.64534479,-0.216680514,-0.714421375,0.477610805,3.0
3.0,-5.20243723,-1.05209835,1.0750764,4.26395671,4.79580689,0.64536536,-0.220307943,-0.714523724,0.472444819,3.0
3.0,-5.20687312,-1.04698892,1.07558757,4.27244012,4.79621363,0.6453979,-0.223979379,-0.714536187,0.467310998,3.0
3.0,-5.21122259,-1.0418355,1.07605678,4.28053824,4.79664135,0.64539772,-0.227587836,-0.714544138,0.462217978,3.0
3.0,-5.21570749,-1.03667464,1.07641298,4.28886716,4.79702425,0.64536953,-0.231279787,-0.714461456,0.457148811,3.0
3.0,-5.22011048,-1.03149642,1.07681925,4.29758088,4.79745197,0.64537382,-0.234882768,-0.714326291,0.451992796,3.0
3.0,-5.22454626,-1.02634551,1.07731039,4.305957,4.79782963,0.6453405,-0.238497429,-0.714129127,0.446858069,3.0
3.0,-5.22896225,-1.0211633,1.07772524,4.31390349,4.79833555,0.64539337,-0.242088129,-0.71392253,0.441797795,3.0
3.0,-5.23337752,-1.01618417,1.07818967,4.32236735,4.79868078,0.64536536,-0.24562881,-0.713575075,0.436797853,3.0
3.0,-5.23777682,-1.01103295,1.07864935,4.33103101,4.7991457,0.64538121,-0.24914591,-0.713213416,0.431652256,3.0
3.0,-5.24211342,-1.00584789,1.07907945,4.33928506,4.79951191,0.64537227,-0.252625565,-0.712841243,0.42655125,3.0
3.0,-5.24651212,-1.00070502,1.07940609,4.34743182,4.79996872,0.64539772,-0.256124701,-0.712409892,0.421552666,3.0
3.0,-5.25091738,-0.99550291,1.0798629,4.3560292,4.80033588,0.64540666,-0.259601822,-0.711895503,0.41639108,3.0
3.0,-5.25527329,-0.99028535,1.08035166,4.36461513,4.80073881,0.6454224,-0.263019295,-0.711342777,0.41120871,3.0
3.0,-5.25967628,-0.98512526,1.08076746,4.37280194,4.80117893,0.64536095,-0.26645593,-0.710745237,0.406160816,3.0
3.0,-5.26399845,-0.9800479,1.08122904,4.3809611,4.80158472,0.64540225,-0.269804212,-0.710096782,0.401159802,3.0
3.0,-5.26839942,-0.97488709,1.08158666,4.38965528,4.802001,0.64538538,-0.273181378,-0.709369888,0.396091896,3.0
3.0,-5.27276808,-0.96980323,1.08203918,4.39821212,4.80239153,0.64539832,-0.276504227,-0.708583353,0.391056491,3.0
3.0,-5.27721697,-0.96462096,1.08248264,4.40620009,4.80281925,0.64536095,-0.279893029,-0.707783251,0.386026275,3.0
3.0,-5.28160078,-0.95955958,1.08288557,4.41445224,4.80325937,0.64538121,-0.283188524,-0.706916424,0.381083262,3.0
3.0,-5.28603542,-0.95439269,1.08337051,4.42330663,4.80365038,0.64540619,-0.286480354,-0.705952245,0.375958442,3.0
3.0,-5.29042346,-0.94926192,1.08382446,4.43164842,4.8040452,0.64536065,-0.289733836,-0.704983755,0.370943822,3.0
3.0,-5.29479653,-0.94408067,1.08423073,4.43958871,4.8044858,0.64536065,-0.292975674,-0.704016084,0.365969314,3.0
3.0,-5.29915721,-0.93890704,1.08461124,4.44790046,4.80492496,0.6453979,-0.296167871,-0.702979499,0.36098026,3.0
3.0,-5.30356318,-0.93379344,1.08505613,4.45673291,4.8053565,0.64538121,-0.299329614,-0.701825693,0.355956366,3.0
3.0,-5.30795741,-0.9285921,1.08551866,4.46501033,4.8057518,0.64534914,-0.302494106,-0.700677951,0.350928871,3.0
3.0,-5.31235403,-0.92347528,1.0859769,4.47319619,4.80613422,0.64541423,-0.305630446,-0.699475987,0.34598678,3.0
3.0,-5.31680346,-0.91827668,1.0864175,4.48171775,4.80659056,0.64539337,-0.308763248,-0.698204449,0.340967552,3.0
3.0,-5.32116819,-0.91321053,1.08683235,4.49027888,4.80700588,0.6453979,-0.311798979,-0.696891469,0.33606737,3.0
3.0,-5.32556159,-0.90804555,1.08725483,4.49835031,4.80740547,0.64538997,-0.314863691,-0.695574625,0.331151646,3.0
3.0,-5.32992697,-0.90293618,1.08769638,4.50644223,4.80788183,0.64534569,-0.317866718,-0.694214837,0.326278038,3.0
3.0,-5.33434242,-0.89776082,1.0880788,4.51515977,4.80826139,0.64536536,-0.320861061,-0.692756638,0.321331472,3.0
3.0,-5.33868576,-0.89265956,1.088579,4.52378146,4.80869246,0.64540225,-0.323758213,-0.691261732,0.316406941,3.0
3.0,-5.34314216,-0.88748075,1.08905822,4.53193061,4.8090539,0.64539444,-0.326746103,-0.689733359,0.31149383,3.0
3.0,-5.34748054,-0.88234289,1.08938057,4.54012887,4.80953169,0.64539337,-0.329624366,-0.688221641,0.306695976,3.0
3.0,-5.35188479,-0.87719657,1.08981735,4.54883258,4.80992985,0.64537668,-0.332482293,-0.686583741,0.301801307,3.0
3.0,-5.35629547,-0.87204714,1.09022075,4.55724303,4.81036997,0.64536095,-0.335332675,-0.684933831,0.29696306,3.0
3.0,-5.36070043,-0.86695506,1.09061748,4.56531207,4.81081438,0.64540195,-0.338166281,-0.683268901,0.292216817,3.0
3.0,-5.36506051,-0.86179532,1.09106237,4.57371013,4.81116772,0.64537668,-0.340924792,-0.681544931,0.287380372,3.0
3.0,-5.36947227,-0.85668559,1.09148676,4.58249013,4.81161499,0.64539337,-0.343653461,-0.679734149,0.282573237,3.0
3.0,-5.37391341,-0.85151471,1.09194643,4.59076182,4.81203461,0.64535624,-0.346406224,-0.677915634,0.277764694,3.0
3.0,-5.3782993,-0.84633245,1.09227211,4.59883277,4.81244659,0.6453979,-0.349122082,-0.676116785,0.273042907,3.0
3.0,-5.38270349,-0.84116764,1.09262974,4.60721557,4.81283283,0.64536953,-0.351794478,-0.674237618,0.268307695,3.0
3.0,-5.38711518,-0.83602007,1.09307367,4.61591069,4.81333113,0.64538968,-0.354396801,-0.672281349,0.263537005,3.0
3.0,-5.39140761,-0.83090408,1.09357292,4.62406461,4.81373072,0.64536953,-0.35692283,-0.67036024,0.258825357,3.0
3.0,-5.39579684,-0.82583197,1.09398347,4.63223998,4.81413746,0.64540619,-0.359489329,-0.668378732,0.254202083,3.0
3.0,-5.40021271,-0.82072063,1.0943802,4.64081637,4.81458569,0.64540225,-0.36201322,-0.666323488,0.249541739,3.0
3.0,-5.40462518,-0.81559004,1.09477884,4.64951722,4.81498432,0.64536953,-0.364496908,-0.664220176,0.244874536,3.0
3.0,-5.40900785,-0.81044884,1.09516555,4.65748565,4.81537962,0.64538121,-0.366985424,-0.662161987,0.240278444,3.0
3.0,-5.41340804,-0.80523343,1.09560711,4.66579024,4.81577444,0.64536065,-0.369422806,-0.660026739,0.235595011,3.0
3.0,-5.41781438,-0.80008091,1.0959614,4.67455213,4.81621885,0.64538556,-0.371801506,-0.657828075,0.230983714,3.0
3.0,-5.42221344,-0.79493459,1.09641201,4.68292157,4.81668377,0.6453979,-0.374155597,-0.655618584,0.226381767,3.0
3.0,-5.42660273,-0.7897792,1.09676725,4.69095485,4.8170824,0.64537227,-0.376516702,-0.653424587,0.221856784,3.0
3.0,-5.43105615,-0.78460415,1.09716636,4.69921558,4.81753159,0.6453945,-0.378858173,-0.651149293,0.217301549,3.0
3.0,-5.4354043,-0.7794853,1.09753591,4.70799462,4.8179884,0.64538556,-0.381056966,-0.648837446,0.212786844,3.0
3.0,-5.43979007,-0.77434333,1.09801895,4.71639132,4.81834602,0.64536518,-0.38326647,-0.646489199,0.208250073,3.0
3.0,-5.4442342,-0.76922555,1.09842712,4.72447407,4.81877279,0.64539337,-0.385512434,-0.644135562,0.203804012,3.0
3.0,-5.44856728,-0.76409574,1.09882433,4.73297122,4.81925917,0.64540666,-0.387615958,-0.641762565,0.199349395,3.0
3.0,-5.45295418,-0.75894876,1.09922058,4.74158308,4.81958389,0.64534426,-0.389721776,-0.639318213,0.194895686,3.0
3.0,-5.45733512,-0.7538373,1.09970981,4.74967136,4.82001114,0.64533681,-0.391809992,-0.636885674,0.190480612,3.0
3.0,-5.46174306,-0.74864139,1.10004741,4.7577975,4.82047272,0.64538997,-0.393904247,-0.63444424,0.186086567,3.0
3.0,-5.46615756,-0.74346401,1.10045559,4.76646256,4.82092476,0.64534438,-0.395907939,-0.631906545,0.181668906,3.0
3.0,-5.47054112,-0.73830433,1.10091573,4.77510495,4.82132816,0.64537668,-0.397852094,-0.629342236,0.17726625,3.0
3.0,-5.47499848,-0.73316492,1.10136968,4.78330043,4.82173872,0.6453979,-0.399847972,-0.626766174,0.172926009,3.0
3.0,-5.47936344,-0.72803809,1.10171205,4.79139135,4.82215977,0.64533246,-0.401781308,-0.624234098,0.168667712,3.0
3.0,-5.48372746,-0.72287794,1.10215408,4.80010043,4.82257795,0.6453532,-0.403603917,-0.621598484,0.164338025,3.0
3.0,-5.48817188,-0.71779229,1.10256035,4.80864247,4.82294893,0.64541423,-0.405466536,-0.61892556,0.160107938,3.0
3.0,-5.49252636,-0.71261562,1.10295755,4.81669206,4.82343388,0.645374,-0.407278842,-0.616322268,0.155860246,3.0
3.0,-5.49691946,-0.70744313,1.10342819,4.82489666,4.8238368,0.64536065,-0.409056377,-0.613644149,0.151601433,3.0
3.0,-5.50128895,-0.70238139,1.10386688,4.83376983,4.82428169,0.64536518,-0.410725061,-0.610899603,0.147434108,3.0
3.0,-5.5057056,-0.69729926,1.10434801,4.84209605,4.82465982,0.64538562,-0.412435272,-0.608152368,0.143279499,3.0
3.0,-5.51007009,-0.69201185,1.10478908,4.8500948,4.82507992,0.64536518,-0.414113251,-0.605444418,0.139028161,3.0
3.0,-5.51445395,-0.68692787,1.10516483,4.85851918,4.82557249,0.6453979,-0.415738957,-0.602688924,0.13495883,3.0
3.0,-5.51883835,-0.68181445,1.10562021,4.86720737,4.82600069,0.64541113,-0.41729085,-0.599866218,0.130853346,3.0
3.0,-5.52322173,-0.67667426,1.10613281,4.8754503,4.82635832,0.64541423,-0.418842447,-0.59704876,0.126744259,3.0
3.0,-5.52765656,-0.67148413,1.10657198,4.88359131,4.82687616,0.64537394,-0.420404413,-0.59422603,0.122656265,3.0
3.0,-5.53209854,-0.66634514,1.10694963,4.89220725,4.82720661,0.64537668,-0.421914736,-0.591336339,0.118639211,3.0
3.0,-5.53647995,-0.66120781,1.1074093,4.90081776,4.82766771,0.64538556,-0.423328113,-0.588447651,0.114619584,3.0
3.0,-5.54083616,-0.65603395,1.10788185,4.90890521,4.82806206,0.64541423,-0.424744935,-0.585592399,0.110605405,3.0
3.0,-5.54529834,-0.65088429,1.10825569,4.91708564,4.82845354,0.64538556,-0.426203443,-0.582687527,0.106667785,3.0
3.0,-5.54966444,-0.6457056,1.10868723,4.92580368,4.82886887,0.64536953,-0.427499884,-0.579745345,0.102704654,3.0
4.0,-5.55403817,-0.6406007,1.10922033,4.93432223,4.82931757,0.64534885,-0.428763852,-0.576787165,0.098786872,4.0
4.0,-5.55842299,-0.6353872,1.10964281,4.94246222,4.82967949,0.64538556,-0.430065359,-0.573856064,0.094863438,4.0
4.0,-5.56280232,-0.63031955,1.1100052,4.95061204,4.83012772,0.64540219,-0.431345345,-0.570937787,0.091089669,4.0
4.0,-5.56722051,-0.62523611,1.11044723,4.95931796,4.83058167,0.64536953,-0.432535001,-0.567920468,0.087296707,4.0
4.0,-5.57157439,-0.62009187,1.11092169,4.96768223,4.83100557,0.64534438,-0.433680547,-0.56493689,0.083479276,4.0
4.0,-5.57600135,-0.61492331,1.11132795,4.97577803,4.83136702,0.64538121,-0.434880973,-0.561941303,0.07969599,4.0
4.0,-5.58040333,-0.60982295,1.11174709,4.98413666,4.831779,0.64537227,-0.436003786,-0.558925059,0.075980766,4.0
4.0,-5.58479286,-0.60469927,1.11221582,4.99299188,4.83217812,0.64539784,-0.437019554,-0.555844736,0.072258467,4.0
4.0,-5.5891366,-0.59949328,1.11258918,5.00113948,4.83263016,0.64532798,-0.438067921,-0.552856887,0.068539841,4.0
4.0,-5.59358949,-0.59426196,1.11303598,5.0092393,4.83305359,0.64536953,-0.43912923,-0.549794725,0.06480451,4.0
4.0,-5.59799886,-0.58914872,1.11339885,5.01776608,4.83351564,0.64538997,-0.440115414,-0.546731494,0.061207203,4.0
4.0,-5.60239166,-0.58402468,1.11387283,5.02637007,4.83381605,0.64536524,-0.441030321,-0.54362169,0.057592237,4.0
4.0,-5.60674781,-0.57890816,1.11440832,5.03458537,4.83428907,0.64539439,-0.441909478,-0.540554968,0.053988173,4.0
4.0,-5.61113334,-0.57378592,1.11479837,5.042695,4.83465529,0.64536071,-0.442827722,-0.537497565,0.050452534,4.0
4.0,-5.61554009,-0.56860455,1.11517364,5.05142667,4.83507633,0.64536071,-0.4436529,-0.534371993,0.046916041,4.0
4.0,-5.61994321,-0.56346865,1.11560852,5.05990868,4.83551979,0.64538121,-0.444457867,-0.531254756,0.043416329,4.0
4.0,-5.62431598,-0.55833478,1.11612541,5.06802531,4.83593941,0.64538556,-0.445233833,-0.528156063,0.039913554,4.0
4.0,-5.62878621,-0.55316909,1.11651928,5.07626011,4.83636951,0.64539444,-0.446046426,-0.525021646,0.036457039,4.0
4.0,-5.63315851,-0.54796334,1.11693079,5.08496483,4.83678675,0.64534569,-0.446715714,-0.521877109,0.033004807,4.0
4.0,-5.63753128,-0.54284354,1.11744768,5.09349428,4.83725214,0.64537674,-0.447349883,-0.518730426,0.02960323,4.0
4.0,-5.64189726,-0.53772803,1.11784631,5.1014473,4.8376174,0.64536518,-0.448052149,-0.515646607,0.026253972,4.0
4.0,-5.64629055,-0.53268059,1.11820108,5.10991712,4.8380003,0.64534885,-0.448700034,-0.512519577,0.023002887,4.0
4.0,-5.65075076,-0.52751823,1.11858875,5.11850552,4.83844519,0.6453979,-0.449313382,-0.509337753,0.019696804,4.0
4.0,-5.65507996,-0.52239056,1.11910183,5.12687414,4.83890247,0.64532798,-0.449821093,-0.506206904,0.01639861,4.0
4.0,-5.65947342,-0.51724513,1.11954862,5.13488998,4.83932066,0.64540666,-0.450389332,-0.50308131,0.01312442,4.0
4.0,-5.66390759,-0.51206251,1.11995012,5.14356415,4.83973265,0.64536518,-0.450884084,-0.49988784,0.009887896,4.0
4.0,-5.66836018,-0.50691612,1.12037641,5.15207754,4.84016085,0.64540225,-0.451372228,-0.496696296,0.006691269,4.0
4.0,-5.672705,-0.5017391,1.1208151,5.16023194,4.84056425,0.64536065,-0.451810667,-0.493572163,0.003485613,4.0
4.0,-5.67712379,-0.49656685,1.1211899,5.16835027,4.84099579,0.64537394,-0.452278725,-0.490431864,0.000326696,4.0
4.0,-5.68152446,-0.4914126,1.12156517,5.177121,4.84142304,0.64538896,-0.452639482,-0.48725022,-0.002766755,4.0
4.0,-5.68590761,-0.48626454,1.1220401,5.18561258,4.84181452,0.64543498,-0.452966446,-0.484074614,-0.005866656,4.0
4.0,-5.69026214,-0.48112615,1.12248642,5.19369839,4.84224129,0.64536953,-0.453304372,-0.48095231,-0.008942458,4.0
4.0,-5.69467783,-0.47599812,1.12288315,5.20199718,4.84264946,0.64533246,-0.453637846,-0.477796296,-0.011961663,4.0
4.0,-5.69905317,-0.47099729,1.12321407,5.21069645,4.84307194,0.64534885,-0.453919044,-0.474657598,-0.014835169,4.0
4.0,-5.70336634,-0.46569736,1.1236294,5.21899985,4.84351587,0.64534128,-0.454116243,-0.471532614,-0.017913921,4.0
4.0,-5.70777911,-0.46062465,1.12406618,5.2271614,4.84395313,0.64537227,-0.454376424,-0.468391691,-0.020833119,4.0
4.0,-5.7121979,-0.45546074,1.12442333,5.23557203,4.84435654,0.64536518,-0.454597983,-0.465236394,-0.023749972,4.0
4.0,-5.71664232,-0.45023389,1.12491399,5.24428384,4.8447504,0.64540219,-0.45472057,-0.462017215,-0.026695537,4.0
4.0,-5.72106284,-0.44511207,1.12537796,5.25245969,4.84516621,0.64538556,-0.454887599,-0.458867011,-0.029570024,4.0
4.0,-5.72542948,-0.4399441,1.12580663,5.26054095,4.8456068,0.64538556,-0.455016729,-0.455755262,-0.032443544,4.0
4.0,-5.72984225,-0.43478222,1.12609941,5.26914256,4.84602308,0.64538556,-0.455130895,-0.452616627,-0.035222125,4.0
4.0,-5.73418856,-0.42966755,1.12651235,5.27776496,4.84645462,0.6453979,-0.455156903,-0.449493959,-0.037970951,4.0
4.0,-5.73859382,-0.42455931,1.12702018,5.28588234,4.84684897,0.64533257,-0.455210632,-0.446360709,-0.040743089,4.0
4.0,-5.74304903,-0.41949256,1.12741262,5.2940812,4.84723187,0.64536518,-0.455298226,-0.443229998,-0.043430864,4.0
4.0,-5.7474097,-0.41434868,1.12773926,5.30283849,4.847754,0.64537668,-0.455263491,-0.440129616,-0.046086439,4.0
4.0,-5.75177634,-0.40915211,1.12820942,5.31127326,4.84815741,0.64536518,-0.455190239,-0.437008413,-0.048801884,4.0
4.0,-5.75615252,-0.40403386,1.12862236,5.31936054,4.84857225,0.64541107,-0.455166348,-0.433930436,-0.051454068,4.0
4.0,-5.76057983,-0.39884456,1.12899,5.3275377,4.84900093,0.64532798,-0.455133143,-0.430831745,-0.054107293,4.0
4.0,-5.76497823,-0.39371295,1.12936098,5.33633857,4.8494401,0.64537668,-0.45500957,-0.427722482,-0.056653213,4.0
4.0,-5.76937574,-0.38859601,1.12992746,5.34472339,4.84981537,0.64537668,-0.454846363,-0.424604319,-0.05923613,4.0
4.0,-5.77372838,-0.38350912,1.13027698,5.35280775,4.85028362,0.64534569,-0.454747314,-0.421583505,-0.061751716,4.0
4.0,-5.77807629,-0.37840815,1.13069421,5.36126392,4.85068274,0.64538121,-0.454564441,-0.41853062,-0.064235193,4.0
4.0,-5.78246946,-0.3732688,1.13104135,5.36993103,4.85114384,0.64538556,-0.454372203,-0.415468124,-0.066683699,4.0
4.0,-5.78689498,-0.36808749,1.13150388,5.37811201,4.85155439,0.64537668,-0.454175331,-0.412395167,-0.069194175,4.0
4.0,-5.79129953,-0.36292406,1.13196069,5.38623546,4.8519783,0.64539439,-0.453959143,-0.409347242,-0.071671856,4.0
4.0,-5.79572639,-0.35779734,1.13232833,5.3947997,4.85238934,0.64534432,-0.453726449,-0.40629378,-0.074047016,4.0
4.0,-5.80011419,-0.35268803,1.13275129,5.40341501,4.85273171,0.64540219,-0.453440439,-0.403250439,-0.076392006,4.0
4.0,-5.80447478,-0.34745415,1.13319952,5.41155194,4.85320377,0.64533991,-0.453130694,-0.400246689,-0.0788312,4.0
4.0,-5.80885491,-0.34229954,1.13354999,5.41985546,4.85367775,0.64535314,-0.452843541,-0.397261417,-0.081165502,4.0
4.0,-5.81327984,-0.33718069,1.13398677,5.42842381,4.85408449,0.64537394,-0.452510544,-0.394235473,-0.083445359,4.0
4.0,-5.81769383,-0.3320659,1.13448793,5.43697964,4.85449982,0.64539337,-0.452134476,-0.391215779,-0.085709674,4.0
4.0,-5.82208127,-0.3268996,1.13491947,5.44501673,4.85489988,0.64535761,-0.451790887,-0.388247409,-0.088015012,4.0
4.0,-5.82651458,-0.32176955,1.13536197,5.45332991,4.85530615,0.6453979,-0.451425375,-0.385258789,-0.090250504,4.0
4.0,-5.83088225,-0.31658013,1.13576729,5.46206747,4.85574245,0.64537668,-0.450977196,-0.382294577,-0.092447382,4.0
4.0,-5.83523411,-0.31145056,1.13624269,5.47035204,4.85617495,0.64540225,-0.450536329,-0.379363138,-0.094641077,4.0
4.0,-5.83960164,-0.30626078,1.13659603,5.47847973,4.85665608,0.64538997,-0.45012561,-0.376460498,-0.096840464,4.0
4.0,-5.84403289,-0.30111917,1.13706237,5.48697905,4.85698032,0.64537668,-0.44966585,-0.373496906,-0.09896914,4.0
4.0,-5.84841207,-0.29596754,1.13749391,5.49565898,4.85740423,0.64538997,-0.449162158,-0.370575701,-0.101054642,4.0
4.0,-5.85283897,-0.29084285,1.13795358,5.50381999,4.85785675,0.64539337,-0.448700618,-0.367666845,-0.103158968,4.0
4.0,-5.8572478,-0.28573199,1.13838989,5.5119776,4.85819483,0.64536953,-0.448231563,-0.364772409,-0.105228882,4.0
4.0,-5.8616837,-0.28057154,1.13878042,5.52044307,4.85866785,0.64540225,-0.447731794,-0.361881109,-0.107263789,4.0
4.0,-5.86609659,-0.27542837,1.13927681,5.52900027,4.85905457,0.64540225,-0.447170791,-0.358986594,-0.109270891,4.0
4.0,-5.87040717,-0.27029105,1.1397484,5.53729014,4.8594594,0.64537668,-0.446590344,-0.356166515,-0.111276548,4.0
4.0,-5.87482462,-0.26514955,1.14013225,5.54551684,4.85993671,0.64539337,-0.446067112,-0.353333534,-0.113256368,4.0
4.0,-5.87916854,-0.25998695,1.1405719,5.55417828,4.86032343,0.64541423,-0.44544767,-0.35051225,-0.11518417,4.0
4.0,-5.8836113,-0.25478442,1.14104015,5.56259142,4.86072254,0.64532012,-0.444848306,-0.34766113,-0.117142299,4.0
4.0,-5.88796148,-0.2496589,1.1414631,5.57058792,4.86115408,0.64541858,-0.444269966,-0.34489581,-0.11907746,4.0
4.0,-5.89237395,-0.2445205,1.1418646,5.57899659,4.8616066,0.64538121,-0.443673353,-0.342106975,-0.120947996,4.0
4.0,-5.89675454,-0.23939414,1.14227087,5.58775984,4.86196518,0.64537668,-0.443032026,-0.339327162,-0.122749071,4.0
4.0,-5.90108929,-0.2342784,1.14278108,5.59609495,4.86235666,0.64536953,-0.44235959,-0.336583387,-0.124585309,4.0
4.0,-5.90553403,-0.22913487,1.14315302,5.60415982,4.8627882,0.64534891,-0.441772416,-0.33383272,-0.126430223,4.0
4.0,-5.90998242,-0.22401066,1.14352543,5.61252766,4.86321211,0.64538556,-0.441158905,-0.331087046,-0.128208208,4.0
4.0,-5.91436661,-0.21889897,1.14395839,5.62128107,4.86363554,0.64539897,-0.440469473,-0.328366757,-0.129919221,4.0
4.0,-5.91880092,-0.21369668,1.14440853,5.62949889,4.86405087,0.64540225,-0.439790951,-0.325639615,-0.131723589,4.0
4.0,-5.92311258,-0.20852371,1.1447919,5.63762014,4.86444998,0.64536518,-0.439100224,-0.322993281,-0.133496317,4.0
4.0,-5.9275539,-0.20337494,1.14523536,5.64612149,4.86491108,0.64536953,-0.438401161,-0.320295754,-0.135196253,4.0
4.0,-5.93190092,-0.19822987,1.14571697,5.65475796,4.86530209,0.64538121,-0.43764341,-0.317639954,-0.136860541,4.0
4.0,-5.93626884,-0.19305427,1.14613992,5.66284161,4.86570549,0.64534432,-0.436928667,-0.315007304,-0.138583405,4.0
4.0,-5.9407093,-0.18794365,1.14656145,5.67114823,4.86614609,0.64541113,-0.436232363,-0.312363094,-0.140225336,4.0
4.0,-5.94511843,-0.18287499,1.14696914,5.67981224,4.86654902,0.64541858,-0.435515401,-0.309742573,-0.141779604,4.0
4.0,-5.94954101,-0.17766674,1.14744407,5.68820922,4.86693621,0.64538556,-0.434745695,-0.307112226,-0.143426361,4.0
4.0,-5.95386088,-0.17255493,1.14786178,5.69640748,4.86736345,0.64540219,-0.43399467,-0.304565613,-0.145025092,4.0
4.0,-5.95825866,-0.16746052,1.14828569,5.70473199,4.86775494,0.64534885,-0.433256618,-0.301995002,-0.146580741,4.0
4.0,-5.96266926,-0.16232319,1.14872438,5.71336006,4.86820746,0.6453532,-0.432481189,-0.299428715,-0.148102072,4.0
4.0,-5.96705643,-0.15721662,1.14915878,5.72165846,4.86858654,0.64540666,-0.431720136,-0.296889261,-0.149631656,4.0
4.0,-5.97149042,-0.15203948,1.14961464,5.72978245,4.86905861,0.64533251,-0.430943704,-0.294346709,-0.151204161,4.0
4.0,-5.97589043,-0.14683564,1.15002281,5.73822128,4.86950302,0.64538121,-0.43014558,-0.291829478,-0.152726851,4.0
4.0,-5.98037619,-0.1416945,1.15048296,5.74692546,4.86993933,0.64537668,-0.429355284,-0.289286569,-0.15416941,4.0
4.0,-5.98470688,-0.13664849,1.1509412,5.75508629,4.87033081,0.64537394,-0.428567681,-0.286837269,-0.15561927,4.0
4.0,-5.98912141,-0.13148101,1.15132839,5.76333474,4.87070561,0.64541107,-0.427783592,-0.284360407,-0.157095644,4.0
4.0,-5.99350164,-0.12643547,1.15169555,5.77186095,4.87115812,0.6454097,-0.427017036,-0.281931036,-0.158457779,4.0
4.0,-5.9978723,-0.12119742,1.15217334,5.78048395,4.87154961,0.64536518,-0.426142154,-0.27948453,-0.159891769,4.0
4.0,-6.00220472,-0.11603411,1.15263349,5.78855692,4.87196779,0.64538997,-0.425300228,-0.277086323,-0.161346126,4.0
4.0,-6.00657404,-0.11089869,1.15306884,5.7968161,4.87241268,0.64539337,-0.424474461,-0.27469318,-0.162744653,4.0
4.0,-6.01093483,-0.10576566,1.15345461,5.80531381,4.87280369,0.64537841,-0.423654003,-0.272316475,-0.1640907,4.0
4.0,-6.01521764,-0.1007175,1.15390808,5.81358837,4.87323999,0.64538556,-0.422817443,-0.269994644,-0.165415704,4.0
4.0,-6.01947046,-0.09574814,1.15433246,5.82144855,4.87364006,0.64537227,-0.422016512,-0.267708926,-0.166743423,4.0
4.0,-6.02368045,-0.09087773,1.15467149,5.82930421,4.87405062,0.6453979,-0.421262124,-0.265472569,-0.168006763,4.0
4.0,-6.02778659,-0.08593257,1.15502674,5.83741246,4.87441826,0.64534438,-0.420441982,-0.26327966,-0.169258467,4.0
4.0,-6.03194648,-0.08119161,1.15547401,5.84529756,4.87477732,0.64538121,-0.419671641,-0.261086688,-0.17043612,4.0
4.0,-6.03594034,-0.07657273,1.15584308,5.85281669,4.87523079,0.64536953,-0.418929406,-0.259004422,-0.171592304,4.0
4.0,-6.0399907,-0.07183619,1.15621502,5.86036097,4.87562275,0.645374,-0.418160486,-0.256894608,-0.172788639,4.0
4.0,-6.04402224,-0.06720956,1.15655834,5.86806749,4.87596941,0.64538991,-0.417428033,-0.254811274,-0.173898361,4.0
4.0,-6.04784967,-0.06262048,1.15693838,5.87566077,4.87635899,0.64540225,-0.416642955,-0.252829582,-0.174997773,4.0
4.0,-6.0516392,-0.05811043,1.15728981,5.88277398,4.87668133,0.64536959,-0.415890661,-0.250878607,-0.176115368,4.0
4.0,-6.05544059,-0.05360981,1.15764124,5.88999854,4.87710285,0.64535767,-0.415140232,-0.248943891,-0.177204621,4.0
4.0,-6.05920044,-0.04913087,1.15800983,5.89738356,4.87747908,0.64536953,-0.4143782,-0.247032971,-0.178252279,4.0
4.0,-6.06293092,-0.04480095,1.15840561,5.90461646,4.87780952,0.64531583,-0.413650194,-0.24515008,-0.179244193,4.0
4.0,-6.06666199,-0.04056843,1.15873319,5.91148876,4.87814999,0.64534885,-0.412980716,-0.243291382,-0.180231497,4.0
4.0,-6.07032377,-0.03631742,1.1589883,5.91823004,4.87850094,0.645374,-0.412313062,-0.24147638,-0.181235688,4.0
4.0,-6.07382445,-0.03213294,1.15934784,5.9251151,4.87883711,0.64538121,-0.41159084,-0.239732829,-0.182184963,4.0
4.0,-6.07736974,-0.02793379,1.15967161,5.93209778,4.8791852,0.64539337,-0.410886474,-0.2379832,-0.18311897,4.0
4.0,-6.08085706,-0.0238957,1.16007263,5.93876098,4.87952948,0.64534885,-0.410196349,-0.236272246,-0.1840199,4.0
4.0,-6.08429373,-0.01984449,1.16038257,5.94518887,4.87988663,0.64536518,-0.409521193,-0.234597683,-0.18495087,4.0
4.0,-6.08767106,-0.01588328,1.16072446,5.95154249,4.88019419,0.645374,-0.408851363,-0.232955046,-0.1858457,4.0
5.0,-6.09105778,-0.01194854,1.16099722,5.95797859,4.8805542,0.64539337,-0.408216324,-0.231328635,-0.186710362,5.0
5.0,-6.09437459,-0.0080957,1.16129858,5.96449934,4.88080883,0.64538997,-0.40758458,-0.22973223,-0.18752038,5.0
5.0,-6.09760645,-0.0042928,1.16160137,5.97069298,4.88116598,0.6453979,-0.406947759,-0.228191082,-0.188349874,5.0
5.0,-6.10085944,-0.00048347,1.16187841,5.97660874,4.88147783,0.64536953,-0.406320583,-0.22664518,-0.189214797,5.0
5.0,-6.10401224,0.00325768,1.16217739,5.98256289,4.88172007,0.64535326,-0.405687054,-0.225143561,-0.190038725,5.0
5.0,-6.1071343,0.00691192,1.16249782,5.98856818,4.88207054,0.64537227,-0.40506917,-0.223676495,-0.190814285,5.0
5.0,-6.11019485,0.01048557,1.16281158,5.9946829,4.88237,0.64541852,-0.404470088,-0.222241991,-0.191534107,5.0
5.0,-6.11317276,0.01396732,1.16308052,6.00043713,4.88271904,0.64536953,-0.403896062,-0.220859726,-0.192260024,5.0
5.0,-6.1162449,0.01740996,1.16338093,6.00598012,4.88291311,0.64536655,-0.403343931,-0.219430415,-0.192992679,5.0
5.0,-6.11913924,0.02084128,1.16362363,6.01143764,4.88325071,0.64543062,-0.402774307,-0.218096721,-0.193729951,5.0
5.0,-6.12201208,0.02413456,1.16389686,6.01686584,4.88345241,0.64537668,-0.402238546,-0.21677042,-0.194406443,5.0
5.0,-6.12487162,0.02751367,1.16418153,6.02236878,4.88372374,0.64539337,-0.401667114,-0.215456689,-0.195107327,5.0
5.0,-6.12763995,0.03078549,1.16450197,6.02786099,4.88402176,0.64536953,-0.40110203,-0.21419205,-0.195760769,5.0
5.0,-6.1304068,0.03405814,1.1647361,6.03298246,4.88425636,0.64536518,-0.400559162,-0.212930361,-0.196461442,5.0
5.0,-6.13311841,0.03719644,1.16498119,6.03807818,4.88454056,0.6453532,-0.400047733,-0.211707532,-0.197105969,5.0
5.0,-6.13577503,0.04028599,1.16524727,6.04305683,4.88474369,0.64534885,-0.399532962,-0.210504765,-0.197742045,5.0
5.0,-6.13834343,0.04335086,1.16546661,6.04787945,4.88497925,0.64536059,-0.399020649,-0.209348134,-0.198386919,5.0
5.0,-6.14087332,0.04624216,1.16571457,6.05292665,4.88526821,0.64534432,-0.398558342,-0.208225185,-0.198925628,5.0
5.0,-6.14334281,0.04916374,1.16602403,6.05791425,4.88549948,0.64540225,-0.398051677,-0.207120219,-0.199482413,5.0
5.0,-6.14580502,0.05197029,1.16628486,6.06266664,4.88579702,0.64531577,-0.397595405,-0.206036004,-0.200021749,5.0
5.0,-6.14820384,0.05486171,1.16653711,6.06708549,4.88594818,0.64532459,-0.397090265,-0.204961326,-0.200638426,5.0
5.0,-6.15052002,0.05762665,1.16676361,6.07142852,4.88622475,0.64537841,-0.396619699,-0.203942693,-0.201212106,5.0
5.0,-6.15289453,0.06033115,1.16698009,6.07577108,4.88642788,0.64537668,-0.396186651,-0.202900727,-0.201757639,5.0
5.0,-6.15515414,0.06301717,1.16724903,6.08009361,4.88659477,0.64539444,-0.395719207,-0.201902821,-0.202295655,5.0
5.0,-6.15743846,0.06567399,1.16742593,6.08448266,4.88685226,0.64536518,-0.395300379,-0.200913057,-0.202812723,5.0
5.0,-6.15967632,0.06821994,1.16761667,6.08884417,4.88706398,0.6454066,-0.394907587,-0.199944861,-0.203285128,5.0
5.0,-6.16181022,0.07071297,1.16782505,6.092952,4.88732481,0.64533681,-0.394499163,-0.199026119,-0.203769222,5.0
5.0,-6.16387666,0.07312541,1.16795665,6.09685253,4.8874445,0.64535761,-0.39412585,-0.198128679,-0.204245146,5.0
5.0,-6.16591911,0.07553212,1.16816455,6.10059391,4.88767719,0.64536953,-0.393718616,-0.197250998,-0.20474008,5.0
5.0,-6.16788055,0.07779984,1.16838533,6.10433041,4.8878684,0.64538997,-0.393341982,-0.196409302,-0.205176214,5.0
5.0,-6.16977746,0.08008937,1.16853029,6.10791312,4.8880372,0.64536518,-0.392964542,-0.195594403,-0.205641498,5.0
5.0,-6.17162269,0.08234005,1.16877538,6.11151467,4.88820362,0.64536202,-0.392559024,-0.194799976,-0.206086072,5.0
5.0,-6.17342852,0.0844963,1.1689027,6.11517726,4.88844156,0.64536953,-0.392222057,-0.194038786,-0.206485188,5.0
5.0,-6.17525258,0.0866379,1.16907961,6.11879562,4.88854313,0.64535767,-0.391876806,-0.193257794,-0.206880749,5.0
5.0,-6.17703124,0.0887603,1.16929275,6.12225853,4.88875628,0.64538121,-0.391511737,-0.192506412,-0.207289718,5.0
5.0,-6.17872799,0.09072868,1.16944009,6.12540208,4.88892031,0.64539331,-0.391196419,-0.191791063,-0.207677546,5.0
5.0,-6.18038197,0.09270732,1.16963178,6.12854694,4.88906383,0.64538127,-0.390854845,-0.191090337,-0.20806778,5.0
5.0,-6.18207294,0.09458653,1.16980869,6.13154446,4.8891964,0.6453532,-0.39055571,-0.190379449,-0.20843637,5.0
5.0,-6.18359405,0.09641366,1.16997272,6.13446962,4.88941765,0.64535767,-0.390244493,-0.189747255,-0.208794347,5.0
5.0,-6.18516898,0.09820811,1.17009575,6.13730978,4.88947153,0.64536953,-0.389965818,-0.189081268,-0.209147738,5.0
5.0,-6.18662313,0.09999768,1.17024309,6.14008783,4.88963556,0.64537394,-0.389655235,-0.188473732,-0.209508215,5.0
5.0,-6.18808572,0.1015846,1.17044479,6.14285432,4.88977194,0.64534438,-0.389403159,-0.187867181,-0.209786115,5.0
5.0,-6.18948835,0.10322206,1.17056066,6.14551865,4.88991165,0.64531136,-0.389144781,-0.187285843,-0.21009917,5.0
5.0,-6.19083424,0.10477833,1.17066366,6.1482011,4.89001131,0.64536655,-0.388911242,-0.186727149,-0.21037623,5.0
5.0,-6.19216179,0.10623543,1.17080766,6.1507424,4.89015961,0.6453532,-0.388691228,-0.186182972,-0.210631515,5.0
5.0,-6.19336343,0.10763053,1.17093689,6.15313934,4.89030123,0.64540666,-0.388469027,-0.185689901,-0.210880634,5.0
5.0,-6.19453375,0.10902314,1.17104704,6.15538286,4.89042902,0.64537835,-0.388241026,-0.185208404,-0.211148754,5.0
5.0,-6.19567267,0.11037867,1.17115051,6.1575744,4.89051151,0.64532787,-0.388020867,-0.184736676,-0.211407878,5.0
5.0,-6.1967663,0.11167423,1.17131359,6.15961384,4.89062548,0.64538556,-0.387787859,-0.184286012,-0.211661823,5.0
5.0,-6.1977883,0.1128941,1.17140848,6.16154574,4.89067984,0.64538556,-0.387586878,-0.183861851,-0.211899496,5.0
5.0,-6.19881186,0.11406486,1.17146761,6.16344999,4.89082384,0.645374,-0.38741466,-0.183448924,-0.212123061,5.0
5.0,-6.19979651,0.11520474,1.17153007,6.16523479,4.89090872,0.64540225,-0.387239856,-0.183046193,-0.212348594,5.0
5.0,-6.20067002,0.11632137,1.1717127,6.16694402,4.89095497,0.64534885,-0.387010685,-0.182680495,-0.212571288,5.0
5.0,-6.20150125,0.11728374,1.17175466,6.1685773,4.89107704,0.64539444,-0.3868731,-0.182347241,-0.212746088,5.0
5.0,-6.20230302,0.1183254,1.17179758,6.17004656,4.89118099,0.64533246,-0.386691847,-0.182020748,-0.212973506,5.0
5.0,-6.20306592,0.119211,1.17193157,6.17154943,4.89121962,0.64540225,-0.386534224,-0.181705947,-0.213130909,5.0
5.0,-6.20379393,0.12007896,1.17196781,6.17300485,4.89127111,0.64536071,-0.386406106,-0.181409027,-0.213289688,5.0
5.0,-6.20443096,0.1208822,1.17201168,6.17425226,4.89134407,0.64536065,-0.386272352,-0.181150458,-0.213449625,5.0
5.0,-6.20512014,0.12160985,1.17203361,6.17547666,4.89140892,0.6453979,-0.386182251,-0.180873907,-0.213582648,5.0
5.0,-6.20571215,0.12228076,1.17208225,6.17667888,4.8914237,0.64536518,-0.386086125,-0.180631132,-0.213694415,5.0
5.0,-6.20629944,0.12292437,1.17214328,6.17772113,4.89148378,0.64537668,-0.385986844,-0.18039458,-0.21381637,5.0
5.0,-6.20678197,0.12348096,1.17215044,6.17868863,4.89148378,0.64536065,-0.385914771,-0.180196257,-0.213913461,5.0
5.0,-6.20721661,0.12401633,1.17218238,6.17951034,4.89157677,0.64534432,-0.385826114,-0.180025003,-0.214021835,5.0
5.0,-6.20760318,0.1244518,1.17224342,6.18034123,4.89157105,0.64538556,-0.385757512,-0.179864992,-0.21408687,5.0
5.0,-6.20796284,0.12488918,1.17221862,6.18104027,4.89164352,0.64537394,-0.385703859,-0.179724477,-0.214172938,5.0
5.0,-6.20828215,0.12523596,1.17220623,6.18157064,4.89162779,0.64537668,-0.385663898,-0.179592496,-0.214242851,5.0
5.0,-6.20856234,0.12555246,1.17224342,6.18210303,4.89165926,0.64536953,-0.385612349,-0.179479986,-0.21430006,5.0
5.0,-6.20877057,0.12575094,1.17224342,6.1824566,4.89170361,0.64539439,-0.385594423,-0.179399959,-0.214334363,5.0
5.0,-6.20893392,0.12597112,1.17226249,6.18282317,4.89172363,0.64538121,-0.385554895,-0.179333869,-0.214374772,5.0
5.0,-6.20909126,0.12610654,1.1722501,6.18298422,4.89170313,0.645374,-0.385545078,-0.179268353,-0.214407922,5.0
5.0,-6.20912873,0.12615029,1.17220956,6.18313502,4.89172792,0.64538121,-0.385556635,-0.179256714,-0.214407334,5.0
5.0,-6.20916607,0.12617008,1.17229301,6.1831684,4.89168167,0.64534885,-0.385530886,-0.179235443,-0.214408166,5.0
5.0,-6.20908972,0.12611882,1.17221862,6.1831082,4.89168167,0.64534885,-0.385557119,-0.17926779,-0.214397267,5.0
5.0,-6.20883806,0.12597458,1.1723159,6.18298255,4.89159489,0.64536518,-0.385528028,-0.1793576,-0.21435225,5.0
5.0,-6.20862686,0.12576978,1.17241127,6.18287133,4.89145851,0.64533251,-0.385530348,-0.1794288,-0.214280493,5.0
5.0,-6.20830764,0.12549071,1.17259962,6.18277107,4.89128303,0.64537394,-0.385511795,-0.179537827,-0.214174912,5.0
5.0,-6.20791637,0.12516229,1.17277271,6.18269597,4.89104748,0.64534432,-0.385505098,-0.179670652,-0.214045808,5.0
5.0,-6.20744005,0.1248465,1.17295772,6.18249546,4.89069366,0.64534128,-0.385467759,-0.179823469,-0.213935601,5.0
5.0,-6.20686769,0.12444262,1.17317468,6.18231569,4.89034128,0.64534885,-0.38543689,-0.180015351,-0.213786926,5.0
5.0,-6.20623222,0.1239814,1.17342598,6.1820824,4.88990116,0.64538121,-0.385402117,-0.180223595,-0.213620035,5.0
5.0,-6.20548446,0.12346546,1.17366296,6.18186425,4.88942099,0.64534885,-0.385372875,-0.180473253,-0.213429075,5.0
5.0,-6.20460067,0.12288539,1.17395813,6.18163394,4.88882542,0.64532798,-0.385323559,-0.180764507,-0.213210859,5.0
5.0,-6.20370161,0.12225811,1.1742757,6.18125056,4.8881731,0.64536518,-0.385273378,-0.181056266,-0.212992077,5.0
5.0,-6.20267357,0.12148921,1.17457039,6.18093275,4.88740063,0.64539003,-0.385263504,-0.181391228,-0.212706965,5.0
5.0,-6.20159921,0.12073354,1.17498285,6.18053566,4.88660145,0.64541113,-0.385197618,-0.181737742,-0.212434178,5.0
5.0,-6.20041213,0.1199284,1.1753133,6.18007122,4.8856554,0.64538294,-0.385152271,-0.182116681,-0.21214986,5.0
5.0,-6.1991039,0.11903755,1.17575866,6.17963062,4.88474035,0.64538556,-0.385080381,-0.182545253,-0.211826148,5.0
5.0,-6.19768347,0.11806135,1.17616922,6.17908953,4.88373995,0.64535761,-0.385025039,-0.183011942,-0.211480746,5.0
5.0,-6.1962296,0.11698382,1.17669088,6.17854117,4.88268757,0.64534885,-0.384964321,-0.183486849,-0.211092466,5.0
5.0,-6.19466217,0.1159368,1.17721111,6.17797755,4.88161326,0.64539337,-0.38487016,-0.184002408,-0.210718051,5.0
5.0,-6.19302435,0.11475091,1.17770988,6.17737423,4.88046837,0.64537394,-0.384818511,-0.184543377,-0.210292606,5.0
5.0,-6.19128163,0.1135761,1.17827827,6.17675482,4.8792038,0.64534128,-0.384719236,-0.185110743,-0.209870269,5.0
5.0,-6.18942389,0.11221509,1.17889482,6.17605578,4.8779273,0.6453979,-0.38464653,-0.185726056,-0.209382458,5.0
5.0,-6.18751181,0.11088042,1.17947609,6.17537295,4.87661982,0.64529938,-0.384564788,-0.186359726,-0.208903382,5.0
5.0,-6.18546686,0.10943632,1.18011219,6.17473077,4.87520695,0.64537668,-0.384481822,-0.18703698,-0.208372372,5.0
5.0,-6.18332842,0.10796122,1.18079168,6.17391394,4.87378883,0.64541113,-0.384367775,-0.187748789,-0.20785053,5.0
5.0,-6.18108514,0.1063724,1.1815036,6.17322611,4.87226915,0.64542741,-0.384270506,-0.188495242,-0.207264103,5.0
5.0,-6.17882362,0.10481708,1.18221122,6.17239987,4.87068558,0.64533246,-0.384149762,-0.189240832,-0.206708218,5.0
5.0,-6.17642004,0.10309701,1.18297798,6.17163156,4.86909962,0.64537394,-0.384044131,-0.19004596,-0.206077313,5.0
5.0,-6.17401689,0.10139732,1.18378622,6.17075621,4.86743355,0.64533681,-0.383910051,-0.190840577,-0.205466485,5.0
5.0,-6.17142971,0.09961419,1.18465263,6.1698532,4.86570358,0.64538556,-0.383748793,-0.191701086,-0.204823584,5.0
5.0,-6.16881989,0.0976762,1.18551666,6.16897081,4.86388111,0.64543498,-0.383638983,-0.192568269,-0.204114329,5.0
5.0,-6.16610173,0.09574072,1.1863187,6.16797947,4.86192703,0.64538556,-0.383519466,-0.193466125,-0.203419617,5.0
5.0,-6.16327055,0.09378604,1.18725759,6.1670091,4.85993385,0.64536953,-0.383338929,-0.194399816,-0.202711251,5.0
5.0,-6.16040352,0.09163193,1.18818981,6.165987,4.85786724,0.64538121,-0.383220094,-0.195349294,-0.201928188,5.0
5.0,-6.15739635,0.08955567,1.18909675,6.16493689,4.85563612,0.64536065,-0.38304989,-0.196334207,-0.201178544,5.0
5.0,-6.15428584,0.08732061,1.19000417,6.16383361,4.85346317,0.64532459,-0.382909427,-0.197372022,-0.200372329,5.0
5.0,-6.15103132,0.08505146,1.19096357,6.1627283,4.85120296,0.64534885,-0.382732177,-0.198456589,-0.199550438,5.0
5.0,-6.14776542,0.08269338,1.19196827,6.16158294,4.84890985,0.64536065,-0.382563588,-0.199545082,-0.198696456,5.0
5.0,-6.14447982,0.08033363,1.19298155,6.16032706,4.84658814,0.64539439,-0.382379051,-0.200637912,-0.19785576,5.0
5.0,-6.14098043,0.07790808,1.19400245,6.15912579,4.84420061,0.64535761,-0.38217088,-0.201810076,-0.19698019,5.0
5.0,-6.13751634,0.07537787,1.19507295,6.15788447,4.84175014,0.64538121,-0.381984364,-0.202966144,-0.196065651,5.0
5.0,-6.13390908,0.07280283,1.19615013,6.15658485,4.83929539,0.64539897,-0.381774252,-0.204178867,-0.1951403,5.0
5.0,-6.13022896,0.07018213,1.19733507,6.15524481,4.83680677,0.64536065,-0.381523195,-0.205413734,-0.194199517,5.0
5.0,-6.12636587,0.06753807,1.19846565,6.15389465,4.83421755,0.64532793,-0.381254731,-0.206712972,-0.193250224,5.0
5.0,-6.12251483,0.06476121,1.19965965,6.15249752,4.83148909,0.6453979,-0.381007747,-0.207998514,-0.19225031,5.0
5.0,-6.11845713,0.06204669,1.20089513,6.15095996,4.82868004,0.64538121,-0.380670385,-0.209348554,-0.191293107,5.0
5.0,-6.11439126,0.05910925,1.20220119,6.14949142,4.82580757,0.64538556,-0.380383179,-0.210705818,-0.190233819,5.0
5.0,-6.11019744,0.05618446,1.20352012,6.14800762,4.82278156,0.64537668,-0.380054314,-0.212095644,-0.189180083,5.0
5.0,-6.10592711,0.05318098,1.20489675,6.14645837,4.81982374,0.64540219,-0.379706397,-0.213522682,-0.188102756,5.0
5.0,-6.10159924,0.05009989,1.20620758,6.14493679,4.81680822,0.64538121,-0.379388158,-0.214975268,-0.186990167,5.0
5.0,-6.09718764,0.04704122,1.20769531,6.14329599,4.81381655,0.64541113,-0.378973351,-0.216449459,-0.185900828,5.0
5.0,-6.09272144,0.04383914,1.20918066,6.14182805,4.81070709,0.64537394,-0.378597237,-0.217943921,-0.184728413,5.0
5.0,-6.08810741,0.04056673,1.2107299,6.14020489,4.80757189,0.64537394,-0.378176792,-0.219491375,-0.183546784,5.0
5.0,-6.08347121,0.03727095,1.21230823,6.13859366,4.80435419,0.64536065,-0.37774246,-0.221039034,-0.182353049,5.0
6.0,-6.07861993,0.03387765,1.2139166,6.13698756,4.80104256,0.64540225,-0.377275721,-0.222663541,-0.181117337,6.0
6.0,-6.07377828,0.03034191,1.21546585,6.13521634,4.79757452,0.64540225,-0.376863355,-0.22428171,-0.179844099,6.0
6.0,-6.06885662,0.02687172,1.21712047,6.13354551,4.79402399,0.6453979,-0.376372468,-0.225911177,-0.178583272,6.0
6.0,-6.06380423,0.02328019,1.21877271,6.13175272,4.79038477,0.64533985,-0.37587911,-0.227588931,-0.177288003,6.0
6.0,-6.05866568,0.01961105,1.22036058,6.13000797,4.78679752,0.64534885,-0.375402292,-0.229314992,-0.175955071,6.0
6.0,-6.05343147,0.01589791,1.22202951,6.12810134,4.78315449,0.64537394,-0.374874811,-0.231067422,-0.174624714,6.0
6.0,-6.04817288,0.01214258,1.2236808,6.12624882,4.77955723,0.64534432,-0.37435046,-0.232838401,-0.173270051,6.0
6.0,-6.04276728,0.00834064,1.22527343,6.12432824,4.77583122,0.64540225,-0.373813471,-0.234659332,-0.171904777,6.0
6.0,-6.0373199,0.00446133,1.22698671,6.12244021,4.77215004,0.64538556,-0.373240486,-0.236497153,-0.170502364,6.0
6.0,-6.03164229,0.00050478,1.2286709,6.12033175,4.768291,0.64539337,-0.372629352,-0.238409726,-0.169096662,6.0
6.0,-6.02598685,-0.00353451,1.23037702,6.11818825,4.76424646,0.64537394,-0.372032132,-0.2403005,-0.16766012,6.0
6.0,-6.0201929,-0.00766499,1.23214752,6.1160606,4.76011848,0.64533687,-0.371398555,-0.242236856,-0.166182677,6.0
6.0,-6.01432342,-0.01190789,1.23397142,6.11384772,4.7559948,0.64536518,-0.370747343,-0.244205349,-0.164669513,6.0
6.0,-6.00838724,-0.01615305,1.23581964,6.11177479,4.75189066,0.64538997,-0.370062048,-0.246199199,-0.163136659,6.0
6.0,-6.00239128,-0.02042134,1.23776943,6.10960983,4.74771118,0.64536953,-0.369320044,-0.248198793,-0.161606431,6.0
6.0,-5.9962813,-0.02474864,1.2397464,6.10759507,4.74348545,0.64536202,-0.368549872,-0.25023892,-0.160030996,6.0
6.0,-5.99007175,-0.02908285,1.24175293,6.10539638,4.73924398,0.64537394,-0.367725418,-0.252308348,-0.158478115,6.0
6.0,-5.9837243,-0.03354473,1.24388487,6.1032313,4.73484707,0.6453532,-0.366853935,-0.254411642,-0.15686661,6.0
6.0,-5.97733704,-0.03804524,1.24598724,6.1010512,4.7302475,0.64533246,-0.365981598,-0.256514185,-0.155240953,6.0
6.0,-5.97082234,-0.04267795,1.24810154,6.0987451,4.72565937,0.64536208,-0.365090808,-0.258672233,-0.153576888,6.0
6.0,-5.9641963,-0.04732318,1.25022441,6.09653853,4.72103929,0.64534885,-0.364157885,-0.260866658,-0.151894454,6.0
6.0,-5.95757115,-0.05205091,1.2523802,6.09419726,4.71645212,0.64533681,-0.36321546,-0.263064345,-0.150195959,6.0
6.0,-5.95083082,-0.0568089,1.25446207,6.09171819,4.71189499,0.64536202,-0.362250963,-0.26531326,-0.148503669,6.0
6.0,-5.94399572,-0.06161995,1.25660688,6.08924793,4.70721483,0.64536953,-0.361241629,-0.267580518,-0.146788228,6.0
6.0,-5.93704975,-0.06652053,1.25871355,6.08660804,4.70227337,0.64536524,-0.360224865,-0.269871894,-0.145058134,6.0
6.0,-5.93003887,-0.07147546,1.26081783,6.08404432,4.69724894,0.64534432,-0.359191724,-0.272182502,-0.143294854,6.0
6.0,-5.92292029,-0.07658978,1.26299459,6.08157455,4.69236708,0.6453855,-0.358128227,-0.274551117,-0.141450806,6.0
6.0,-5.91575927,-0.08161493,1.26517851,6.07901632,4.68735981,0.64531583,-0.357006067,-0.276908089,-0.139658308,6.0
6.0,-5.9084237,-0.08683117,1.26749069,6.0765345,4.68246222,0.64536208,-0.355824499,-0.279339118,-0.137774165,6.0
6.0,-5.90109179,-0.09208329,1.26978094,6.07399927,4.67736387,0.64537841,-0.354644036,-0.28175167,-0.1358827,6.0
6.0,-5.89363614,-0.09729572,1.27224523,6.07136749,4.67215538,0.64539784,-0.353342434,-0.284165403,-0.134024995,6.0
6.0,-5.88609663,-0.10273559,1.27471286,6.06876992,4.66673803,0.64541113,-0.352063979,-0.286609389,-0.132065404,6.0
6.0,-5.87851605,-0.10821934,1.27725631,6.06608556,4.66138697,0.64539003,-0.350733342,-0.289061957,-0.130100568,6.0
6.0,-5.87075559,-0.11367007,1.27980882,6.06334184,4.65600348,0.64538556,-0.349314725,-0.291562178,-0.128159812,6.0
6.0,-5.86291114,-0.11924489,1.28238041,6.06064187,4.65065002,0.64540219,-0.347873044,-0.294099248,-0.126160049,6.0
6.0,-5.85496381,-0.12473352,1.2849086,6.05781077,4.64517784,0.64538556,-0.346369013,-0.296648245,-0.124217297,6.0
6.0,-5.84700558,-0.13041099,1.28733761,6.05472933,4.63962555,0.6453532,-0.344914854,-0.299220542,-0.122226418,6.0
6.0,-5.83884791,-0.13606758,1.28983814,6.05176281,4.63384533,0.64538121,-0.343359978,-0.301822113,-0.12023234,6.0
6.0,-5.83068362,-0.14182969,1.29230911,6.04879867,4.62811995,0.64534885,-0.3418098,-0.304439665,-0.118191772,6.0
6.0,-5.82245553,-0.14766283,1.29482538,6.0458716,4.62244511,0.64535761,-0.340214927,-0.307077176,-0.1161163,6.0
6.0,-5.8141099,-0.15367253,1.29740507,6.04302977,4.61667633,0.64534575,-0.33858591,-0.309750451,-0.113953926,6.0
6.0,-5.8056866,-0.15960522,1.30007249,6.04012047,4.61091995,0.64537394,-0.336856623,-0.312417353,-0.111837981,6.0
6.0,-5.7972723,-0.16564281,1.30278427,6.03726064,4.60490131,0.6453532,-0.335127522,-0.315055001,-0.109673049,6.0
6.0,-5.78887514,-0.17154975,1.30547887,6.03434192,4.5988965,0.64532798,-0.333348051,-0.317662848,-0.107575288,6.0
6.0,-5.780545,-0.1774617,1.3081854,6.0314232,4.59311724,0.6453532,-0.331547795,-0.320254586,-0.105475205,6.0
6.0,-5.77219838,-0.183351,1.31099207,6.02839302,4.58741188,0.64539439,-0.329674232,-0.322825795,-0.103404337,6.0
6.0,-5.76384127,-0.18927486,1.31379348,6.02539371,4.58167887,0.6453979,-0.327781399,-0.325391167,-0.101315493,6.0
6.0,-5.75546867,-0.1951253,1.31641323,6.02227985,4.57586718,0.64535624,-0.325897265,-0.327963436,-0.099272458,6.0
6.0,-5.7471729,-0.20106478,1.3189562,6.01919495,4.56987238,0.64538556,-0.32406515,-0.330509499,-0.097186419,6.0
6.0,-5.73876322,-0.20697399,1.32158548,6.01627599,4.56409931,0.64537668,-0.322124183,-0.333079737,-0.095092383,6.0
6.0,-5.73038262,-0.21295472,1.32408506,6.01336466,4.5583806,0.645374,-0.320215871,-0.335664913,-0.092961529,6.0
6.0,-5.72198475,-0.21900411,1.32660848,6.01052569,4.55255413,0.64538294,-0.318288315,-0.338239867,-0.09079263,6.0
6.0,-5.713579,-0.22494157,1.3291772,6.00758444,4.54664421,0.64534432,-0.316297843,-0.340774147,-0.088691992,6.0
6.0,-5.70521939,-0.23093303,1.33189947,6.00471841,4.54066849,0.6453532,-0.31426724,-0.343254233,-0.08656427,6.0
6.0,-5.69687748,-0.23684009,1.33456976,6.00182162,4.53477859,0.64535314,-0.312208296,-0.345719365,-0.084477492,6.0
6.0,-5.68851143,-0.24270983,1.33724672,5.99882268,4.52906752,0.64535761,-0.310093567,-0.348184304,-0.08242134,6.0
6.0,-5.68015844,-0.24856575,1.34009344,5.99577736,4.52338457,0.64534432,-0.307904167,-0.35059703,-0.080385933,6.0
6.0,-5.6716916,-0.25457402,1.34279949,5.99266921,4.51762199,0.6453979,-0.305724685,-0.353071806,-0.078287288,6.0
6.0,-5.66335291,-0.26049824,1.34557945,5.98956584,4.51169109,0.64536518,-0.303538363,-0.355453371,-0.07623304,6.0
6.0,-5.65496272,-0.26642747,1.34821445,5.98645507,4.50569582,0.64537841,-0.301355056,-0.357860602,-0.074173821,6.0
6.0,-5.64657993,-0.27233251,1.35078699,5.98353587,4.49987698,0.64538997,-0.299149343,-0.360271844,-0.072094999,6.0
6.0,-5.63816578,-0.2782733,1.35332996,5.98057376,4.49415922,0.64536065,-0.296914402,-0.362694819,-0.070004238,6.0
6.0,-5.62983692,-0.28421672,1.35590726,5.97776781,4.48843479,0.64536518,-0.294675299,-0.365068774,-0.067893408,6.0
6.0,-5.6214754,-0.29015453,1.35841686,5.97484826,4.48255062,0.6453532,-0.292428347,-0.367439411,-0.065801224,6.0
6.0,-5.61300922,-0.29612036,1.36106283,5.97192441,4.47654152,0.64535761,-0.290094008,-0.369790676,-0.063706808,6.0
6.0,-5.60466189,-0.30208965,1.36374504,5.96906267,4.47065115,0.64538556,-0.28776019,-0.372090432,-0.061603685,6.0
6.0,-5.59634561,-0.30805095,1.36640197,5.9660524,4.46487045,0.64534885,-0.285411587,-0.374376074,-0.059523187,6.0
6.0,-5.58793343,-0.31396301,1.36919624,5.96297394,4.45921421,0.64538556,-0.282948222,-0.376641787,-0.057481517,6.0
6.0,-5.57959354,-0.31995173,1.37192089,5.95991038,4.45335865,0.64541113,-0.280534762,-0.378882605,-0.055403715,6.0
6.0,-5.57116545,-0.325826,1.37477047,5.95689975,4.44734955,0.64532793,-0.278023364,-0.381075456,-0.053382492,6.0
6.0,-5.56279987,-0.33172853,1.3774274,5.95381867,4.4414959,0.64540225,-0.275557131,-0.383290175,-0.051346103,6.0
6.0,-5.55446935,-0.33762224,1.37998182,5.95089518,4.43569803,0.64534885,-0.273100652,-0.385501503,-0.049286432,6.0
6.0,-5.54608715,-0.34355505,1.38262254,5.9481083,4.43001318,0.6453532,-0.270573525,-0.387698667,-0.047194426,6.0
6.0,-5.53767658,-0.34949191,1.38522321,5.94519507,4.42422628,0.64537668,-0.268032152,-0.389889472,-0.04511859,6.0
6.0,-5.52928019,-0.35542126,1.38774139,5.94228648,4.41828442,0.64541119,-0.265505391,-0.392067398,-0.043044407,6.0
6.0,-5.52090389,-0.36141141,1.39028055,5.93943762,4.41234875,0.64536518,-0.262965372,-0.394224155,-0.040936297,6.0
6.0,-5.51248074,-0.3673708,1.39288789,5.93639766,4.40642881,0.64538997,-0.260362774,-0.396355858,-0.03887386,6.0
6.0,-5.50417555,-0.37331565,1.39557153,5.93347799,4.40076351,0.6453532,-0.257740057,-0.398427538,-0.036803421,6.0
6.0,-5.49585176,-0.37922879,1.39827139,5.93033122,4.39504099,0.64536518,-0.255087219,-0.400475167,-0.034782166,6.0
6.0,-5.48741633,-0.3851132,1.40102321,5.92715858,4.38913679,0.64538997,-0.252366802,-0.402504941,-0.032786276,6.0
6.0,-5.47905308,-0.39104553,1.40383608,5.92417871,4.38321018,0.64536065,-0.249644576,-0.404482637,-0.030748425,6.0
6.0,-5.47065765,-0.39684673,1.40655977,5.92117201,4.37724066,0.64538997,-0.246897109,-0.406449982,-0.028771305,6.0
6.0,-5.46223712,-0.40287383,1.40925914,5.91822575,4.37157583,0.64539337,-0.24412633,-0.408452266,-0.026674748,6.0
6.0,-5.45385403,-0.40879233,1.41188699,5.91537903,4.3657937,0.64534432,-0.241360995,-0.410419839,-0.024613643,6.0
6.0,-5.44552601,-0.41472979,1.41447527,5.91250573,4.36003542,0.64540219,-0.238607145,-0.412366783,-0.022545053,6.0
6.0,-5.437163,-0.42070837,1.41702873,5.90960346,4.35401392,0.64538121,-0.235854614,-0.414305009,-0.020464862,6.0
6.0,-5.42873705,-0.42663737,1.41944582,5.90672444,4.34802389,0.64537668,-0.233077624,-0.416267056,-0.018394223,6.0
6.0,-5.4203468,-0.43260796,1.42199689,5.90374433,4.34228134,0.64536953,-0.230247391,-0.418180316,-0.016324212,6.0
6.0,-5.41199977,-0.43850322,1.42465336,5.90075849,4.33655024,0.64536065,-0.227380571,-0.420022744,-0.014299687,6.0
6.0,-5.40362865,-0.44449933,1.42738706,5.89760326,4.33082581,0.64539003,-0.22448002,-0.421844182,-0.012258029,6.0
6.0,-5.39525694,-0.45045455,1.43006307,5.89449548,4.32494974,0.64536065,-0.221580956,-0.423646488,-0.010228728,6.0
6.0,-5.38688797,-0.45641394,1.43284351,5.89157425,4.31900311,0.6453532,-0.218643298,-0.425389547,-0.008184731,6.0
6.0,-5.37854529,-0.46226819,1.43559343,5.88858424,4.31310034,0.64537227,-0.215691287,-0.427100839,-0.006197113,6.0
6.0,-5.37018592,-0.46823998,1.43843156,5.88577365,4.30739498,0.64540225,-0.212684403,-0.428783606,-0.004136202,6.0
6.0,-5.36173165,-0.47412165,1.44108087,5.88285218,4.30159187,0.64540219,-0.209661798,-0.430503262,-0.002118653,6.0
6.0,-5.3533184,-0.48004241,1.44368297,5.87993346,4.29574919,0.6454097,-0.20665566,-0.43220721,-8.01e-05,6.0
6.0,-5.34495086,-0.48600943,1.44626743,5.87706112,4.28981876,0.64538121,-0.203665851,-0.433884853,0.001985034,6.0
6.0,-5.33662171,-0.49194665,1.44875843,5.87412165,4.283885,0.64536953,-0.200692824,-0.435555858,0.004035316,6.0
6.0,-5.32827437,-0.49795421,1.45127041,5.87110685,4.2782383,0.64539784,-0.197669845,-0.4372185,0.00611242,6.0
6.0,-5.31991303,-0.50385185,1.45387394,5.86797677,4.27249527,0.645374,-0.194605317,-0.438819794,0.008111136,6.0
6.0,-5.31151695,-0.50986464,1.45651418,5.86483358,4.26672792,0.64538121,-0.191512903,-0.440406501,0.010157443,6.0
6.0,-5.30311853,-0.51582809,1.45925171,5.86179804,4.26078176,0.64538121,-0.188392615,-0.441925946,0.012179479,6.0
6.0,-5.29470236,-0.521715,1.46192581,5.85881006,4.25481749,0.64533687,-0.18525469,-0.443430558,0.014176315,6.0
6.0,-5.2863701,-0.52760776,1.46472341,5.8558458,4.24896002,0.64540219,-0.182103012,-0.444858483,0.016167004,6.0
6.0,-5.27797085,-0.53348561,1.46751529,5.85301696,4.24322748,0.64533681,-0.178890588,-0.446268913,0.018169443,6.0
6.0,-5.26961655,-0.53940793,1.47027904,5.8501166,4.23751306,0.6453532,-0.175691407,-0.447661147,0.020185753,6.0
6.0,-5.26124591,-0.5453343,1.47294742,5.84730195,4.23168898,0.64536953,-0.172496161,-0.449054314,0.022221347,6.0
6.0,-5.25286776,-0.55128379,1.47551758,5.84432398,4.22564459,0.64536953,-0.169326955,-0.450459403,0.024252583,6.0
6.0,-5.24444753,-0.55725785,1.47806055,5.84139859,4.21978426,0.64536953,-0.16611032,-0.451856284,0.026308253,6.0
6.0,-5.23605901,-0.56315179,1.4806102,5.83837639,4.21402931,0.64540225,-0.162877579,-0.453214487,0.028314838,6.0
6.0,-5.22775072,-0.56914206,1.48319179,5.83522795,4.20824909,0.64539337,-0.159671915,-0.454539416,0.030346757,6.0
6.0,-5.21930904,-0.57512798,1.48574812,5.83218847,4.20246077,0.64535183,-0.156392479,-0.455861263,0.032392202,6.0
6.0,-5.21091634,-0.58111258,1.48844654,5.82921563,4.19648647,0.64538121,-0.153111718,-0.457099262,0.034423609,6.0
6.0,-5.20251888,-0.58694418,1.49107391,5.82621227,4.19054556,0.64538997,-0.149815178,-0.458317427,0.036386924,6.0
6.0,-5.19414467,-0.59290327,1.49383051,5.82332324,4.18479919,0.64532804,-0.14647928,-0.459472148,0.038411988,6.0
6.0,-5.18580014,-0.59885921,1.49663145,5.82047473,4.17904902,0.64536518,-0.1431356,-0.46057734,0.040433468,6.0
6.0,-5.17738706,-0.60481192,1.49943716,5.81761109,4.17326975,0.64538556,-0.139749815,-0.461662189,0.042448889,6.0
6.0,-5.16898329,-0.61072071,1.50212938,5.81476866,4.16738653,0.64537668,-0.136381231,-0.462747947,0.04445673,6.0
6.0,-5.16070289,-0.61665787,1.50475103,5.8117746,4.1614294,0.64537668,-0.133080594,-0.463822685,0.046466633,6.0
6.0,-5.15233297,-0.62254115,1.50733549,5.80866073,4.15553856,0.64536959,-0.129725376,-0.464893885,0.048442402,6.0
6.0,-5.14393217,-0.6284634,1.50988514,5.80566405,4.14985466,0.64537847,-0.126327284,-0.465948253,0.050458848,6.0
6.0,-5.13550812,-0.63436128,1.51243478,5.80249964,4.14408398,0.64537227,-0.122917073,-0.466983878,0.052441992,6.0
6.0,-5.12719053,-0.64029534,1.51496774,5.79942023,4.13828087,0.64538556,-0.119549257,-0.467982724,0.054453558,6.0
6.0,-5.11883754,-0.64624728,1.51755602,5.79641484,4.13223886,0.64537668,-0.116166658,-0.468939745,0.056469442,6.0
6.0,-5.11038286,-0.65226056,1.52021295,5.79350649,4.12642765,0.64536953,-0.112692712,-0.469853712,0.058520261,6.0
7.0,-5.10206896,-0.65816005,1.52296573,5.79069196,4.1207242,0.6453979,-0.109243526,-0.470671749,0.060515212,7.0
7.0,-5.09373504,-0.66411741,1.52570516,5.78771399,4.11498022,0.64536524,-0.105786704,-0.471482078,0.062519182,7.0
7.0,-5.08531887,-0.67009325,1.52850134,5.78484105,4.10907698,0.64538896,-0.102286923,-0.472250155,0.064531368,7.0
7.0,-5.07688231,-0.67601253,1.53127462,5.7819985,4.10318518,0.64541113,-0.098767205,-0.472990122,0.066522198,7.0
7.0,-5.06851608,-0.68186565,1.53396494,5.77908539,4.09719658,0.64538121,-0.095290764,-0.473721378,0.068482763,7.0
7.0,-5.06015426,-0.68777825,1.53661997,5.77603983,4.09139538,0.64537668,-0.091798696,-0.474443543,0.070465229,7.0
7.0,-5.05173237,-0.69371034,1.53916389,5.77284883,4.08570576,0.64538997,-0.088275604,-0.475186793,0.07245949,7.0
7.0,-5.04338533,-0.6997238,1.54177219,5.7698053,4.07993269,0.64540225,-0.084777576,-0.475870525,0.074497167,7.0
7.0,-5.03503007,-0.70558901,1.54429752,5.76673805,4.07409382,0.64539337,-0.081278745,-0.476543992,0.076472678,7.0
7.0,-5.02659268,-0.71158345,1.54677612,5.76368092,4.06810903,0.64538121,-0.077753506,-0.477223845,0.078515635,7.0
7.0,-5.01821858,-0.7175351,1.54938251,5.76078903,4.06218481,0.64538449,-0.074224779,-0.477807946,0.080536722,7.0
7.0,-5.00989157,-0.72348054,1.5521124,5.75798665,4.05639601,0.64538127,-0.070682722,-0.478304208,0.08254643,7.0
7.0,-5.00151986,-0.72937603,1.55481845,5.75513052,4.0506072,0.64536518,-0.067114835,-0.478780299,0.084529382,7.0
7.0,-4.99314219,-0.73536165,1.55755264,5.75233077,4.04481554,0.64543056,-0.063535468,-0.47921819,0.086555679,7.0
7.0,-4.98475129,-0.74129637,1.56031639,5.74935817,4.03888798,0.64537668,-0.059955263,-0.479628125,0.088531557,7.0
7.0,-4.97642273,-0.74722548,1.56307441,5.74640857,4.03304291,0.6453979,-0.056391419,-0.479999834,0.09050858,7.0
7.0,-4.96802801,-0.75315501,1.56574804,5.74331008,4.02728748,0.64540529,-0.052792668,-0.480380382,0.092485558,7.0
7.0,-4.95961422,-0.75912495,1.56837541,5.74020575,4.0216074,0.64538556,-0.049176934,-0.480746161,0.094489979,7.0
7.0,-4.95125205,-0.76504709,1.57095749,5.73711656,4.01573515,0.64538121,-0.045600017,-0.481096903,0.096477444,7.0
7.0,-4.94283158,-0.77094366,1.57348615,5.73407923,4.00987339,0.64536065,-0.041991286,-0.481431396,0.098467215,7.0
7.0,-4.93444521,-0.7768081,1.57599909,5.73106693,4.00385189,0.64539337,-0.03840743,-0.481741451,0.100444422,7.0
7.0,-4.92604739,-0.78278984,1.57854253,5.72821437,3.99802923,0.64543933,-0.034791395,-0.481995267,0.102491075,7.0
7.0,-4.91773552,-0.78875156,1.58124716,5.72530459,3.99224114,0.64537668,-0.031197564,-0.482158702,0.104494039,7.0
7.0,-4.90936882,-0.79483105,1.58396656,5.72250413,3.98649192,0.64540219,-0.027568625,-0.482282114,0.106560895,7.0
7.0,-4.90098459,-0.80073954,1.58667547,5.71958541,3.98066783,0.64540225,-0.023935107,-0.482380275,0.108534607,7.0
7.0,-4.89259929,-0.80666562,1.58937628,5.71662627,3.97476149,0.64542162,-0.020306173,-0.48245701,0.110512582,7.0
7.0,-4.88422197,-0.81263484,1.59223634,5.71368383,3.96884155,0.64541423,-0.016669502,-0.482446356,0.112482334,7.0
7.0,-4.8758362,-0.81847526,1.59497387,5.7106397,3.96313644,0.64536518,-0.01301693,-0.482436981,0.114405989,7.0
7.0,-4.86753828,-0.82436152,1.59767562,5.7075765,3.95733333,0.64542162,-0.009415481,-0.482415691,0.116354697,7.0
7.0,-4.85912437,-0.83027257,1.60024673,5.70443122,3.95154738,0.64539337,-0.005762807,-0.482416133,0.118332757,7.0
7.0,-4.85071665,-0.83613743,1.60276682,5.70142286,3.94559455,0.64535624,-0.002124688,-0.482397776,0.120308875,7.0
7.0,-4.84230918,-0.84209915,1.60534984,5.69857435,3.93965292,0.64541423,0.001521022,-0.482314143,0.12233347,7.0
7.0,-4.83394379,-0.84806062,1.60791284,5.69564949,3.93383527,0.64541107,0.005156195,-0.482203562,0.124356485,7.0
7.0,-4.82551271,-0.85404267,1.61045438,5.6927778,3.92814374,0.64536065,0.00883379,-0.482055135,0.126399498,7.0
7.0,-4.81721634,-0.86007835,1.6130932,5.68987404,3.92240405,0.64538556,0.012446886,-0.48184725,0.128445136,7.0
7.0,-4.80881972,-0.8659925,1.61574537,5.68700968,3.91646457,0.64541423,0.016094383,-0.481604936,0.130430653,7.0
7.0,-4.80044562,-0.87191577,1.61851961,5.68402057,3.91045761,0.645374,0.01972876,-0.481302182,0.13238406,7.0
7.0,-4.79213673,-0.8778763,1.62127239,5.68101119,3.90470409,0.64538127,0.023348862,-0.480961817,0.134359956,7.0
