MingyuTang0728/Universal-Robots-Notts/UR5e_motion_full.csv
pc_ts,runtime_state,robot_mode,safety_mode,speed_scaling,din_bits,dout_bits,ai0,ai1,q_0,q_1,q_2,q_3,q_4,q_5,qd_0,qd_1,qd_2,qd_3,qd_4,qd_5,tq_0,tq_1,tq_2,tq_3,tq_4,tq_5,tqd_0,tqd_1,tqd_2,tqd_3,tqd_4,tqd_5,tcp_0,tcp_1,tcp_2,tcp_3,tcp_4,tcp_5,tcps_0,tcps_1,tcps_2,tcps_3,tcps_4,tcps_5,tcpf_0,tcpf_1,tcpf_2,tcpf_3,tcpf_4,tcpf_5
1759936358,2,7,1,1,0,768,0,0,-3.04344732,-1.528310375,1.306814496,4.980874944,3.941719055,0.645345688,-1.046238542,0.02217585,-0.15656215,-0.843661189,0.480746001,0.,-3.043998086,-1.528282634,1.306837206,4.980674442,3.941980113,0.645347782,-1.047197551,0.02213071,-0.157216692,-0.839958915,0.480169801,0.0000232277865649556,0.488005982,0.113093553,0.596581448,1.307580374,-2.277907198,0.956198023,0.185161384,-0.469435724,0.111847141,0.573247874,-0.926340574,-1.065155514,0.966101882,-1.338405546,-1.979316324,-0.014047627,-0.005034292,-0.01429313
1759936358,2,7,1,1,0,768,0,0,-3.04344732,-1.528310375,1.306814496,4.980874944,3.941719055,0.645345688,-1.046238542,0.02217585,-0.15656215,-0.843661189,0.480746001,0.,-3.043998086,-1.528282634,1.306837206,4.980674442,3.941980113,0.645347782,-1.047197551,0.02213071,-0.157216692,-0.839958915,0.480169801,0.0000232277865649556,0.488005982,0.113093553,0.596581448,1.307580374,-2.277907198,0.956198023,0.185161384,-0.469435724,0.111847141,0.573247874,-0.926340574,-1.065155514,0.966101882,-1.338405546,-1.979316324,-0.014047627,-0.005034292,-0.01429313
1759936358,2,7,1,1,0,768,0,0,-3.051839654,-1.528100261,1.305510346,4.974166679,3.945668697,0.645324826,-1.046392798,0.022566795,-0.154969662,-0.836183846,0.480285197,0.,-3.052375666,-1.528105588,1.305579473,4.973954771,3.945821471,0.645347968,-1.047197551,0.02213071,-0.157216692,-0.839958915,0.480169801,0.0000232277865649556,0.489483845,0.109327338,0.597476258,1.297317099,-2.290740332,0.954986897,0.180937138,-0.471579478,0.110871042,0.564306128,-0.921709202,-1.061578097,0.77967712,-0.985366493,-2.250920638,-0.019885722,-0.009919006,-0.013233843
1759936358,2,7,1,1,0,768,0,0,-3.060206954,-1.527941072,1.304259125,4.967748272,3.94955039,0.6453619,-1.045279622,0.021466147,-0.155162603,-0.837297797,0.477206707,0.,-3.060753247,-1.527928543,1.304321739,4.9672351,3.949662829,0.645348153,-1.047197551,0.02213071,-0.157216692,-0.839958915,0.480169801,0.0000232277865649556,0.490885409,0.105549058,0.598352871,1.286979841,-2.303258216,0.953724459,0.176569889,-0.47319811,0.112480179,0.553823961,-0.929025191,-1.056756487,0.711751406,-1.455504294,-2.160756046,-0.020578193,-0.009178707,-0.009597289
1759936358,2,7,1,1,0,768,0,0,-3.068548266,-1.52775658,1.302907292,4.961197662,3.953389883,0.6453619,-1.0489223,0.02007279,-0.154895872,-0.841776907,0.477073967,0.,-3.069130827,-1.527751497,1.303064006,4.960515429,3.953504188,0.645348339,-1.047197551,0.02213071,-0.157216692,-0.839958915,0.480169801,0.0000232277865649556,0.492273221,0.101767085,0.599286113,1.276602495,-2.315802059,0.952734639,0.172757952,-0.476915299,0.114156402,0.546425519,-0.939192547,-1.056692603,0.618640717,-0.841481727,-2.26517811,-0.021643407,-0.013130816,-0.01049749
1759936358,2,7,1,1,0,768,0,0,-3.076933209,-1.527613935,1.301667039,4.954283196,3.957108736,0.645316303,-1.047086477,0.021905128,-0.153801695,-0.840831995,0.477936625,0.,-3.077508407,-1.527574451,1.301806272,4.953795757,3.957345546,0.645348525,-1.047197551,0.02213071,-0.157216692,-0.839958915,0.480169801,0.0000232277865649556,0.493644741,0.097940811,0.600235993,1.26606134,-2.328404477,0.952150455,0.169312426,-0.47779094,0.113246983,0.539212809,-0.939803169,-1.051056082,0.974038802,-0.975652869,-2.252972958,-0.021270227,-0.004321588,-0.013337575
1759936358,2,7,1,1,0,768,0,0,-3.085394923,-1.527490997,1.300437276,4.947259444,3.960859299,0.645376861,-1.04804635,0.021794602,-0.153498799,-0.8369115,0.478875011,0.,-3.085885988,-1.527397406,1.300548538,4.947076086,3.961186905,0.645348711,-1.047197551,0.02213071,-0.157216692,-0.839958915,0.480169801,0.0000232277865649556,0.494990498,0.094063801,0.601204914,1.255235992,-2.341172059,0.951708139,0.1650053,-0.480087926,0.113394915,0.531989912,-0.940155961,-1.048155434,0.888508747,-1.200597945,-2.153099368,-0.022795233,-0.009955798,-0.016362137
1759936358,2,7,1,1,0,768,0,0,-3.093742911,-1.527259839,1.299151246,4.940650466,3.964699745,0.645312905,-1.048942089,0.022831151,-0.155620992,-0.831953287,0.481323838,0.,-3.094263568,-1.52722036,1.299290805,4.940356415,3.965028263,0.645348897,-1.047197551,0.02213071,-0.157216692,-0.839958915,0.480169801,0.0000232277865649556,0.496308974,0.090235323,0.602105027,1.244733635,-2.353406153,0.950871065,0.161151292,-0.482180244,0.113897093,0.526395917,-0.940564379,-1.045406898,0.678831379,-0.980534969,-2.359896919,-0.023197749,-0.009729395,-0.012741149
1759936358,2,7,1,1,0,768,0,0,-3.102077309,-1.527163876,1.297929112,4.93420549,3.968530893,0.64535439,-1.046382546,0.02188175,-0.156012967,-0.835865259,0.485166907,0.,-3.102641149,-1.527043314,1.298033071,4.933636743,3.968869621,0.645349083,-1.047197551,0.02213071,-0.157216692,-0.839958915,0.480169801,0.0000232277865649556,0.497524119,0.086395648,0.60303143,1.234087254,-2.365571711,0.950080098,0.156771395,-0.482345779,0.115346014,0.522565082,-0.950002907,-1.039156483,0.964710986,-1.013247399,-2.08015831,-0.019381664,-0.007947675,-0.015894149
1759936358,2,7,1,1,0,768,0,0,-3.110448662,-1.526950741,1.296742264,4.927587974,3.972409964,0.645353317,-1.048251271,0.022379337,-0.152965531,-0.842023313,0.483904481,0.,-3.111018729,-1.526866269,1.296775338,4.926917072,3.97271098,0.645349268,-1.047197551,0.02213071,-0.157216692,-0.839958915,0.480169801,0.0000232277865649556,0.498775066,0.082529971,0.603901375,1.223392899,-2.377694932,0.949300408,0.153618725,-0.485091321,0.114991892,0.513363766,-0.956983035,-1.0373337,0.615874081,-1.144835671,-2.496591465,-0.023300412,-0.007618432,-0.010323766
1759936358,2,7,1,1,0,768,0,0,-3.11888868,-1.526790195,1.295472447,4.920692506,3.976301432,0.645333588,-1.047733545,0.022570757,-0.15346761,-0.84459877,0.482475668,0.,-3.119396309,-1.526689223,1.295517604,4.920197401,3.976552338,0.645349454,-1.047197551,0.02213071,-0.157216692,-0.839958915,0.480169801,0.0000232277865649556,0.49999429,0.07861696,0.60487036,1.212498667,-2.390090331,0.94888636,0.149715534,-0.486655571,0.116185628,0.503825501,-0.964187108,-1.032965683,0.729944136,-1.21148606,-2.291245858,-0.021584053,-0.008467774,-0.013370672
1759936358,2,7,1,1,0,768,0,0,-3.127158229,-1.526544166,1.294236485,4.913591581,3.980180025,0.645308673,-1.048013687,0.023428846,-0.156256512,-0.84296757,0.479911119,0.,-3.12777389,-1.526512177,1.294259871,4.913477729,3.980393697,0.64534964,-1.047197551,0.02213071,-0.157216692,-0.839958915,0.480169801,0.0000232277865649556,0.501220457,0.074775494,0.6058075,1.201749892,-2.40239754,0.948684052,0.145879896,-0.488704432,0.117805581,0.493166724,-0.968644469,-1.029433926,1.16659613,-1.166112634,-1.789756494,-0.017881764,-0.003168193,-0.0181234
1759936358,2,7,1,1,0,768,0,0,-3.135483567,-1.526377515,1.29306585,4.907048541,3.98403883,0.645345688,-1.048183084,0.022748578,-0.159114391,-0.836897314,0.477107406,0.,-3.13615147,-1.526335132,1.293002137,4.906758058,3.984235055,0.645349826,-1.047197551,0.02213071,-0.157216692,-0.839958915,0.480169801,0.0000232277865649556,0.502345083,0.070890017,0.606702763,1.190891314,-2.414263292,0.948141417,0.141009749,-0.490622803,0.119753364,0.482141289,-0.970189648,-1.026119963,1.045011817,-0.96575861,-2.266863538,-0.022944983,-0.006122434,-0.017844415
1759936358,2,7,1,1,0,768,0,0,-3.143976752,-1.526237865,1.291850392,4.900645467,3.987879992,0.645410597,-1.048165083,0.021409707,-0.156569675,-0.84043932,0.479652494,0.,-3.144529051,-1.526158086,1.291744404,4.900038387,3.988076414,0.645350012,-1.047197551,0.02213071,-0.157216692,-0.839958915,0.480169801,0.0000232277865649556,0.503425754,0.066906185,0.607625214,1.179726595,-2.426073758,0.947595434,0.136519632,-0.491997836,0.12004172,0.476262619,-0.976577194,-1.02240099,0.727808146,-0.967812963,-2.454122954,-0.020875285,-0.004443467,-0.010910415
1759936358,2,7,1,1,0,768,0,0,-3.152327124,-1.526024753,1.290626828,4.893910679,3.991606712,0.645353317,-1.04552722,0.02160259,-0.159032911,-0.84266746,0.481132537,0.,-3.152906631,-1.52598104,1.29048667,4.893318715,3.991917772,0.645350197,-1.047197551,0.02213071,-0.157216692,-0.839958915,0.480169801,0.0000232277865649556,0.504518569,0.062973129,0.60856154,1.168729697,-2.437777614,0.947473896,0.132363178,-0.492136164,0.121939461,0.469329114,-0.985017515,-1.015965159,0.403009537,-1.131682404,-2.758966157,-0.025802332,-0.015004043,-0.010327366
1759936358,2,7,1,1,0,768,0,0,-3.160733287,-1.525840053,1.28942186,4.886800203,3.995430708,0.645337045,-1.048712492,0.022180142,-0.159034446,-0.840708971,0.482085735,0.,-3.161284212,-1.525803994,1.289228937,4.886599044,3.99575913,0.645350383,-1.047197551,0.02213071,-0.157216692,-0.839958915,0.480169801,0.0000232277865649556,0.505595211,0.059006421,0.609541231,1.157516827,-2.449824355,0.947639612,0.128441056,-0.495234973,0.122081973,0.461802538,-0.9863924,-1.015196188,0.814519407,-1.131181508,-2.30143466,-0.019645688,-0.004573474,-0.017526732
1759936358,2,7,1,1,0,768,0,0,-3.16916186,-1.525602998,1.288205926,4.880106407,3.999299526,0.645389736,-1.044356942,0.02389418,-0.161061808,-0.835880101,0.482201308,0.,-3.169661792,-1.525626949,1.287971203,4.879879373,3.999600489,0.645350569,-1.047197551,0.02213071,-0.157216692,-0.839958915,0.480169801,0.0000232277865649556,0.5066339,0.055019023,0.610458976,1.146244991,-2.46153755,0.947470597,0.124350291,-0.494552096,0.122356327,0.453467752,-0.985718216,-1.007167505,0.806044075,-1.241903062,-2.099305296,-0.01521101,-0.006539992,-0.010580567
1759936358,2,7,1,1,0,768,0,0,-3.177529637,-1.525463601,1.286933724,4.873671669,4.003188133,0.645345688,-1.047575355,0.02238318,-0.159039229,-0.833738863,0.483383775,0.,-3.178039372,-1.525449903,1.28671347,4.873159701,4.003441847,0.645350755,-1.047197551,0.02213071,-0.157216692,-0.839958915,0.480169801,0.0000232277865649556,0.507572869,0.051053934,0.611430176,1.135134107,-2.473009646,0.947260238,0.119539544,-0.497473219,0.122492812,0.446206551,-0.986845644,-1.006662253,0.948179427,-1.113118031,-2.342857502,-0.020723594,-0.001519307,-0.01320333
1759936358,2,7,1,1,0,768,0,0,-3.185852114,-1.525309042,1.285732094,4.867158997,4.007042885,0.6453619,-1.0464499,0.021740528,-0.159735933,-0.844812095,0.480856687,0.,-3.186416953,-1.525272857,1.285455736,4.86644003,4.007283206,0.645350941,-1.047197551,0.02213071,-0.157216692,-0.839958915,0.480169801,0.0000232277865649556,0.508489579,0.047098002,0.612374943,1.123948079,-2.484406057,0.947186895,0.115678166,-0.498477224,0.125148596,0.434606348,-1.00278766,-1.002059141,0.811591032,-1.337366635,-2.331241278,-0.020646435,-0.001722446,-0.012502074
1759936358,2,7,1,1,0,768,0,0,-3.194194857,-1.525074908,1.284442727,4.860231462,4.011048794,0.645329177,-1.043684959,0.021626022,-0.160023943,-0.846940279,0.47904101,0.,-3.194794533,-1.525095812,1.284198003,4.859720359,4.011124564,0.645351127,-1.047197551,0.02213071,-0.157216692,-0.839958915,0.480169801,0.0000232277865649556,0.509436177,0.043129375,0.613361722,1.112707967,-2.496123368,0.94736962,0.111352228,-0.498606792,0.126385746,0.423941293,-1.008778807,-0.99563009,1.06150395,-1.051066915,-2.399733847,-0.020557468,0.001831282,-0.016621352
1759936358,2,7,1,1,0,768,0,0,-3.202525918,-1.524911468,1.283240143,4.853153962,4.014904976,0.645382464,-1.045582891,0.02253006,-0.161723614,-0.841875613,0.474515229,0.,-3.203172114,-1.524918766,1.282940269,4.853000687,4.014965922,0.645351312,-1.047197551,0.02213071,-0.157216692,-0.839958915,0.480169801,0.0000232277865649556,0.510326983,0.039145484,0.614373313,1.101236737,-2.507810001,0.947936947,0.107096895,-0.50125798,0.127202925,0.410912245,-1.007704928,-0.994139425,1.078336564,-1.252419534,-2.159920755,-0.015361387,-0.004429254,-0.019883848
1759936358,2,7,1,1,0,768,0,0,-3.211017672,-1.524776162,1.281959836,4.846591908,4.018694401,0.64536953,-1.049269915,0.021835119,-0.160016403,-0.838609695,0.47515294,0.,-3.211549694,-1.52474172,1.281682535,4.846281016,4.018807281,0.645351498,-1.047197551,0.02213071,-0.157216692,-0.839958915,0.480169801,0.0000232277865649556,0.511139591,0.03506691,0.615391694,1.089625346,-2.519057284,0.948248586,0.102354923,-0.504328716,0.126993924,0.402886285,-1.006893369,-0.994133562,0.966415152,-1.449719244,-2.335345276,-0.013462773,-0.002819985,-0.014634862
1759936358,2,7,1,1,0,768,0,0,-3.219376389,-1.524588798,1.280624215,4.840078565,4.02250433,0.645357609,-1.048303127,0.021012092,-0.158600658,-0.839776814,0.477004319,0.,-3.219927274,-1.524564675,1.280424802,4.839561345,4.022648639,0.645351684,-1.047197551,0.02213071,-0.157216692,-0.839958915,0.480169801,0.0000232277865649556,0.511931402,0.031046639,0.616409313,1.078156465,-2.530163728,0.948615824,0.097732888,-0.504903135,0.127387324,0.395832615,-1.010894565,-0.989328027,1.101240389,-1.186565578,-2.574787596,-0.020322641,0.000966517,-0.019247558
1759936358,2,7,1,1,0,768,0,0,-3.227794234,-1.524482155,1.279303376,4.833477507,4.026200294,0.645345688,-1.047102332,0.021168815,-0.158734262,-0.844832718,0.480598152,0.,-3.228304855,-1.524387629,1.279167068,4.832841673,4.026489998,0.64535187,-1.047197551,0.02213071,-0.157216692,-0.839958915,0.480169801,0.0000232277865649556,0.512657873,0.026980596,0.617482615,1.066468734,-2.541231406,0.949303954,0.093708633,-0.505207028,0.128358894,0.389976042,-1.01945665,-0.983959878,0.580597643,-1.337223072,-2.482855605,-0.021629496,-0.007580214,-0.011851683
1759936358,2,7,1,1,0,768,0,0,-3.236212317,-1.524306574,1.277983491,4.826572488,4.030008793,0.645373881,-1.046487689,0.021659482,-0.157075524,-0.840635419,0.48353219,0.,-3.236682435,-1.524210583,1.277909335,4.826122002,4.030331356,0.645352056,-1.047197551,0.02213071,-0.157216692,-0.839958915,0.480169801,0.0000232277865649556,0.513400784,0.022909411,0.618551725,1.054672289,-2.552500778,0.950171372,0.089300981,-0.505841495,0.127342596,0.384382928,-1.016596619,-0.979141219,0.643314469,-1.075634149,-2.682786163,-0.023041559,-0.005328244,-0.013674844
1759936358,2,7,1,1,0,768,0,0,-3.244568173,-1.52406047,1.276676003,4.819641168,4.033727169,0.645332873,-1.048191786,0.021104353,-0.157998905,-0.83867228,0.484630257,0.,-3.245060016,-1.524033538,1.276651601,4.819402331,4.034172714,0.645352241,-1.047197551,0.02213071,-0.157216692,-0.839958915,0.480169801,0.0000232277865649556,0.514139122,0.018850535,0.619592871,1.042961275,-2.563501671,0.951169287,0.084510928,-0.507750981,0.128469954,0.376482739,-1.019333094,-0.976871936,1.280173226,-1.310641346,-2.218998289,-0.019268355,0.003537914,-0.019182835
1759936358,2,7,1,1,0,768,0,0,-3.252872054,-1.523890835,1.275341336,4.81314003,4.037662029,0.645341396,-1.046363354,0.021295581,-0.157950133,-0.837522984,0.485613942,0.,-3.253437596,-1.523856492,1.275393868,4.81268266,4.038014073,0.645352427,-1.047197551,0.02213071,-0.157216692,-0.839958915,0.480169801,0.0000232277865649556,0.514782414,0.014832205,0.620631044,1.031379046,-2.574371646,0.951760972,0.080141741,-0.507781848,0.128823376,0.368594198,-1.021077481,-0.971227924,0.950478905,-1.485060692,-1.912764334,-0.013719252,-0.003464962,-0.017669162
1759936358,2,7,1,1,0,768,0,0,-3.261218135,-1.523781532,1.274068181,4.806611563,4.041563988,0.645316303,-1.050284982,0.02214447,-0.155393958,-0.838994145,0.482436687,0.,-3.261815176,-1.523679446,1.274136134,4.805962988,4.041855431,0.645352613,-1.047197551,0.02213071,-0.157216692,-0.839958915,0.480169801,0.0000232277865649556,0.515367205,0.010784541,0.621680122,1.019706852,-2.585137384,0.952476316,0.076280015,-0.511091218,0.128155097,0.356608885,-1.021743901,-0.971943246,0.913289617,-0.948101701,-2.66279416,-0.022055308,-0.003667408,-0.01750486
1759936358,2,7,1,1,0,768,0,0,-3.269640986,-1.523587809,1.272786919,4.799818384,4.045508862,0.645337045,-1.048478246,0.021375498,-0.153879002,-0.844130695,0.47865805,0.,-3.270192757,-1.523502401,1.272878401,4.799243317,4.04569679,0.645352799,-1.047197551,0.02213071,-0.157216692,-0.839958915,0.480169801,0.0000232277865649556,0.515972443,0.006686254,0.622722082,1.007795227,-2.596039288,0.953393799,0.07170954,-0.511449855,0.129278384,0.343126114,-1.02850017,-0.966973241,0.796000151,-1.112622151,-2.676896384,-0.027625466,-0.006082022,-0.016290369
1759936358,2,7,1,1,0,768,0,0,-3.278077666,-1.523356759,1.271465127,4.792796719,4.049311638,0.645329177,-1.045628428,0.022169247,-0.154414028,-0.843098462,0.478340238,0.,-3.278570337,-1.523325355,1.271620667,4.792523646,4.049538148,0.645352985,-1.047197551,0.02213071,-0.157216692,-0.839958915,0.480169801,0.0000232277865649556,0.516567819,0.002558131,0.623804455,0.995726406,-2.606886796,0.954747055,0.06741423,-0.511031452,0.129719206,0.33365891,-1.029933884,-0.960355683,0.898461927,-1.175402859,-2.546246439,-0.018673295,-0.000668032,-0.015066245
1759936358,2,7,1,1,0,768,0,0,-3.286432568,-1.523220019,1.270194832,4.785985309,4.053091049,0.645308614,-1.047625303,0.022890417,-0.15484862,-0.839293599,0.47784704,0.,-3.286947918,-1.523148309,1.270362934,4.785803974,4.053379506,0.645353171,-1.047197551,0.02213071,-0.157216692,-0.839958915,0.480169801,0.0000232277865649556,0.517072136,-0.001529736,0.624893178,0.983765061,-2.617477204,0.956079129,0.062978811,-0.513002398,0.129832375,0.324496097,-1.028457155,-0.958717538,1.002729412,-1.006225942,-2.235920864,-0.022531253,0.003100417,-0.017881035
1759936358,2,7,1,1,0,768,0,0,-3.294770781,-1.523019106,1.26893789,4.779492098,4.056874752,0.645366311,-1.045779943,0.022806663,-0.154618874,-0.835571349,0.481119215,0.,-3.295325498,-1.522971264,1.2691052,4.779084303,4.057220865,0.645353356,-1.047197551,0.02213071,-0.157216692,-0.839958915,0.480169801,0.0000232277865649556,0.517551781,-0.005617345,0.625911687,0.971782332,-2.627759561,0.957155439,0.058327726,-0.512622359,0.129784469,0.319028149,-1.027678011,-0.952733874,0.967546782,-1.291563644,-2.133935036,-0.016029002,-0.00222181,-0.020018606
1759936358,2,7,1,1,0,768,0,0,-3.303158108,-1.522871928,1.267732445,4.77303395,4.060806274,0.645341396,-1.047964811,0.023252061,-0.155537188,-0.841004908,0.481108248,0.,-3.303703078,-1.522794218,1.267847467,4.772364632,4.061062223,0.645353542,-1.047197551,0.02213071,-0.157216692,-0.839958915,0.480169801,0.0000232277865649556,0.5179742,-0.009721797,0.626924601,0.959858041,-2.637999425,0.958104252,0.054294886,-0.514622935,0.131265076,0.308753602,-1.036020229,-0.951347798,1.109797729,-1.079121962,-2.494387744,-0.024772942,0.003566072,-0.016614841
1759936358,2,7,1,1,0,768,0,0,-3.311470811,-1.522703843,1.266508881,4.766139484,4.064627647,0.6453619,-1.04910624,0.022813229,-0.154131025,-0.845880508,0.48170042,0.,-3.312080659,-1.522617172,1.266589733,4.76564496,4.064903582,0.645353728,-1.047197551,0.02213071,-0.157216692,-0.839958915,0.480169801,0.0000232277865649556,0.518392703,-0.013807461,0.62799687,0.94777441,-2.648377386,0.959680099,0.049889728,-0.515966727,0.131980003,0.299292867,-1.042357205,-0.948598079,1.21986075,-1.525053762,-2.099962618,-0.012958911,0.004508715,-0.017822337
1759936358,2,7,1,1,0,768,0,0,-3.319835965,-1.522474316,1.265286748,4.759063817,4.068537235,0.6453619,-1.043313503,0.023341972,-0.154392168,-0.838605821,0.481609046,0.,-3.320458239,-1.522440126,1.265332,4.758925289,4.06874494,0.645353914,-1.047197551,0.02213071,-0.157216692,-0.839958915,0.480169801,0.0000232277865649556,0.518814817,-0.017926552,0.629057744,0.935602147,-2.658810016,0.961350521,0.045226827,-0.513715958,0.131687458,0.291031735,-1.037230061,-0.939054475,1.579184381,-1.099217623,-1.746315235,-0.01452636,0.005665088,-0.021260831
1759936358,2,7,1,1,0,768,0,0,-3.328260724,-1.522282169,1.264021222,4.752527683,4.072480679,0.645373821,-1.046157956,0.023846513,-0.153961241,-0.831579745,0.479717225,0.,-3.32883582,-1.522263081,1.264074266,4.752205618,4.072586298,0.6453541,-1.047197551,0.02213071,-0.157216692,-0.839958915,0.480169801,0.0000232277865649556,0.519150853,-0.022071346,0.630100973,0.923417703,-2.668887541,0.962639842,0.040415417,-0.515998236,0.131162479,0.281182662,-1.031322876,-0.938759893,1.222115794,-1.232657026,-1.942045706,-0.015438951,0.001931756,-0.021648389
1759936358,2,7,1,1,0,768,0,0,-3.336698834,-1.522118555,1.262840573,4.746138944,4.076283455,0.645341396,-1.048053384,0.021679912,-0.154017746,-0.836003244,0.47625801,0.,-3.3372134,-1.522086035,1.262816532,4.745485946,4.076427657,0.645354286,-1.047197551,0.02213071,-0.157216692,-0.839958915,0.480169801,0.0000232277865649556,0.519428429,-0.026235558,0.631113216,0.911213698,-2.678595832,0.963957742,0.034926976,-0.517715747,0.133633783,0.267101427,-1.03936268,-0.937940879,0.907447855,-1.05442561,-2.271435175,-0.022956041,-0.002186233,-0.018011355
1759936358,2,7,1,1,0,768,0,0,-3.345081631,-1.5219595,1.2616213,4.739462924,4.080107212,0.645378113,-1.049638629,0.021893932,-0.155180871,-0.845788658,0.478162557,0.,-3.345590981,-1.521908989,1.261558799,4.738766275,4.080269015,0.645354471,-1.047197551,0.02213071,-0.157216692,-0.839958915,0.480169801,0.0000232277865649556,0.519683148,-0.030376381,0.632183712,0.898877544,-2.68848786,0.965679726,0.030896528,-0.519087194,0.13575892,0.257195284,-1.052265193,-0.935456041,1.237635383,-1.223995072,-2.446731472,-0.021111542,0.002095037,-0.025090832
1759936358,2,7,1,1,0,768,0,0,-3.353445117,-1.521765829,1.26042587,4.732527507,4.083868027,0.645341396,-1.046652436,0.022889039,-0.157821611,-0.847494721,0.477069378,0.,-3.353968561,-1.521731944,1.260301065,4.732046604,4.084110374,0.645354657,-1.047197551,0.02213071,-0.157216692,-0.839958915,0.480169801,0.0000232277865649556,0.519930511,-0.034522809,0.633263364,0.88653198,-2.698311364,0.967736744,0.026736983,-0.51827226,0.137464293,0.245768113,-1.057231035,-0.929037964,1.006685456,-1.081043425,-2.402570923,-0.020305518,0.002000008,-0.020547779
1759936358,2,7,1,1,0,768,0,0,-3.361868683,-1.521546812,1.259190385,4.725523434,4.087660313,0.645370543,-1.045844316,0.023466483,-0.158503711,-0.840691924,0.481046498,0.,-3.362346141,-1.521554898,1.259043332,4.725326932,4.087951732,0.645354843,-1.047197551,0.02213071,-0.157216692,-0.839958915,0.480169801,0.0000232277865649556,0.520152614,-0.038705567,0.634361219,0.873962253,-2.708174497,0.969936412,0.022070912,-0.518060863,0.137141014,0.241176828,-1.053348381,-0.923569145,1.516574645,-0.909027281,-2.273778363,-0.021409918,0.003862494,-0.02572009
1759936358,2,7,1,1,0,768,0,0,-3.370335166,-1.521381782,1.257998292,4.719011508,4.091433048,0.645337105,-1.044695258,0.022087639,-0.161427334,-0.836025894,0.481813312,0.,-3.370723722,-1.521377852,1.257785598,4.718607261,4.091793091,0.645355029,-1.047197551,0.02213071,-0.157216692,-0.839958915,0.480169801,0.0000232277865649556,0.520286029,-0.042905388,0.635414255,0.861489212,-2.717574363,0.971765002,0.016455448,-0.517614091,0.139335541,0.232173163,-1.054946397,-0.918734876,1.026420388,-1.314213515,-2.086455063,-0.018133565,-5.41E-05,-0.019851011
1759936358,2,7,1,1,0,768,0,0,-3.378554646,-1.521246598,1.256791894,4.712553631,4.095236778,0.645324826,-1.046414614,0.021794626,-0.161069438,-0.840804398,0.485848159,0.,-3.379101302,-1.521200807,1.256527865,4.71188759,4.095634449,0.645355215,-1.047197551,0.02213071,-0.157216692,-0.839958915,0.480169801,0.0000232277865649556,0.520377197,-0.046973453,0.636486561,0.849320758,-2.726872654,0.97369364,0.012090443,-0.51860017,0.140265892,0.225261327,-1.062076128,-0.915873874,1.087323637,-1.562600286,-2.286063611,-0.013065274,0.004502807,-0.020115829
1759936358,2,7,1,1,0,768,0,0,-3.386984889,-1.521077098,1.255515401,4.70576398,4.099133492,0.645381212,-1.046406388,0.022140289,-0.16066891,-0.842354,0.484824389,0.,-3.387478883,-1.521023761,1.255270131,4.705167918,4.099475807,0.6453554,-1.047197551,0.02213071,-0.157216692,-0.839958915,0.480169801,0.0000232277865649556,0.520454117,-0.051153939,0.637614694,0.836657817,-2.736467603,0.975951986,0.007612244,-0.519083602,0.140774871,0.214158993,-1.064215775,-0.912435739,0.995178151,-1.421066047,-2.379197856,-0.020149051,-0.00289933,-0.019573234
1759936358,2,7,1,1,0,768,0,0,-3.395316188,-1.5209362,1.254306142,4.698684378,4.103140354,0.645378113,-1.046069145,0.022077899,-0.161066219,-0.836977959,0.481039584,0.,-3.395856463,-1.520846715,1.254012398,4.698448247,4.103317166,0.645355586,-1.047197551,0.02213071,-0.157216692,-0.839958915,0.480169801,0.0000232277865649556,0.520506995,-0.055278273,0.638757721,0.824153485,-2.746156174,0.978451474,0.002514573,-0.519414484,0.141241352,0.201958099,-1.060010485,-0.909369862,1.283770775,-1.140149609,-2.233465369,-0.023190232,0.005988669,-0.018202768
1759936358,2,7,1,1,0,768,0,0,-3.403692786,-1.52070192,1.253034894,4.691928549,4.106994152,0.645373881,-1.048768759,0.021969192,-0.16225031,-0.830201328,0.477255195,0.,-3.404234043,-1.52066967,1.252754664,4.691728576,4.107158524,0.645355772,-1.047197551,0.02213071,-0.157216692,-0.839958915,0.480169801,0.0000232277865649556,0.520538477,-0.059446562,0.63985853,0.811571679,-2.755400104,0.980841638,-0.002918357,-0.521269691,0.141916694,0.189976185,-1.055147018,-0.909577834,1.125005566,-1.163846481,-2.293867617,-0.018427919,0.002317692,-0.019346382
1759936358,2,7,1,1,0,768,0,0,-3.412005488,-1.520553467,1.251746957,4.685434027,4.110836029,0.645345628,-1.046133995,0.021960013,-0.16118218,-0.832714558,0.476952642,0.,-3.412611624,-1.520492624,1.251496931,4.685008905,4.110999883,0.645355958,-1.047197551,0.02213071,-0.157216692,-0.839958915,0.480169801,0.0000232277865649556,0.520483016,-0.063570208,0.64098665,0.799114411,-2.764411745,0.983187002,-0.007250379,-0.52014455,0.142318651,0.179517453,-1.057719183,-0.903531148,1.204631951,-1.367705283,-1.98346682,-0.01104383,0.003401052,-0.022108724
1759936358,2,7,1,1,0,768,0,0,-3.420480553,-1.520328299,1.250516717,4.67895381,4.114649296,0.645349085,-1.0463202,0.022114296,-0.158573776,-0.842610121,0.476314068,0.,-3.420989204,-1.520315578,1.250239197,4.678289233,4.114841241,0.645356144,-1.047197551,0.02213071,-0.157216692,-0.839958915,0.480169801,0.0000232277865649556,0.520416403,-0.067792452,0.642050889,0.78637048,-2.77325104,0.985482371,-0.011351581,-0.520650516,0.142761142,0.166975954,-1.06558638,-0.900452601,1.165567181,-1.337837421,-2.33028146,-0.019055121,0.002630775,-0.019138473
1759936358,2,7,1,1,0,768,0,0,-3.428871457,-1.520149716,1.249191586,4.672141238,4.118471622,0.645320535,-1.048756719,0.022463055,-0.157933682,-0.847297311,0.477614105,0.,-3.429366785,-1.520138533,1.248981464,4.671569562,4.118682599,0.64535633,-1.047197551,0.02213071,-0.157216692,-0.839958915,0.480169801,0.0000232277865649556,0.520306669,-0.071968105,0.643230741,0.773616786,-2.782254457,0.988347766,-0.015817785,-0.522046653,0.143381859,0.157064229,-1.070504698,-0.898857756,1.226046918,-0.974972573,-2.339868409,-0.020377885,0.002782595,-0.022621682
1759936358,2,7,1,1,0,768,0,0,-3.437302176,-1.520035592,1.247887913,4.665022536,4.12225914,0.645337105,-1.047431827,0.023671245,-0.158670664,-0.844872355,0.479591459,0.,-3.437744365,-1.519961487,1.24772373,4.664849891,4.122523958,0.645356515,-1.047197551,0.02213071,-0.157216692,-0.839958915,0.480169801,0.0000232277865649556,0.520139531,-0.076162949,0.644477247,0.760584269,-2.791366706,0.991700486,-0.020057008,-0.521368754,0.143366329,0.149498133,-1.069191068,-0.89315319,1.413051279,-1.634706622,-1.605491547,-0.00724283,0.006449297,-0.023003825
1759936358,2,7,1,1,0,768,0,0,-3.445535008,-1.519764022,1.246549431,4.658388301,4.126034737,0.645308673,-1.044116139,0.023313168,-0.159793526,-0.840464532,0.482167333,0.,-3.446121945,-1.519784441,1.246465997,4.658130219,4.126365316,0.645356701,-1.047197551,0.02213071,-0.157216692,-0.839958915,0.480169801,0.0000232277865649556,0.519997768,-0.080271355,0.64560644,0.748040754,-2.799948989,0.994571836,-0.024787842,-0.519383327,0.144048664,0.142778172,-1.06795479,-0.885527912,1.202439977,-1.175103246,-1.922138876,-0.013380932,0.001420674,-0.019262093
1759936358,2,7,1,1,0,768,0,0,-3.453914229,-1.519658928,1.245258156,4.651919528,4.129913807,0.645349085,-1.047932506,0.02349028,-0.156802967,-0.837879658,0.48295477,0.,-3.454499526,-1.519607396,1.245208263,4.651410548,4.130206675,0.645356887,-1.047197551,0.02213071,-0.157216692,-0.839958915,0.480169801,0.0000232277865649556,0.519729925,-0.084422541,0.646778016,0.73521983,-2.808548422,0.997378875,-0.029642224,-0.52127752,0.142713485,0.13516016,-1.063484468,-0.885606069,1.026357878,-1.044135022,-2.300529255,-0.021108744,0.000337007,-0.019973977
1759936358,2,7,1,1,0,768,0,0,-3.462405268,-1.519427912,1.243963544,4.645354434,4.133776188,0.645369589,-1.047437906,0.020933477,-0.155604631,-0.842142701,0.481840372,0.,-3.462877106,-1.51943035,1.243950529,4.644690877,4.134048033,0.645357073,-1.047197551,0.02213071,-0.157216692,-0.839958915,0.480169801,0.0000232277865649556,0.519475828,-0.088652454,0.647903002,0.722225091,-2.817010397,1.000250737,-0.035368611,-0.520727797,0.144622362,0.122190622,-1.06919721,-0.881987982,1.3670788,-1.182936156,-2.525077049,-0.023766682,0.006937698,-0.021465444
1759936358,2,7,1,1,0,768,0,0,-3.470715825,-1.519247857,1.242653195,4.63833396,4.137751102,0.645349085,-1.049095869,0.022135539,-0.154889777,-0.843483508,0.477941006,0.,-3.471254687,-1.519253304,1.242692796,4.637971205,4.137889391,0.645357259,-1.047197551,0.02213071,-0.157216692,-0.839958915,0.480169801,0.0000232277865649556,0.519199373,-0.092777786,0.649117097,0.709413761,-2.825723898,1.003676114,-0.039786654,-0.521961571,0.14463062,0.10875616,-1.068005216,-0.881288003,1.228734334,-1.305950392,-2.546225092,-0.016216261,0.006211542,-0.022499184
1759936358,2,7,1,1,0,768,0,0,-3.479046408,-1.519067885,1.241316621,4.631440325,4.141543865,0.645389736,-1.048400164,0.022401968,-0.15688768,-0.837402642,0.47714597,0.,-3.479632267,-1.519076259,1.241435062,4.631251534,4.14173075,0.645357445,-1.047197551,0.02213071,-0.157216692,-0.839958915,0.480169801,0.0000232277865649556,0.518868009,-0.096923185,0.650343207,0.696395041,-2.83415409,1.0072779,-0.044783836,-0.521384308,0.145391253,0.099336506,-1.064068909,-0.877292541,1.333537569,-1.149379329,-2.270342433,-0.018208203,0.007088482,-0.022939262
1759936358,2,7,1,1,0,768,0,0,-3.487502877,-1.518979215,1.240042512,4.624964877,4.145334244,0.645312965,-1.048208952,0.021590689,-0.15563044,-0.832203686,0.478699565,0.,-3.488009847,-1.518899213,1.240177329,4.624531863,4.145572108,0.64535763,-1.047197551,0.02213071,-0.157216692,-0.839958915,0.480169801,0.0000232277865649556,0.518430576,-0.101112561,0.651539268,0.683434101,-2.842185021,1.010538605,-0.049989402,-0.520697941,0.145048918,0.092398689,-1.059597636,-0.873149051,1.085239987,-1.415844623,-2.268506254,-0.014500183,0.004425897,-0.024018535
1759936358,2,7,1,1,0,768,0,0,-3.495935027,-1.518757143,1.238790814,4.61845605,4.149063587,0.645401955,-1.044706225,0.021315573,-0.153752878,-0.840625286,0.480326891,0.,-3.496387428,-1.518722167,1.238919595,4.617812191,4.149413467,0.645357816,-1.047197551,0.02213071,-0.157216692,-0.839958915,0.480169801,0.0000232277865649556,0.518018395,-0.105314484,0.652666137,0.670261479,-2.850089419,1.013850774,-0.054009559,-0.518605405,0.145780369,0.081285468,-1.066788018,-0.865649767,1.173488131,-1.313346353,-2.30139128,-0.014412176,0.005228313,-0.02492674
1759936358,2,7,1,1,0,768,0,0,-3.504185502,-1.518586033,1.237524335,4.61160533,4.15288353,0.645370543,-1.051079392,0.021448234,-0.152792424,-0.846779108,0.481972635,0.,-3.504765008,-1.518545121,1.237661862,4.61109252,4.153254825,0.645358002,-1.047197551,0.02213071,-0.157216692,-0.839958915,0.480169801,0.0000232277865649556,0.517580782,-0.10940917,0.653869381,0.657409923,-2.858106062,1.017616133,-0.058979619,-0.521583847,0.146504004,0.070793875,-1.072176742,-0.867835521,1.075162317,-1.399901148,-2.263391957,-0.019421022,0.007099653,-0.021213937
1759936358,2,7,1,1,0,768,0,0,-3.512604062,-1.518384942,1.236301724,4.60464017,4.15664959,0.645373821,-1.045919538,0.022706356,-0.155079693,-0.843682647,0.484259725,0.,-3.513142589,-1.518368076,1.236404128,4.604372849,4.157096183,0.645358188,-1.047197551,0.02213071,-0.157216692,-0.839958915,0.480169801,0.0000232277865649556,0.517104896,-0.113599817,0.655056595,0.64418885,-2.866012972,1.021558413,-0.062811134,-0.518501764,0.14708518,0.063140997,-1.071032179,-0.858257711,1.511682086,-1.236416582,-2.17493324,-0.015160751,0.007025425,-0.026095934
1759936358,2,7,1,1,0,768,0,0,-3.520953957,-1.518196003,1.235063378,4.597888156,4.16062355,0.645365298,-1.047337413,0.023234472,-0.154305145,-0.838266373,0.48271656,0.,-3.521520169,-1.51819103,1.235146395,4.597653177,4.160937542,0.645358374,-1.047197551,0.02213071,-0.157216692,-0.839958915,0.480169801,0.0000232277865649556,0.516593994,-0.117731486,0.656226128,0.631224537,-2.873879789,1.025219147,-0.067704418,-0.5189656,0.146407915,0.054020644,-1.064206565,-0.856809564,1.665314733,-1.152641211,-2.078504585,-0.017176497,0.009402004,-0.030370676
1759936358,2,7,1,1,0,768,0,0,-3.529345814,-1.518060719,1.233777348,4.591346903,4.16456604,0.645345688,-1.049214125,0.02117083,-0.154503435,-0.837716103,0.482385695,0.,-3.52989775,-1.518013984,1.233888661,4.590933506,4.1647789,0.645358559,-1.047197551,0.02213071,-0.157216692,-0.839958915,0.480169801,0.0000232277865649556,0.516003293,-0.121869223,0.657427563,0.618203547,-2.881543811,1.028885007,-0.073679828,-0.519049942,0.148108954,0.04281697,-1.065529586,-0.855399101,1.445581411,-1.430492783,-2.190092999,-0.014787656,0.006625736,-0.024314538
1759936358,2,7,1,1,0,768,0,0,-3.537694756,-1.517889695,1.232554738,4.584812804,4.168491364,0.645349085,-1.046007991,0.021473939,-0.155316815,-0.844130635,0.479399502,0.,-3.53827533,-1.517836939,1.232630928,4.584213835,4.168620259,0.645358745,-1.047197551,0.02213071,-0.157216692,-0.839958915,0.480169801,0.0000232277865649556,0.515399563,-0.125990066,0.658582925,0.605215596,-2.889039774,1.032559114,-0.07785371,-0.517196379,0.149869782,0.027374905,-1.070609589,-0.850007323,1.243264745,-1.446755172,-2.417332582,-0.016195955,0.001812954,-0.0234962
1759936358,2,7,1,1,0,768,0,0,-3.546075408,-1.51764235,1.231384102,4.578019782,4.172340393,0.645353317,-1.046142817,0.022686623,-0.155198157,-0.843607247,0.476414144,0.,-3.54665291,-1.517659893,1.231373194,4.577494163,4.172461617,0.645358931,-1.047197551,0.02213071,-0.157216692,-0.839958915,0.480169801,0.0000232277865649556,0.514797485,-0.13014828,0.659712798,0.59207148,-2.896424834,1.03654119,-0.082264776,-0.517163766,0.149812813,0.015249629,-1.06742493,-0.847983518,1.300344912,-1.598712435,-1.923121189,-0.008534121,0.006717773,-0.021301689
1759936358,2,7,1,1,0,768,0,0,-3.554491107,-1.517573157,1.230230157,4.571030779,4.176101685,0.645394027,-1.046533108,0.022998167,-0.154812947,-0.841047525,0.476775438,0.,-3.555030491,-1.517482847,1.230115461,4.570774492,4.176302975,0.645359117,-1.047197551,0.02213071,-0.157216692,-0.839958915,0.480169801,0.0000232277865649556,0.514074051,-0.134293903,0.660961115,0.578634032,-2.903819722,1.041097289,-0.087033084,-0.516683399,0.149684072,0.006426116,-1.064013922,-0.84473131,1.510992849,-1.327957956,-1.944526414,-0.013229376,0.00582458,-0.025355281
1759936358,2,7,1,1,0,768,0,0,-3.562836472,-1.51735842,1.22898132,4.564324065,4.179873466,0.645353317,-1.045036793,0.022011153,-0.15798679,-0.836169422,0.47712341,0.,-3.563408071,-1.517305802,1.228857727,4.564054821,4.180144334,0.645359303,-1.047197551,0.02213071,-0.157216692,-0.839958915,0.480169801,0.0000232277865649556,0.513372696,-0.138419475,0.662149051,-0.564574338,2.906092472,-1.043654362,-0.09240407,-0.514852611,0.151711333,-0.003278873,-1.062859126,-0.839759593,1.634660401,-1.260073731,-2.063506887,-0.019626836,0.013957528,-0.029006675
1759936358,2,7,1,1,0,768,0,0,-3.571190182,-1.517181353,1.227748696,4.557901068,4.183629513,0.645373821,-1.047600031,0.022580057,-0.159094766,-0.838109851,0.481377095,0.,-3.571785652,-1.517128756,1.227599994,4.557335149,4.183985692,0.645359489,-1.047197551,0.02213071,-0.157216692,-0.839958915,0.480169801,0.0000232277865649556,0.512606197,-0.142533638,0.663317655,-0.549544471,2.90298945,-1.044179438,-0.097020954,-0.515240318,0.152551281,-0.011077447,-1.065993843,-0.837261559,1.35607464,-1.266182853,-2.130269096,-0.015823266,0.004541125,-0.022936234
1759936358,2,7,1,1,0,768,0,0,-3.579585139,-1.516968285,1.226568047,4.55125062,4.187487125,0.64536953,-1.049401283,0.022654999,-0.157679737,-0.84469521,0.482564896,0.,-3.580163232,-1.51695171,1.22634226,4.550615478,4.187827051,0.645359674,-1.047197551,0.02213071,-0.157216692,-0.839958915,0.480169801,0.0000232277865649556,0.511828803,-0.1466684,0.664469638,-0.534522994,2.899646064,-1.044752425,-0.101650309,-0.515465364,0.153125576,-0.022659682,-1.070238719,-0.835209907,1.508198048,-1.141494375,-2.468438859,-0.018776158,0.007810246,-0.028254762
1759936358,2,7,1,1,0,768,0,0,-3.588027064,-1.5167868,1.225344483,4.544322177,4.191344738,0.6453619,-1.046926498,0.02271902,-0.15964669,-0.845574856,0.482236058,0.,-3.588540812,-1.516774665,1.225084526,4.543895807,4.191668409,0.64535986,-1.047197551,0.02213071,-0.157216692,-0.839958915,0.480169801,0.0000232277865649556,0.510997159,-0.150816518,0.665699587,-0.519316824,2.895891741,-1.045635771,-0.106214435,-0.513329829,0.154761754,-0.034686322,-1.071646541,-0.829424884,1.305495721,-1.52329366,-2.55317165,-0.017498956,0.00645793,-0.022669898
1759936358,2,7,1,1,0,768,0,0,-3.596342627,-1.516599127,1.224084679,4.537355109,4.195244789,0.645357609,-1.047691822,0.023211524,-0.161282524,-0.83962965,0.481568903,0.,-3.596918393,-1.516597619,1.223826793,4.537176136,4.195509768,0.645360046,-1.047197551,0.02213071,-0.157216692,-0.839958915,0.480169801,0.0000232277865649556,0.510149878,-0.154890883,0.666952042,-0.504343959,2.891881988,-1.046582273,-0.111201192,-0.512844233,0.155147659,-0.043573014,-1.065972895,-0.827051897,1.575346432,-1.493959236,-2.033895443,-0.010807967,0.008900514,-0.028877666
1759936358,2,7,1,1,0,768,0,0,-3.604752604,-1.516397999,1.222879235,4.530819579,4.199218273,0.645324886,-1.047173738,0.022856388,-0.162338465,-0.834201336,0.479418427,0.,-3.605295973,-1.516420573,1.222569059,4.530456464,4.199351126,0.645360232,-1.047197551,0.02213071,-0.157216692,-0.839958915,0.480169801,0.0000232277865649556,0.509251801,-0.159000328,0.668115913,-0.489681157,2.88827188,-1.047236504,-0.116383714,-0.511603944,0.155794151,-0.053922532,-1.060375829,-0.82430716,1.359413921,-1.446520959,-2.02761162,-0.013643787,0.003340184,-0.022281912
1759936358,2,7,1,1,0,768,0,0,-3.613222901,-1.516213649,1.221627537,4.524298831,4.203054905,0.645332932,-1.049104691,0.022313094,-0.160720766,-0.837862194,0.476743758,0.,-3.613673554,-1.516243528,1.221311326,4.523736793,4.203192484,0.645360418,-1.047197551,0.02213071,-0.157216692,-0.839958915,0.480169801,0.0000232277865649556,0.508286578,-0.163136345,0.669320161,-0.474883075,2.884583994,-1.048187139,-0.121667254,-0.511735665,0.156367888,-0.067684704,-1.060336219,-0.824233962,1.461694241,-1.252332819,-2.215394259,-0.014712154,0.004762276,-0.028501886
1759936358,2,7,1,1,0,768,0,0,-3.621587578,-1.516079855,1.220363442,4.517541571,4.20680666,0.645378113,-1.047076941,0.023178399,-0.15933767,-0.843464136,0.476643831,0.,-3.622051134,-1.516066482,1.220053592,4.517017122,4.207033843,0.645360604,-1.047197551,0.02213071,-0.157216692,-0.839958915,0.480169801,0.0000232277865649556,0.507278019,-0.167206848,0.670595508,-0.460065181,2.880475229,-1.049499423,-0.12545792,-0.509950678,0.156457939,-0.079741033,-1.061838022,-0.818906318,1.539273976,-1.486140634,-2.186426172,-0.014765636,0.006080161,-0.031235508
1759936358,2,7,1,1,0,768,0,0,-3.629972998,-1.515899875,1.219084088,4.510502978,4.210651398,0.645394027,-1.046583652,0.023191636,-0.159538075,-0.838054538,0.478274435,0.,-3.630428714,-1.515889436,1.218795859,4.51029745,4.210875201,0.645360789,-1.047197551,0.02213071,-0.157216692,-0.839958915,0.480169801,0.0000232277865649556,0.506260397,-0.171286713,0.671890722,-0.445246424,2.876012056,-1.050946723,-0.130215529,-0.508396289,0.156311227,-0.086544727,-1.056312822,-0.814244047,1.454572917,-1.827884632,-1.443967135,-2.94E-05,0.008690272,-0.025176907
1759936358,2,7,1,1,0,768,0,0,-3.638318364,-1.515736175,1.21772844,4.5038058,4.21437788,0.645349085,-1.045645714,0.022321019,-0.159079671,-0.832722902,0.48005411,0.,-3.638806295,-1.515712391,1.217538125,4.503577779,4.21471656,0.645360975,-1.047197551,0.02213071,-0.157216692,-0.839958915,0.480169801,0.0000232277865649556,0.505182303,-0.17533333,0.673198035,-0.43075746,2.871707128,-1.052479377,-0.135167448,-0.506357225,0.156276946,-0.093234338,-1.051089218,-0.809159064,1.754472736,-1.61892649,-1.563228955,-0.004655343,0.009070508,-0.025698037
1759936358,2,7,1,1,0,768,0,0,-3.64670736,-1.515572743,1.216449086,4.497358485,4.21821022,0.64536953,-1.047208548,0.021902686,-0.158593267,-0.831739604,0.481266141,0.,-3.647183875,-1.515535345,1.216280392,4.496858108,4.218557918,0.645361161,-1.047197551,0.02213071,-0.157216692,-0.839958915,0.480169801,0.0000232277865649556,0.504064906,-0.179385151,0.674434112,-0.416410974,2.867602986,-1.053758297,-0.140242569,-0.505749402,0.156566243,-0.102164265,-1.048986922,-0.806962113,1.459940912,-1.332377627,-1.924409574,-0.01752135,0.00723152,-0.027196579
1759936358,2,7,1,1,0,768,0,0,-3.655021493,-1.515362517,1.215150658,4.490845843,4.222082138,0.645357609,-1.046593666,0.022336468,-0.157297328,-0.843798697,0.483098775,0.,-3.655561456,-1.515358299,1.215022658,4.490138436,4.222399276,0.645361347,-1.047197551,0.02213071,-0.157216692,-0.839958915,0.480169801,0.0000232277865649556,0.502947226,-0.183398545,0.675665827,-0.40229658,2.863320883,-1.055091295,-0.144105367,-0.504397036,0.157668222,-0.116155401,-1.05696643,-0.802203354,1.595528881,-1.477900117,-2.11479212,-0.014148583,0.012012977,-0.030193533
1759936358,2,7,1,1,0,768,0,0,-3.663352553,-1.515236591,1.213852231,4.483990355,4.226037025,0.645378053,-1.049029827,0.022352416,-0.159505546,-0.848764122,0.481476963,0.,-3.663939036,-1.515181254,1.213764925,4.483418765,4.226240635,0.645361533,-1.047197551,0.02213071,-0.157216692,-0.839958915,0.480169801,0.0000232277865649556,0.501764784,-0.187387687,0.676987349,-0.388008855,2.858512395,-1.056678449,-0.149410324,-0.504345434,0.159997442,-0.131428682,-1.060485478,-0.802084777,1.577312366,-1.389850315,-1.976486331,-0.013963546,0.009054203,-0.030663209
1759936358,2,7,1,1,0,768,0,0,-3.671773736,-1.515020446,1.212505166,4.476961775,4.229930878,0.64536953,-1.047553658,0.022634279,-0.156415999,-0.843962431,0.479007751,0.,-3.672316617,-1.515004208,1.212507191,4.476699094,4.230081993,0.645361718,-1.047197551,0.02213071,-0.157216692,-0.839958915,0.480169801,0.0000232277865649556,0.500563812,-0.191438078,0.678314949,-0.373643494,2.853548552,-1.058534477,-0.153801397,-0.502538263,0.158262851,-0.139771099,-1.050199127,-0.798512909,1.528713224,-1.545261853,-1.618470547,-0.007266664,0.005575036,-0.027885137
1759936358,2,7,1,1,0,768,0,0,-3.680226866,-1.514801425,1.211180989,4.470272227,4.233822823,0.645373821,-1.046979189,0.021873625,-0.155337289,-0.834285676,0.477476358,0.,-3.680694197,-1.514827162,1.211249458,4.469979422,4.233923352,0.645361904,-1.047197551,0.02213071,-0.157216692,-0.839958915,0.480169801,0.0000232277865649556,0.49931402,-0.195491145,0.679589199,-0.359492723,2.848859258,-1.0602508,-0.158978725,-0.500664624,0.157394764,-0.146283719,-1.038735248,-0.795576285,1.704086553,-1.153588878,-1.916424206,-0.014281248,0.006053932,-0.030267774
1759936358,2,7,1,1,0,768,0,0,-3.688602988,-1.514670947,1.209894482,4.463739081,4.237613678,0.645397723,-1.044105887,0.021341486,-0.157902628,-0.836669445,0.476953179,0.,-3.689071777,-1.514650116,1.209991724,4.463259751,4.23776471,0.64536209,-1.047197551,0.02213071,-0.157216692,-0.839958915,0.480169801,0.0000232277865649556,0.497995503,-0.199476778,0.680878529,-0.345523115,2.844174347,-1.062091339,-0.16349144,-0.497522279,0.159770006,-0.159848316,-1.040911877,-0.78983809,1.471092819,-1.630238163,-1.789725395,-0.013420475,0.010555531,-0.024886594
1759936358,2,7,1,1,0,768,0,0,-3.696869198,-1.514535592,1.208619897,4.457159205,4.241396904,0.645373821,-1.048012733,0.021176156,-0.156770751,-0.841954768,0.47690931,0.,-3.697449358,-1.514473071,1.208733991,4.45654008,4.241606068,0.645362276,-1.047197551,0.02213071,-0.157216692,-0.839958915,0.480169801,0.0000232277865649556,0.496665763,-0.203398309,0.682169341,-0.331846692,2.839329167,-1.064033474,-0.168755751,-0.498000108,0.160441544,-0.172411974,-1.042162247,-0.790620553,1.604126708,-1.082455428,-1.93926411,-0.014823517,0.00373012,-0.030121901
1759936358,2,7,1,1,0,768,0,0,-3.705248658,-1.51431805,1.207372014,4.450215026,4.245155334,0.645373821,-1.047478914,0.021849321,-0.15504843,-0.839921236,0.480178446,0.,-3.705826938,-1.514296025,1.207476257,4.449820408,4.245447427,0.645362462,-1.047197551,0.02213071,-0.157216692,-0.839958915,0.480169801,0.0000232277865649556,0.495319618,-0.207393189,0.68345571,-0.317936994,2.834205383,-1.06627285,-0.172721546,-0.496210336,0.159282985,-0.178156833,-1.037300996,-0.785123293,1.408305119,-1.409666376,-2.132651394,-0.014398161,0.004478331,-0.024961851
1759936358,2,7,1,1,0,768,0,0,-3.713688914,-1.514183031,1.206113164,4.443213149,4.248842716,0.645349085,-1.045920134,0.023316437,-0.154722944,-0.83229506,0.483126432,0.000157285,-3.714204519,-1.514118979,1.206218523,4.443100737,4.249288785,0.645362648,-1.047197551,0.02213071,-0.157216692,-0.839958915,0.480169801,0.0000232277865649556,0.49388182,-0.211386363,0.684805335,-0.303971979,2.828900958,-1.068797843,-0.176359072,-0.4939267,0.157677975,-0.181468527,-1.028118527,-0.778831925,1.413985209,-1.624092442,-1.640883376,-0.009502703,0.00977534,-0.022933625
1759936358,2,7,1,1,0,768,0,0,-3.722016637,-1.514043422,1.204789941,4.436752482,4.25280571,0.645341396,-1.045499921,0.020933637,-0.155619666,-0.831271529,0.483412325,0.000135445,-3.722582099,-1.513941934,1.20496079,4.436381066,4.253130144,0.645362833,-1.047197551,0.02213071,-0.157216692,-0.839958915,0.480169801,0.0000232277865649556,0.492436937,-0.215285541,0.686106839,-0.290569367,2.823840285,-1.070737351,-0.181935423,-0.491281581,0.159697132,-0.192755495,-1.027449632,-0.775152414,1.474736762,-1.586014474,-1.836110472,-0.008746801,0.003882371,-0.028131633
1759936358,2,7,1,1,0,768,0,0,-3.730423037,-1.513825734,1.203583066,4.430334731,4.256703854,0.645365298,-1.046743989,0.02146381,-0.154332787,-0.839921713,0.48373118,0.0000844785899971611,-3.730959679,-1.513764888,1.203703056,4.429661394,4.256971502,0.645363019,-1.047197551,0.02213071,-0.157216692,-0.839958915,0.480169801,0.0000232277865649556,0.490977498,-0.219242425,0.687308334,-0.27718511,2.818981585,-1.072689663,-0.186288623,-0.490494428,0.160334343,-0.206625199,-1.030466476,-0.773165182,1.812980222,-1.324009181,-1.867459967,-0.012902112,0.01020302,-0.033926133
1759936358,2,7,1,1,0,768,0,0,-3.738886182,-1.513692466,1.202398125,4.423582717,4.260643005,0.645341396,-1.048284531,0.022914547,-0.15325287,-0.848244667,0.479590148,0.0000614029340795241,-3.73933726,-1.513587842,1.202445323,4.422941723,4.26081286,0.645363205,-1.047197551,0.02213071,-0.157216692,-0.839958915,0.480169801,0.0000232277865649556,0.489441788,-0.223190539,0.688589815,-0.263719816,2.813668143,-1.074961923,-0.190695115,-0.490260057,0.16071766,-0.223186923,-1.030330696,-0.773869385,1.704218817,-1.354342171,-1.938913287,-0.015711901,0.009071785,-0.034401309
1759936358,2,7,1,1,0,768,0,0,-3.747245375,-1.513486789,1.201193635,4.416522189,4.264480591,0.64536953,-1.048835039,0.023717474,-0.153194293,-0.846827388,0.476032823,0.000048233509005513,-3.74771484,-1.513410797,1.201187589,4.416222052,4.264654219,0.645363391,-1.047197551,0.02213071,-0.157216692,-0.839958915,0.480169801,0.0000232277865649556,0.487919358,-0.227102514,0.689891023,-0.250261635,2.807999627,-1.077577254,-0.195360392,-0.489148719,0.160638515,-0.234700991,-1.023628892,-0.773269851,1.468835564,-1.733182053,-1.48502355,-0.004626529,0.006980847,-0.025742054
1759936358,2,7,1,1,0,768,0,0,-3.755584065,-1.51329025,1.199906174,4.409653826,4.268311024,0.645376801,-1.044277191,0.023873037,-0.155484006,-0.841292858,0.476346225,0.0000397167677874676,-3.756092421,-1.513233751,1.199929856,4.40950238,4.268495577,0.645363577,-1.047197551,0.02213071,-0.157216692,-0.839958915,0.480169801,0.0000232277865649556,0.48635053,-0.230980771,0.691217265,-0.236998051,2.802347206,-1.080217537,-0.199070327,-0.484894658,0.161390754,-0.24283214,-1.017733341,-0.765450288,1.640828493,-1.882878087,-1.212126456,0.002045006,0.013165939,-0.031589986
1759936358,2,7,1,1,0,768,0,0,-3.763969485,-1.513152127,1.198772732,4.403246565,4.272108078,0.645365298,-1.045365453,0.023171954,-0.156159446,-0.835152805,0.477475315,0.0000337569035764317,-3.764470001,-1.513056705,1.198672122,4.402782709,4.272336936,0.645363762,-1.047197551,0.02213071,-0.157216692,-0.839958915,0.480169801,0.0000232277865649556,0.484714309,-0.23485603,0.692439526,-0.224013738,2.797203764,-1.082617131,-0.204182358,-0.483131228,0.161647811,-0.249490264,-1.011116223,-0.763031675,1.561541929,-1.749340853,-1.774096701,-0.005820637,0.009994768,-0.028420957
1759936358,2,7,1,1,0,768,0,0,-3.772323434,-1.512950988,1.197576825,4.396761103,4.275882244,0.645341396,-1.046822548,0.023323674,-0.155713245,-0.844008029,0.480126321,0.0000293524863081984,-3.772847581,-1.51287966,1.197414389,4.396063038,4.276178294,0.645363948,-1.047197551,0.02213071,-0.157216692,-0.839958915,0.480169801,0.0000232277865649556,0.48307073,-0.238718344,0.693674317,-0.211134827,2.791904888,-1.085170895,-0.208624871,-0.481880475,0.162828841,-0.262762631,-1.015664647,-0.759991732,1.643354177,-1.496515036,-2.081420265,-0.010343591,0.009615341,-0.030587704
1759936358,2,7,1,1,0,768,0,0,-3.780701462,-1.512763449,1.196304623,4.389910384,4.279603958,0.645316303,-1.047903538,0.023371585,-0.157411337,-0.844868898,0.484012008,0.0000259648586506955,-3.781225162,-1.512702614,1.196156655,4.389343367,4.280019652,0.645364134,-1.047197551,0.02213071,-0.157216692,-0.839958915,0.480169801,0.0000232277865649556,0.481373169,-0.242573111,0.695008732,-0.198102772,2.786105468,-1.08817977,-0.213260585,-0.480040029,0.16404527,-0.272062018,-1.015931206,-0.755683686,1.517178952,-1.631368599,-1.921938649,-0.005949234,0.006527432,-0.028902391
1759936358,2,7,1,1,0,768,0,0,-3.789043013,-1.512563874,1.195089165,4.382791205,4.283458233,0.645329177,-1.048615217,0.024275171,-0.159549564,-0.840425849,0.485387266,0.0000232784077525138,-3.789602742,-1.512525568,1.194898922,4.382623695,4.283861011,0.64536432,-1.047197551,0.02213071,-0.157216692,-0.839958915,0.480169801,0.0000232277865649556,0.479670772,-0.246395541,0.696342687,-0.185144375,2.779963783,-1.091238114,-0.217703632,-0.478337995,0.164413117,-0.279589335,-1.010289532,-0.752436038,1.565298144,-1.805788209,-1.6413633,-0.001957887,0.009245717,-0.031739513
1759936358,2,7,1,1,0,768,0,0,-3.797404353,-1.512377848,1.193882291,4.376234694,4.28737402,0.645373821,-1.047315955,0.024162166,-0.160488471,-0.833068371,0.485803366,0.0000210957095987396,-3.797980323,-1.512348523,1.193641188,4.375904024,4.287702369,0.645364506,-1.047197551,0.02213071,-0.157216692,-0.839958915,0.480169801,0.0000232277865649556,0.477921687,-0.250199701,0.697605193,-0.172461946,2.774286323,-1.093922974,-0.22199504,-0.475440192,0.164336601,-0.285675234,-1.001751045,-0.747989281,1.596075617,-1.575789073,-1.989148951,-0.009527811,0.009002132,-0.031993554
1759936358,2,7,1,1,0,768,0,0,-3.805892531,-1.5122232,1.19265968,4.369785472,4.291275978,0.645345688,-1.044516802,0.023240654,-0.159396231,-0.838714063,0.483166128,0.0000192872903426177,-3.806357903,-1.512171477,1.192383455,4.369184353,4.291543728,0.645364692,-1.047197551,0.02213071,-0.157216692,-0.839958915,0.480169801,0.0000232277865649556,0.476088576,-0.25403607,0.698881449,-0.159817216,2.768666457,-1.096708854,-0.226191924,-0.471862498,0.165496295,-0.300945159,-1.000928524,-0.743895883,1.551528059,-1.658374889,-1.801080032,-0.009471488,0.012498191,-0.025254794
1759936358,2,7,1,1,0,768,0,0,-3.81414849,-1.511993521,1.191453282,4.36304061,4.29520607,0.645389736,-1.046730518,0.022527449,-0.159751609,-0.843590319,0.479255259,0.0000177644415089162,-3.814735483,-1.511994431,1.191125721,4.362464681,4.295385086,0.645364877,-1.047197551,0.02213071,-0.157216692,-0.839958915,0.480169801,0.0000232277865649556,0.474316925,-0.257770743,0.700151458,-0.147417345,2.762656596,-1.09961141,-0.231723123,-0.470723983,0.167215554,-0.317109273,-0.999704686,-0.745581766,1.608501945,-1.50396774,-1.844763784,-0.011994442,0.008690258,-0.030279535
1759936358,2,7,1,1,0,768,0,0,-3.822501485,-1.511851085,1.190207307,4.356109782,4.299021721,0.64536953,-1.047857046,0.02248048,-0.160658374,-0.844039023,0.479265541,0.0000164645152835873,-3.823113064,-1.511817386,1.189867988,4.35574501,4.299226445,0.645365063,-1.047197551,0.02213071,-0.157216692,-0.839958915,0.480169801,0.0000232277865649556,0.472437802,-0.261508848,0.701519632,-0.134897429,2.756353427,-1.102977571,-0.23652999,-0.468850858,0.168128607,-0.328188146,-0.996588458,-0.743691529,1.753406931,-1.570317118,-1.837388715,-0.011210715,0.012033344,-0.027454098
1759936358,2,7,1,1,0,768,0,0,-3.830889289,-1.511626059,1.188922707,4.349156066,4.302856445,0.64536953,-1.048195243,0.023874268,-0.160239279,-0.838670135,0.47990939,0.0000153418368427082,-3.831490644,-1.51164034,1.188610254,4.349025339,4.303067803,0.645365249,-1.047197551,0.02213071,-0.157216692,-0.839958915,0.480169801,0.0000232277865649556,0.470546776,-0.265269007,0.70286888,-0.122417679,2.750003846,-1.10639152,-0.240418459,-0.467112344,0.166791197,-0.33344126,-0.987024304,-0.740666012,1.721084696,-1.67386685,-1.598229497,-0.007905626,0.010642851,-0.030095843
1759936358,2,7,1,1,0,768,0,0,-3.839334313,-1.511441403,1.187614743,4.342484637,4.306627274,0.645353317,-1.048305869,0.022896761,-0.161244914,-0.833799958,0.481039524,0.0000143625175041961,-3.839868225,-1.511463294,1.18735252,4.342305667,4.306909161,0.645365435,-1.047197551,0.02213071,-0.157216692,-0.839958915,0.480169801,0.0000232277865649556,0.468579393,-0.269023588,0.704218157,-0.110026539,2.743853677,-1.109821089,-0.245288916,-0.464250774,0.167472516,-0.341057866,-0.98097713,-0.737189199,1.752303483,-1.893853326,-1.580782864,-0.003471375,0.011704593,-0.029172724
1759936358,2,7,1,1,0,768,0,0,-3.847665135,-1.511298833,1.186294858,4.336146517,4.310463428,0.645398378,-1.047864079,0.023046196,-0.159450978,-0.839107394,0.481071472,0.0000135007157950894,-3.848245805,-1.511286249,1.186094787,4.335585996,4.31075052,0.645365621,-1.047197551,0.02213071,-0.157216692,-0.839958915,0.480169801,0.0000232277865649556,0.466592912,-0.272684841,0.705551514,-0.097931068,2.737841428,-1.113014979,-0.249195631,-0.461811644,0.167534951,-0.353149779,-0.97915374,-0.733932395,1.590404251,-1.713579267,-1.836044457,-0.005998385,0.004573069,-0.033766542
1759936359,2,7,1,1,0,768,0,0,-3.856064622,-1.511147191,1.185024563,4.329417391,4.31433773,0.645389736,-1.047618032,0.021113414,-0.156183735,-0.842244506,0.482103854,0.0000127364801301155,-3.856623386,-1.511109203,1.184837053,4.328866325,4.314591878,0.645365807,-1.047197551,0.02213071,-0.157216692,-0.839958915,0.480169801,0.0000232277865649556,0.464566588,-0.276364498,0.7069093,-0.085815248,2.7314521,-1.116509691,-0.253851116,-0.458703994,0.167638072,-0.363795368,-0.976406955,-0.730121268,1.374913719,-1.746105396,-1.836190677,-0.009876918,0.000980554,-0.028668721
1759936359,2,7,1,1,0,768,0,0,-3.864528481,-1.510910114,1.183673207,4.322501345,4.318212032,0.645373821,-1.04754591,0.022636689,-0.160319075,-0.842449069,0.481486112,0.0000120541453725309,-3.865000966,-1.510932157,1.18357932,4.322146653,4.318433237,0.645365992,-1.047197551,0.02213071,-0.157216692,-0.839958915,0.480169801,0.0000232277865649556,0.462515874,-0.280078218,0.708290704,-0.073658559,2.724836956,-1.120231209,-0.257997285,-0.456353869,0.169300893,-0.37615477,-0.97340866,-0.727531081,1.848913242,-1.453827171,-1.763818011,-0.011179711,0.011173208,-0.035221375
1759936359,2,7,1,1,0,768,0,0,-3.872927014,-1.510728364,1.182346169,4.315686389,4.322090149,0.645378113,-1.047628999,0.022653023,-0.157853469,-0.836206496,0.479750752,0.0000114411986942286,-3.873378546,-1.510755111,1.182321586,4.315426982,4.322274595,0.645366178,-1.047197551,0.02213071,-0.157216692,-0.839958915,0.480169801,0.0000232277865649556,0.460428091,-0.283722375,0.70967806,-0.061687709,2.718200419,-1.123954731,-0.262226461,-0.454063811,0.167567782,-0.381332893,-0.961159396,-0.725913188,1.398382939,-1.871595936,-1.292089049,-0.004980067,0.005773832,-0.029835488
1759936359,2,7,1,1,0,768,0,0,-3.881241147,-1.510561907,1.181007687,4.309254332,4.325928211,0.645385444,-1.047546029,0.021618139,-0.158701807,-0.836849689,0.477396309,0.0000189761540241306,-3.881756127,-1.510578066,1.181063853,4.308707311,4.326115953,0.645366364,-1.047197551,0.02213071,-0.157216692,-0.839958915,0.480169801,0.0000232277865649556,0.458319163,-0.287301715,0.711031083,-0.050017944,2.711850041,-1.12752059,-0.267069604,-0.451070353,0.169007391,-0.39410057,-0.957001849,-0.724686098,1.399650529,-1.947174735,-1.256372818,-0.003845952,0.007594035,-0.029306959
1759936359,2,7,1,1,0,768,0,0,-3.889595572,-1.510380366,1.179726903,4.302726908,4.329827785,0.645357609,-1.047149658,0.021678565,-0.154399157,-0.844200134,0.476023495,0.0000201070324692409,-3.890133707,-1.51040102,1.179806119,4.301987639,4.329957312,0.64536655,-1.047197551,0.02213071,-0.157216692,-0.839958915,0.480169801,0.0000232277865649556,0.456182086,-0.290885889,0.712360452,-0.038461661,2.705418595,-1.131132497,-0.270813895,-0.448681094,0.168132236,-0.406653082,-0.953498868,-0.722485971,1.650904252,-1.857274918,-1.7654003,-0.005985339,0.008248307,-0.026094401
1759936359,2,7,1,1,0,768,0,0,-3.898019139,-1.510261727,1.178427521,4.295896693,4.333579063,0.645365298,-1.045330524,0.021432789,-0.15385209,-0.850161135,0.478786469,0.0000100634879345307,-3.898511288,-1.510223974,1.178548386,4.295267968,4.33379867,0.645366736,-1.047197551,0.02213071,-0.157216692,-0.839958915,0.480169801,0.0000232277865649556,0.453952632,-0.294461876,0.713780353,-0.026661038,2.698600408,-1.13526286,-0.274302671,-0.444863846,0.169009147,-0.418957503,-0.953742008,-0.715949404,1.542226036,-1.742759568,-1.783130577,-0.007943954,0.008465887,-0.024923617
1759936359,2,7,1,1,0,768,0,0,-3.906364504,-1.510057592,1.177164857,4.288794203,4.337309361,0.645349085,-1.048361897,0.021962592,-0.1544604,-0.842379034,0.48032558,0.000000000182898945988441,-3.906888868,-1.510046929,1.177290652,4.288548297,4.337640029,0.645366921,-1.047197551,0.02213071,-0.157216692,-0.839958915,0.480169801,0.0000232277865649556,0.451748467,-0.298016114,0.715175979,-0.015041447,2.691559736,-1.139583302,-0.27910313,-0.443515942,0.168218758,-0.422674152,-0.943563234,-0.715101216,1.752900571,-1.830574257,-1.304977893,-0.000807667,0.008369947,-0.031220981
1759936359,2,7,1,1,0,768,0,0,-3.914681975,-1.509885201,1.175906483,4.282097979,4.341133118,0.645349085,-1.048295617,0.022961238,-0.155389056,-0.838495672,0.483475775,0.00000000000000332409779227067,-3.915266448,-1.509869883,1.176032919,4.281828625,4.341481387,0.645367107,-1.047197551,0.02213071,-0.157216692,-0.839958915,0.480169801,0.0000232277865649556,0.449515105,-0.301519405,0.716530775,-0.003699492,2.684803361,-1.14359366,-0.282605766,-0.440828551,0.167821356,-0.427947964,-0.936958634,-0.710166602,1.414113118,-1.838699655,-1.536572545,-0.002230003,0.002151266,-0.033492889
1759936359,2,7,1,1,0,768,0,0,-3.923102681,-1.509669096,1.174672906,4.275647326,4.344934464,0.645398319,-1.047765851,0.022672275,-0.153860614,-0.834983468,0.485092998,0.000000000000000000060413821047,-3.923644029,-1.509692837,1.174775185,4.275108954,4.345322745,0.645367293,-1.047197551,0.02213071,-0.157216692,-0.839958915,0.480169801,0.0000232277865649556,0.447235994,-0.305067441,0.717819035,0.007674025,2.678337266,-1.147488874,-0.286377258,-0.437716079,0.166945718,-0.433421866,-0.928986286,-0.705927041,1.560544871,-1.891050351,-1.394629613,-0.003097252,0.009158297,-0.034272114
1759936359,2,7,1,1,0,768,0,0,-3.931561057,-1.509541438,1.173387353,4.268992587,4.348838806,0.645385444,-1.04482758,0.021096054,-0.154331669,-0.84588486,0.485508829,0.000000000000000000000001097991,-3.932021609,-1.509515792,1.173517452,4.268389283,4.349164104,0.645367479,-1.047197551,0.02213071,-0.157216692,-0.839958915,0.480169801,0.0000232277865649556,0.444881086,-0.30856406,0.719207933,0.018959527,2.671457076,-1.151629601,-0.290192632,-0.432729186,0.169763245,-0.452124181,-0.932703884,-0.699941791,1.526195804,-1.714277292,-1.408509496,-0.003857253,0.002931548,-0.032973946
1759936359,2,7,1,1,0,768,0,0,-3.939831797,-1.509364394,1.172137086,4.262077017,4.352793217,0.645353317,-1.04762876,0.021847321,-0.156719536,-0.842306852,0.483466208,0.00000000000000000000000000002,-3.94039919,-1.509338746,1.172259718,4.261669611,4.353005462,0.645367665,-1.047197551,0.02213071,-0.157216692,-0.839958915,0.480169801,0.0000232277865649556,0.442578099,-0.311973106,0.720589047,0.029888388,2.664276299,-1.155871002,-0.295139785,-0.43121108,0.170398272,-0.461344779,-0.924579861,-0.701461789,1.664766573,-1.780431323,-1.176410375,-0.001910757,0.01287408,-0.027950433
1759936359,2,7,1,1,0,768,0,0,-3.948187653,-1.509181214,1.170916859,4.255154296,4.356743813,0.645353317,-1.047145605,0.022530477,-0.153400719,-0.833930731,0.480641514,0.,-3.94877677,-1.5091617,1.171001984,4.25494994,4.356846821,0.645367851,-1.047197551,0.02213071,-0.157216692,-0.839958915,0.480169801,0.0000232277865649556,0.440221606,-0.315401626,0.721954853,0.040867142,2.657088967,-1.160185746,-0.29861604,-0.428763091,0.167533461,-0.463373632,-0.908724924,-0.700328755,1.507110903,-1.916228688,-0.989928969,-0.00254523,0.010480111,-0.030970219
1759936359,2,7,1,1,0,768,0,0,-3.956645552,-1.508993828,1.169709984,4.248669787,4.360617638,0.645365298,-1.050490618,0.022288967,-0.154274538,-0.831651568,0.476269215,0.,-3.95715435,-1.508984655,1.169744251,4.248230269,4.360688179,0.645368036,-1.047197551,0.02213071,-0.157216692,-0.839958915,0.480169801,0.0000232277865649556,0.437798995,-0.318859636,0.723255773,0.051826241,2.650370376,-1.164346147,-0.304194745,-0.427225578,0.168134752,-0.474054119,-0.899883217,-0.704315633,1.960112798,-1.653875108,-1.404398266,-0.007933484,0.012307269,-0.03396325
1759936359,2,7,1,1,0,768,0,0,-3.965002839,-1.508788226,1.168498818,4.242191477,4.364326,0.645385385,-1.049009204,0.021727068,-0.156100318,-0.838833094,0.476904422,0.,-3.965531931,-1.508807609,1.168486517,4.241510598,4.364529537,0.645368222,-1.047197551,0.02213071,-0.157216692,-0.839958915,0.480169801,0.0000232277865649556,0.435369447,-0.322264077,0.724554114,0.06266113,2.64364973,-1.168696881,-0.308012154,-0.423032952,0.170538873,-0.490027462,-0.900808764,-0.699877542,1.460161853,-1.745473124,-1.587324731,-0.005673813,0.003559085,-0.030497357
1759936359,2,7,1,1,0,768,0,0,-3.973342005,-1.508648713,1.167285744,4.235450431,4.368122101,0.645328522,-1.04564476,0.021976419,-0.155747429,-0.846443236,0.476813555,0.,-3.973909511,-1.508630563,1.167228784,4.234790926,4.368370896,0.645368408,-1.047197551,0.02213071,-0.157216692,-0.839958915,0.480169801,0.0000232277865649556,0.432895478,-0.325602847,0.725924065,0.073306598,2.636530024,-1.173290723,-0.310716603,-0.418512027,0.171481603,-0.504570013,-0.899343822,-0.69398972,1.560134654,-2.145232309,-1.282868884,0.000452558,0.004607597,-0.027305724
1759936359,2,7,1,1,0,768,0,0,-3.981701199,-1.508510423,1.16609079,4.228373213,4.371914864,0.645381212,-1.048213363,0.022745157,-0.156375721,-0.844430923,0.480207771,0.,-3.982287092,-1.508453518,1.16597105,4.228071255,4.372212254,0.645368594,-1.047197551,0.02213071,-0.157216692,-0.839958915,0.480169801,0.0000232277865649556,0.430383171,-0.328923751,0.727333125,0.084101012,2.629002187,-1.178166519,-0.314896947,-0.416510073,0.171243096,-0.510812829,-0.893236739,-0.691434033,1.599643814,-1.852633815,-1.28995565,-0.002346108,0.005966924,-0.030894046
1759936359,2,7,1,1,0,768,0,0,-3.990208451,-1.5082974,1.164922539,4.221574469,4.375689983,0.6453619,-1.049203396,0.023264904,-0.158617958,-0.838197768,0.483799279,0.,-3.990664672,-1.508276472,1.164713317,4.221351584,4.376053613,0.64536878,-1.047197551,0.02213071,-0.157216692,-0.839958915,0.480169801,0.0000232277865649556,0.4278216,-0.332319488,0.728652885,0.094820304,2.621887684,-1.182920444,-0.318799136,-0.413560402,0.17136581,-0.515210772,-0.885611936,-0.687281712,1.747309755,-1.82229274,-1.044821563,-0.003376097,0.007728769,-0.034973809
1759936359,2,7,1,1,0,768,0,0,-3.998539511,-1.508039461,1.163709942,4.215058013,4.379601955,0.645341396,-1.045854807,0.022297271,-0.159929335,-0.833501816,0.482855618,0.,-3.999042252,-1.508099426,1.163455583,4.214631912,4.379894971,0.645368966,-1.047197551,0.02213071,-0.157216692,-0.839958915,0.480169801,0.0000232277865649556,0.42531392,-0.335625241,0.729931127,0.105063482,2.614927255,-1.187339868,-0.321993908,-0.408476832,0.172119999,-0.522907255,-0.877195966,-0.682239304,1.572828387,-2.094489403,-1.212512054,0.001437189,0.006616884,-0.03358625
1759936359,2,7,1,1,0,768,0,0,-4.006887261,-1.507871256,1.162437741,4.208481951,4.383542538,0.645304382,-1.049425364,0.022324722,-0.158945292,-0.840288222,0.481085211,0.,-4.007419833,-1.507922381,1.16219785,4.207912241,4.383736329,0.645369151,-1.047197551,0.02213071,-0.157216692,-0.839958915,0.480169801,0.0000232277865649556,0.422733891,-0.33886579,0.731296345,0.115241094,2.607707221,-1.191967342,-0.327025195,-0.40682108,0.172759125,-0.537169221,-0.87352814,-0.684650247,1.632741408,-1.993344294,-1.309391713,-0.002346027,0.006149162,-0.034598079
1759936359,2,7,1,1,0,768,0,0,-4.0152517,-1.50773763,1.161206071,4.201736136,4.387440681,0.645365298,-1.048479319,0.022027148,-0.159570262,-0.841230631,0.478767395,0.,-4.015797413,-1.507745335,1.160940116,4.20119257,4.387577688,0.645369337,-1.047197551,0.02213071,-0.157216692,-0.839958915,0.480169801,0.0000232277865649556,0.420104769,-0.342076307,0.732685042,0.125529778,2.600257421,-1.19680179,-0.330784831,-0.402928137,0.173585905,-0.54868646,-0.866851392,-0.682972093,1.786573306,-2.049976034,-1.431734297,-0.001725703,0.008968852,-0.035978377
1759936359,2,7,1,1,0,768,0,0,-4.023619954,-1.50751564,1.160024945,4.194736643,4.391341686,0.645378113,-1.045257449,0.022002572,-0.158656925,-0.83698225,0.479082465,0.,-4.024174994,-1.507568289,1.159682383,4.194472898,4.391419046,0.645369523,-1.047197551,0.02213071,-0.157216692,-0.839958915,0.480169801,0.0000232277865649556,0.417479881,-0.345302886,0.734037127,0.135682463,2.592662989,-1.20180667,-0.333243874,-0.398317491,0.172716844,-0.553651501,-0.856882856,-0.677046802,1.698194288,-1.943718535,-1.180483409,-0.00276446,0.009562384,-0.035065189
1759936359,2,7,1,1,0,768,0,0,-4.032030169,-1.507365675,1.158727948,4.18805234,4.395076275,0.645349085,-1.047784805,0.020540614,-0.162981167,-0.832565606,0.476688564,0.,-4.032552574,-1.507391243,1.158424649,4.187753227,4.395260405,0.645369709,-1.047197551,0.02213071,-0.157216692,-0.839958915,0.480169801,0.0000232277865649556,0.414762078,-0.348484979,0.73544777,0.145819293,2.585241007,-1.206975886,-0.338867436,-0.394885439,0.175270321,-0.564669997,-0.849632479,-0.679006712,1.509157641,-1.979478358,-1.347084714,0.001735026,0.004927726,-0.032161273
1759936359,2,7,1,1,0,768,0,0,-4.040340249,-1.507183985,1.157481019,4.181556388,4.398892879,0.645385385,-1.047565699,0.020762494,-0.160293147,-0.837638259,0.478658855,0.,-4.040930155,-1.507214198,1.157166916,4.181033556,4.399101763,0.645369895,-1.047197551,0.02213071,-0.157216692,-0.839958915,0.480169801,0.0000232277865649556,0.412075593,-0.351616889,0.736790007,0.155709047,2.577982366,-1.211870969,-0.341894638,-0.391612081,0.174588922,-0.574339911,-0.845051234,-0.674940867,1.549706826,-2.284698138,-1.36556396,-3.25E-05,0.007324982,-0.033543882
1759936359,2,7,1,1,0,768,0,0,-4.04874498,-1.507003793,1.156185929,4.174963637,4.402672291,0.645353377,-1.04847753,0.020106042,-0.157159314,-0.844911635,0.480504036,0.,-4.049307735,-1.507037152,1.155909182,4.174313884,4.402943121,0.64537008,-1.047197551,0.02213071,-0.157216692,-0.839958915,0.480169801,0.0000232277865649556,0.409318085,-0.354753931,0.738172389,0.165592045,2.570592359,-1.217036142,-0.34563534,-0.388338714,0.174441747,-0.586235509,-0.841795448,-0.672049643,1.426629543,-2.070597183,-1.389964329,-0.00565354,0.006564283,-0.0337938
1759936359,2,7,1,1,0,768,0,0,-4.057185952,-1.506852263,1.154872719,4.16799943,4.406387806,0.645344734,-1.046173096,0.021688599,-0.157453552,-0.848065972,0.485378534,0.,-4.057685315,-1.506860106,1.154651449,4.167594213,4.40678448,0.645370266,-1.047197551,0.02213071,-0.157216692,-0.839958915,0.480169801,0.0000232277865649556,0.406497624,-0.357858711,0.739631993,0.175568855,2.562749264,-1.222651479,-0.347440455,-0.384186263,0.174199791,-0.594780007,-0.837932686,-0.663477486,1.614129997,-1.996956033,-1.136175642,7.68E-05,0.004884591,-0.032930098
1759936359,2,7,1,1,0,768,0,0,-4.065517012,-1.506655709,1.153613869,4.160960837,4.410251141,0.645385385,-1.046138763,0.021535078,-0.159621552,-0.840298653,0.485372484,0.,-4.066062896,-1.506683061,1.153393715,4.160874542,4.410625838,0.645370452,-1.047197551,0.02213071,-0.157216692,-0.839958915,0.480169801,0.0000232277865649556,0.40372142,-0.360909707,0.741048413,0.185261602,2.554800044,-1.228116662,-0.351084484,-0.380340974,0.174431853,-0.59924093,-0.827201324,-0.661040812,1.491200841,-2.134571997,-0.793775527,0.00509367,0.007181316,-0.03025112
1759936359,2,7,1,1,0,768,0,0,-4.07386357,-1.506466777,1.152205769,4.154477282,4.414186954,0.645406246,-1.045198321,0.021414103,-0.158847332,-0.83431536,0.482876539,0.,-4.074440476,-1.506506015,1.152135981,4.15415487,4.414467197,0.645370638,-1.047197551,0.02213071,-0.157216692,-0.839958915,0.480169801,0.0000232277865649556,0.400908314,-0.363922226,0.742468062,0.194738883,2.547214674,-1.233289104,-0.354272233,-0.376568403,0.173446373,-0.603459082,-0.814622116,-0.659801456,1.696277188,-1.881567768,-1.261464015,-0.00260876,0.008903471,-0.030714177
1759936359,2,7,1,1,0,768,0,0,-4.082269971,-1.506351234,1.150904004,4.147986575,4.418162346,0.645401955,-1.048596621,0.021479502,-0.15638797,-0.836392701,0.48036021,0.,-4.082818057,-1.506328969,1.150878248,4.147435199,4.418308555,0.645370824,-1.047197551,0.02213071,-0.157216692,-0.839958915,0.480169801,0.0000232277865649556,0.398034602,-0.366906866,0.743874233,0.204134283,2.539629739,-1.238501877,-0.358877358,-0.374628004,0.172603416,-0.612557504,-0.805641628,-0.662935096,1.63560982,-1.878385667,-1.250194898,-0.002246967,0.004290211,-0.032499976
1759936359,2,7,1,1,0,768,0,0,-4.090695206,-1.506162063,1.149618451,4.141230269,4.422067165,0.645385444,-1.048072457,0.021506466,-0.155803248,-0.842932522,0.476976216,0.,-4.091195637,-1.506151924,1.149620514,4.140715528,4.422149914,0.64537101,-1.047197551,0.02213071,-0.157216692,-0.839958915,0.480169801,0.0000232277865649556,0.395144085,-0.369903692,0.745271334,0.213513602,2.531859317,-1.243993665,-0.362390599,-0.370769959,0.173331854,-0.627084861,-0.799797896,-0.66281752,1.45417724,-2.099832058,-1.314399663,-0.003812291,0.002020965,-0.035553139
1759936359,2,7,1,1,0,768,0,0,-4.099006955,-1.5059715,1.148294751,4.1343147,4.425817013,0.645344675,-1.046798944,0.023220766,-0.15557237,-0.841171086,0.475763619,0.0000000208024797387906,-4.099573217,-1.505974878,1.148362781,4.133995856,4.425991272,0.645371195,-1.047197551,0.02213071,-0.157216692,-0.839958915,0.480169801,0.0000232277865649556,0.392249596,-0.37282393,0.746711879,0.222750055,2.523889785,-1.249813028,-0.364717255,-0.367420047,0.172152894,-0.632863182,-0.789310097,-0.660241879,1.586836853,-2.018804025,-1.017133694,0.000650584,0.008130436,-0.032605685
1759936359,2,7,1,1,0,768,0,0,-4.107355897,-1.505778061,1.146954362,4.127551718,4.429625511,0.64536953,-1.047272205,0.022366101,-0.15494889,-0.836184204,0.477383226,0.000000000000378074768757688,-4.107950798,-1.505797832,1.147105047,4.127276185,4.42983263,0.645371381,-1.047197551,0.02213071,-0.157216692,-0.839958915,0.480169801,0.0000232277865649556,0.389321733,-0.375728436,0.748138014,0.231958238,2.515992207,-1.255524519,-0.368179892,-0.363521695,0.171648529,-0.636692221,-0.779568101,-0.657204574,1.422006869,-1.952344989,-0.908310604,-0.000992209,0.004447471,-0.030534528
1759936359,2,7,1,1,0,768,0,0,-4.115793769,-1.505602458,1.145696465,4.121061488,4.433360577,0.645328581,-1.04759264,0.021358801,-0.156101033,-0.838174641,0.478985965,0.000000000000000006871321933258,-4.116328378,-1.505620787,1.145847314,4.120556514,4.433673989,0.645371567,-1.047197551,0.02213071,-0.157216692,-0.839958915,0.480169801,0.0000232277865649556,0.386333056,-0.378647603,0.749496737,0.241111448,2.508482587,-1.261165967,-0.371864169,-0.359072556,0.173059978,-0.647796938,-0.774825935,-0.654101369,1.456286509,-1.989630659,-0.677484618,0.003667071,0.006106266,-0.033266181
1759936359,2,7,1,1,0,768,0,0,-4.12416536,-1.505524115,1.144457642,4.11454217,4.43721056,0.645385385,-1.045497537,0.020753765,-0.154831544,-0.845490992,0.482414335,0.000000000000000000000124882879,-4.124705959,-1.505443741,1.14458958,4.113836843,4.437515347,0.645371753,-1.047197551,0.02213071,-0.157216692,-0.839958915,0.480169801,0.0000232277865649556,0.38332395,-0.381460806,0.750899935,0.250138185,2.500737848,-1.26678409,-0.37406775,-0.353978388,0.173727745,-0.660356756,-0.772181913,-0.647043288,1.401851287,-2.124339523,-0.872550713,0.004209463,0.004504612,-0.032757942
1759936359,2,7,1,1,0,768,0,0,-4.13250095,-1.505257272,1.143177334,4.10766284,4.440990448,0.645385444,-1.049360633,0.022893667,-0.153734505,-0.849225819,0.483783752,0.00000000000000000000000000227,-4.133083539,-1.505266695,1.143331847,4.107117171,4.441356706,0.645371939,-1.047197551,0.02213071,-0.157216692,-0.839958915,0.480169801,0.0000232277865649556,0.380349509,-0.384310272,0.752274269,0.259025356,2.492781154,-1.272701931,-0.377854781,-0.352652423,0.172559713,-0.668464576,-0.764942591,-0.64759216,1.650394331,-2.337395197,-0.897337768,0.007997686,0.010330639,-0.032167407
1759936359,2,7,1,1,0,768,0,0,-4.140904252,-1.505144538,1.141947095,4.10065095,4.444911957,0.645349145,-1.04879272,0.022403663,-0.156620115,-0.842198014,0.484233826,0.,-4.141461119,-1.50508965,1.142074113,4.1003975,4.445198064,0.645372124,-1.047197551,0.02213071,-0.157216692,-0.839958915,0.480169801,0.0000232277865649556,0.37728984,-0.387076733,0.75372109,0.267780732,2.484530498,-1.278778732,-0.381006306,-0.347941913,0.173335322,-0.67340263,-0.75480145,-0.644463713,1.421139657,-2.375270722,-0.836078361,0.007329519,0.004362312,-0.030689268
1759936359,2,7,1,1,0,768,0,0,-4.149310891,-1.504939006,1.140697304,4.094014331,4.448864937,0.645373821,-1.046138406,0.022392999,-0.155757904,-0.837906063,0.480293661,0.,-4.1498387,-1.504912604,1.14081638,4.093677829,4.449039422,0.64537231,-1.047197551,0.02213071,-0.157216692,-0.839958915,0.480169801,0.0000232277865649556,0.374240635,-0.38986412,0.755077511,0.276447243,2.4766832,-1.284519236,-0.383265844,-0.343355432,0.172411662,-0.678191269,-0.741912369,-0.643031222,1.627962589,-2.149361012,-0.667104345,0.004634216,0.010896033,-0.034727989
1759936359,2,7,1,1,0,768,0,0,-4.157689397,-1.504824871,1.13949043,4.08748786,4.452698708,0.645337105,-1.046025157,0.022031922,-0.153716132,-0.841225863,0.477180392,0.,-4.15821628,-1.504735558,1.139558646,4.086958157,4.452880781,0.645372496,-1.047197551,0.02213071,-0.157216692,-0.839958915,0.480169801,0.0000232277865649556,0.371143983,-0.39257629,0.756447863,0.284988285,2.468933464,-1.290394219,-0.386461564,-0.339450603,0.172082424,-0.688288923,-0.733014038,-0.643487534,1.663194729,-2.228394154,-0.729778907,0.005494968,0.009704111,-0.039692658
1759936359,2,7,1,1,0,768,0,0,-4.166019265,-1.504611821,1.138227288,4.080870791,4.456548214,0.645413876,-1.047370791,0.021889105,-0.153925583,-0.844058335,0.475556642,0.,-4.166593861,-1.504558513,1.138300913,4.080238486,4.456722139,0.645372682,-1.047197551,0.02213071,-0.157216692,-0.839958915,0.480169801,0.0000232277865649556,0.368068747,-0.395277648,0.757806126,0.293501517,2.461042852,-1.296287978,-0.390204456,-0.335836157,0.172666546,-0.69914307,-0.725527876,-0.644191411,1.452923127,-2.060970871,-0.656569648,0.007108414,0.000510859,-0.03532741
1759936359,2,7,1,1,0,768,0,0,-4.174423997,-1.504323521,1.13702232,4.073934241,4.460330486,0.64536953,-1.04766953,0.022419468,-0.154111832,-0.84528172,0.477695435,0.,-4.174971441,-1.504381467,1.137043179,4.073518815,4.460563498,0.645372868,-1.047197551,0.02213071,-0.157216692,-0.839958915,0.480169801,0.0000232277865649556,0.364956993,-0.398014947,0.759139385,0.301931801,2.45302025,-1.302527259,-0.392984063,-0.33204312,0.172596894,-0.706983198,-0.718343351,-0.640668353,1.20845647,-2.122569009,-0.788156676,0.001168823,0.003020319,-0.029851056
1759936359,2,7,1,1,0,768,0,0,-4.182839934,-1.504197658,1.135883156,4.066978617,4.464053631,0.645365357,-1.050069332,0.022851046,-0.15519321,-0.83692348,0.479394525,0.,-4.183349021,-1.504204421,1.135785446,4.066799143,4.464404856,0.645373054,-1.047197551,0.02213071,-0.157216692,-0.839958915,0.480169801,0.0000232277865649556,0.361767478,-0.400651192,0.760528766,0.310378737,2.444852979,-1.308958232,-0.396491887,-0.32901857,0.171729915,-0.70750673,-0.706464806,-0.639639085,1.304779678,-1.908105091,-0.525765071,0.002464643,0.003353859,-0.032691094
1759936359,2,7,1,1,0,768,0,0,-4.191157405,-1.504043044,1.134649579,4.060505553,4.467847824,0.6453619,-1.042778134,0.021846544,-0.15957135,-0.833517611,0.482889086,0.,-4.191726602,-1.504027376,1.134527712,4.060079472,4.468246214,0.645373239,-1.047197551,0.02213071,-0.157216692,-0.839958915,0.480169801,0.0000232277865649556,0.358609851,-0.403231589,0.761884066,0.318527954,2.437059622,-1.315017144,-0.396641871,-0.321131099,0.173917185,-0.71567721,-0.700439599,-0.627481843,1.599683609,-2.053845016,-0.494435312,0.003876744,0.006917243,-0.037014169
1759936359,2,7,1,1,0,768,0,0,-4.199488942,-1.50384652,1.133437936,4.053947135,4.471757889,0.64536953,-1.044194102,0.022009742,-0.160372615,-0.841249228,0.483860701,0.,-4.200104182,-1.50385033,1.133269978,4.053359801,4.472087573,0.645373425,-1.047197551,0.02213071,-0.157216692,-0.839958915,0.480169801,0.0000232277865649556,0.355448411,-0.405803833,0.763215989,0.326529648,2.429182468,-1.321051293,-0.400020895,-0.317246646,0.175221841,-0.730063645,-0.696252473,-0.626135443,1.738460377,-2.030040473,-0.936782464,0.003176251,0.007497028,-0.037087381
1759936359,2,7,1,1,0,768,0,0,-4.207921092,-1.503653006,1.132242505,4.047265692,4.475614548,0.645378053,-1.049500823,0.022428187,-0.159049928,-0.846386135,0.48329246,0.,-4.208481763,-1.503673284,1.132012245,4.046640129,4.475928931,0.645373611,-1.047197551,0.02213071,-0.157216692,-0.839958915,0.480169801,0.0000232277865649556,0.352217452,-0.408377649,0.764558291,0.334609695,2.421198888,-1.327319664,-0.404831022,-0.315216275,0.174984731,-0.740562016,-0.688650996,-0.630004752,1.811890976,-2.165690116,-1.135727691,0.000741778,0.010432214,-0.037836108
1759936359,2,7,1,1,0,768,0,0,-4.216306035,-1.503493832,1.130997483,4.040200396,4.479558468,0.645337164,-1.048768401,0.022523768,-0.160477102,-0.843831122,0.481553644,0.,-4.216859343,-1.503496238,1.130754511,4.039920458,4.47977029,0.645373797,-1.047197551,0.02213071,-0.157216692,-0.839958915,0.480169801,0.0000232277865649556,0.348971336,-0.410860069,0.765993335,0.342430409,2.41269549,-1.333943352,-0.407422549,-0.310644397,0.175253783,-0.747264073,-0.678074742,-0.628797015,1.549741373,-2.440319951,-0.5962934,0.008924935,0.011328267,-0.034971584
1759936359,2,7,1,1,0,768,0,0,-4.224639479,-1.503327207,1.129746262,4.033390208,4.483518124,0.645394087,-1.049059868,0.022305066,-0.160386384,-0.836877227,0.478325158,0.,-4.225236924,-1.503319193,1.129496778,4.033200787,4.483611648,0.645373983,-1.047197551,0.02213071,-0.157216692,-0.839958915,0.480169801,0.0000232277865649556,0.345732886,-0.413301467,0.767392649,0.350178195,2.404381143,-1.340346496,-0.41038545,-0.306726647,0.174357204,-0.749151653,-0.664306577,-0.630027871,1.333327265,-2.290728667,-0.391695182,0.007746855,0.003958558,-0.027409009
1759936359,2,7,1,1,0,768,0,0,-4.23304588,-1.503171162,1.128543202,4.026924773,4.487268448,0.645422459,-1.04523313,0.020366935,-0.159807295,-0.83310765,0.47559911,0.,-4.233614504,-1.503142147,1.128239044,4.026481115,4.487453006,0.645374169,-1.047197551,0.02213071,-0.157216692,-0.839958915,0.480169801,0.0000232277865649556,0.342431027,-0.415754046,0.768729348,0.358035909,2.396532368,-1.346726957,-0.412051983,-0.300412425,0.174535542,-0.754627971,-0.652916633,-0.626825315,1.464103524,-2.157003722,-0.710870869,0.00275319,0.004409348,-0.032115486
1759936359,2,7,1,1,0,768,0,0,-4.241476123,-1.503028618,1.127318207,4.020338221,4.491096497,0.645373821,-1.044592977,0.021778153,-0.161499098,-0.840908408,0.476298988,0.,-4.241992084,-1.502965101,1.126981311,4.019761444,4.491294365,0.645374354,-1.047197551,0.02213071,-0.157216692,-0.839958915,0.480169801,0.0000232277865649556,0.339098486,-0.418163301,0.770098683,0.365686226,2.388518576,-1.353266154,-0.414117547,-0.296068826,0.175569182,-0.7685962,-0.647637471,-0.623771897,1.637465732,-2.01831583,-0.581099074,0.007023279,0.007436194,-0.037718134
1759936359,2,7,1,1,0,768,0,0,-4.249924008,-1.502758489,1.125971142,4.013541861,4.494867325,0.645401955,-1.049660206,0.022093039,-0.159888238,-0.839612365,0.478970528,0.000060611779190367,-4.250369665,-1.502788056,1.125723577,4.013041773,4.495135723,0.64537454,-1.047197551,0.02213071,-0.157216692,-0.839958915,0.480169801,0.0000232277865649556,0.335753806,-0.420586794,0.771489299,0.373399541,2.380253416,-1.360048193,-0.418273121,-0.29383525,0.174283875,-0.772030467,-0.637913874,-0.624728251,1.480229392,-2.338604205,-0.636054641,0.005603639,0.004080643,-0.035130558
1759936359,2,7,1,1,0,768,0,0,-4.258225028,-1.502557525,1.124720875,4.006581946,4.498617172,0.645345747,-1.04809618,0.023231125,-0.159040257,-0.835516155,0.482736051,0.0000575163248868193,-4.258747245,-1.50261101,1.124465844,4.006322101,4.498977082,0.645374726,-1.047197551,0.02213071,-0.157216692,-0.839958915,0.480169801,0.0000232277865649556,0.332435205,-0.422898844,0.772889064,0.380755619,2.371858118,-1.366985281,-0.41922295,-0.289787862,0.172551443,-0.772520997,-0.627346473,-0.618045942,1.208889437,-2.391252571,-0.609901017,0.005567143,0.000425315,-0.033034754
1759936359,2,7,1,1,0,768,0,0,-4.266549174,-1.502347344,1.123387639,3.999918147,4.502449512,0.645365298,-1.045885921,0.022712687,-0.158841014,-0.832042217,0.483449578,0.0000547187992196995,-4.267124826,-1.502433964,1.12320811,3.99960243,4.50281844,0.645374912,-1.047197551,0.02213071,-0.157216692,-0.839958915,0.480169801,0.0000232277865649556,0.329096657,-0.425184407,0.774284047,0.388065065,2.363620483,-1.37370778,-0.420636733,-0.284582633,0.172129262,-0.776151768,-0.616819629,-0.613469664,1.431830271,-2.556430051,-0.461408081,0.008836687,0.006292082,-0.032631185
1759936359,2,7,1,1,0,768,0,0,-4.274971549,-1.502233402,1.122119252,3.993453665,4.506345749,0.64536196,-1.04722476,0.02106113,-0.158289358,-0.837208986,0.482103378,0.0000521808324265293,-4.275502406,-1.502256919,1.121950377,3.992882759,4.506659798,0.645375098,-1.047197551,0.02213071,-0.157216692,-0.839958915,0.480169801,0.0000232277865649556,0.325687547,-0.427431435,0.775669386,0.39532493,2.355548178,-1.380352251,-0.424105088,-0.279622261,0.173287924,-0.788643266,-0.609379796,-0.614295943,1.566839222,-2.360154899,-0.478724289,0.008606422,0.006269664,-0.036986697
1759936359,2,7,1,1,0,768,0,0,-4.28343517,-1.502081805,1.120823208,3.986804648,4.510315895,0.645389736,-1.045452595,0.022611003,-0.157579079,-0.846712649,0.479896218,0.0000498678600706625,-4.283879986,-1.502079873,1.120692643,3.986163087,4.510501157,0.645375283,-1.047197551,0.02213071,-0.157216692,-0.839958915,0.480169801,0.0000232277865649556,0.322253873,-0.429663075,0.777071229,0.402514905,2.347246827,-1.387136272,-0.425540395,-0.275237094,0.173248137,-0.802171801,-0.601728929,-0.612764203,1.335405854,-2.298725905,-0.578738813,0.005960935,-0.002464402,-0.035607159
1759936359,2,7,1,1,0,768,0,0,-4.291687433,-1.501880632,1.119438473,3.979850455,4.514253616,0.645422399,-1.047364831,0.023233116,-0.156225637,-0.847787142,0.478533804,0.00000000178795378502627,-4.292257567,-1.501902827,1.11943491,3.979443416,4.514342515,0.645375469,-1.047197551,0.02213071,-0.157216692,-0.839958915,0.480169801,0.0000232277865649556,0.318890214,-0.431791274,0.778530206,0.409373477,2.338554761,-1.394181803,-0.428427883,-0.271986243,0.17222985,-0.807968367,-0.590926865,-0.614141606,1.301735602,-2.405336184,-0.423631027,0.007523086,0.003536935,-0.03250534
1759936359,2,7,1,1,0,768,0,0,-4.300121729,-1.501729095,1.118148152,3.972819491,4.517995834,0.645389736,-1.046764612,0.022532184,-0.153937086,-0.838662922,0.475434363,0.0000000000000324951755770446,-4.300635147,-1.501725782,1.118177176,3.972723745,4.518183874,0.645375655,-1.047197551,0.02213071,-0.157216692,-0.839958915,0.480169801,0.0000232277865649556,0.315405518,-0.433931173,0.779978737,0.416438679,2.329923113,-1.401582328,-0.430457839,-0.267720082,0.170102306,-0.805054751,-0.575355811,-0.614667359,1.377348419,-2.443390825,-0.361143854,0.007516341,0.002072642,-0.033573684
1759936359,2,7,1,1,0,768,0,0,-4.308503691,-1.501553447,1.116863076,3.966320677,4.521799564,0.64536953,-1.048728824,0.021775484,-0.154892102,-0.831619322,0.476365566,0.000000000000000000590583744607,-4.309012728,-1.501548736,1.116919443,3.966004074,4.522025232,0.645375841,-1.047197551,0.02213071,-0.157216692,-0.839958915,0.480169801,0.0000232277865649556,0.311948631,-0.43605475,0.781340207,0.423323913,2.321837215,-1.408504279,-0.43345823,-0.2635674,0.169863797,-0.806059784,-0.56385276,-0.61426678,1.588303131,-2.327975413,-0.323664857,0.01197408,0.001394967,-0.039852782
1759936359,2,7,1,1,0,768,0,0,-4.316846434,-1.501394467,1.115557496,3.959839507,4.52554512,0.645365357,-1.046630621,0.021301655,-0.156080693,-0.83627367,0.478109241,0.00000000000000000000001073357,-4.317390308,-1.50137169,1.115661709,3.959284402,4.525866591,0.645376027,-1.047197551,0.02213071,-0.157216692,-0.839958915,0.480169801,0.0000232277865649556,0.308481515,-0.438119376,0.782717275,0.43013433,2.313721903,-1.415516484,-0.434694502,-0.257701887,0.171101618,-0.817541315,-0.557160374,-0.609031217,1.458943156,-2.492633502,-0.519579258,0.007023372,0.005876948,-0.03391655
1759936359,2,7,1,1,0,768,0,0,-4.325187866,-1.501148285,1.114298646,3.953087493,4.529294014,0.64536953,-1.045910954,0.022218587,-0.152507335,-0.84093821,0.483570069,0.000000000000000000000000000195,-4.325767888,-1.501194645,1.114403975,3.952564731,4.529707949,0.645376213,-1.047197551,0.02213071,-0.157216692,-0.839958915,0.480169801,0.0000232277865649556,0.305018348,-0.44019381,0.78405934,0.436851043,2.305446737,-1.422684265,-0.435479371,-0.25384179,0.169216807,-0.822721448,-0.549321564,-0.601773933,1.540495681,-2.325198713,-0.830197451,0.005379951,0.00400499,-0.037247483
1759936359,2,7,1,1,0,768,0,0,-4.333575074,-1.501034231,1.113007371,3.946141406,4.533116817,0.645402014,-1.047943711,0.021832978,-0.154390648,-0.837340534,0.485651314,0.0000341645900334697,-4.334145469,-1.501017599,1.113146242,3.94584506,4.533549307,0.645376398,-1.047197551,0.02213071,-0.157216692,-0.839958915,0.480169801,0.0000232277865649556,0.301489488,-0.442152827,0.785509344,0.443481087,2.296756352,-1.430143818,-0.438249281,-0.249415409,0.169634761,-0.827056805,-0.539385266,-0.600330384,1.623597751,-2.354144808,-0.626538409,0.003990197,0.005164775,-0.033421135
1759936359,2,7,1,1,0,768,0,0,-4.34198219,-1.500875169,1.111770455,3.93936555,4.536979675,0.645393312,-1.049161196,0.021842428,-0.155134887,-0.834436238,0.484866649,0.000056927245168481,-4.342523049,-1.500840553,1.111888508,3.939125388,4.537390666,0.645376584,-1.047197551,0.02213071,-0.157216692,-0.839958915,0.480169801,0.0000232277865649556,0.297958167,-0.444124229,0.786884723,0.449973858,2.288352115,-1.437434636,-0.440757969,-0.245229397,0.169400896,-0.830907642,-0.528097821,-0.600761339,1.25985528,-2.50322906,-0.115445751,0.011577469,0.003558542,-0.033728126
1759936359,2,7,1,1,0,768,0,0,-4.350337092,-1.500663639,1.110495869,3.932906314,4.54098177,0.645418167,-1.048090696,0.021700619,-0.155960992,-0.836047173,0.484696656,0.0000525020295754075,-4.35090063,-1.500663508,1.110630775,3.932405717,4.541232024,0.64537677,-1.047197551,0.02213071,-0.157216692,-0.839958915,0.480169801,0.0000232277865649556,0.294463462,-0.446080154,0.788207516,0.45624989,2.280228291,-1.444356928,-0.442270339,-0.240088665,0.169873657,-0.838908164,-0.518839961,-0.598402959,1.386471656,-2.391245097,-0.395225915,0.005873435,-0.001585837,-0.034647029
1759936359,2,7,1,1,0,768,0,0,-4.358665768,-1.500546486,1.109248463,3.926278754,4.544898987,0.645402014,-1.047268152,0.02152623,-0.154508874,-0.846597373,0.481537819,0.0000487129764223936,-4.35927821,-1.500486462,1.109373041,3.925686046,4.545073383,0.645376956,-1.047197551,0.02213071,-0.157216692,-0.839958915,0.480169801,0.0000232277865649556,0.290935988,-0.447935391,0.789586723,0.462412825,2.27189256,-1.451597304,-0.444078315,-0.234971286,0.170388474,-0.853529743,-0.510637374,-0.598996267,1.220167603,-2.332518508,-0.372672553,0.005036088,-0.000383244,-0.032729086
1759936359,2,7,1,1,0,768,0,0,-4.367086832,-1.500312583,1.108023469,3.919485255,4.548765182,0.645385444,-1.045309424,0.021741599,-0.155197859,-0.848300576,0.478371412,0.000045434138883138,-4.36765579,-1.500309416,1.108115308,3.918966374,4.548914741,0.645377142,-1.047197551,0.02213071,-0.157216692,-0.839958915,0.480169801,0.0000232277865649556,0.287371934,-0.449846346,0.790913794,0.468632647,2.263542942,-1.458996448,-0.445313145,-0.22976261,0.170595417,-0.861430799,-0.499776454,-0.598540992,1.50093781,-2.635337841,-0.408934209,0.007792414,0.002509581,-0.034429913
1759936359,2,7,1,1,0,768,0,0,-4.375465457,-1.500091897,1.106846158,3.912443801,4.55254221,0.645389736,-1.049259543,0.021612562,-0.155349791,-0.843348086,0.475790113,0.0000425687940150965,-4.376033371,-1.500132371,1.106857574,3.912246703,4.552756099,0.645377328,-1.047197551,0.02213071,-0.157216692,-0.839958915,0.480169801,0.0000232277865649556,0.283800046,-0.451698117,0.792254575,0.474787268,2.254970389,-1.466660088,-0.449000417,-0.226452576,0.169835932,-0.862667758,-0.486748289,-0.603486672,1.249925974,-2.551157434,-0.357336661,0.007312958,0.000877259,-0.03537385
1759936359,2,7,1,1,0,768,0,0,-4.383769099,-1.499973239,1.105599705,3.905774756,4.556408882,0.64536953,-1.047887325,0.022096997,-0.156044051,-0.836229861,0.479027778,0.0000400434510083869,-4.384410951,-1.499955325,1.105599841,3.905527032,4.556597458,0.645377513,-1.047197551,0.02213071,-0.157216692,-0.839958915,0.480169801,0.0000232277865649556,0.280238531,-0.453435772,0.793631828,0.480673552,2.246588829,-1.474115025,-0.449458725,-0.221924872,0.168712652,-0.860854604,-0.475173256,-0.597773317,1.001957357,-2.603588856,-0.19262288,0.012565661,-0.006350289,-0.028493952
1759936359,2,7,1,1,0,768,0,0,-4.392243926,-1.499763222,1.104441468,3.899331732,4.560161591,0.645349145,-1.047828555,0.021269727,-0.156967714,-0.839087486,0.47902137,0.0000378009390260558,-4.392788532,-1.499778279,1.104342107,3.89880736,4.560438816,0.645377699,-1.047197551,0.02213071,-0.157216692,-0.839958915,0.480169801,0.0000232277865649556,0.276603952,-0.455270945,0.794888098,0.486807358,2.238665399,-1.481460928,-0.451339058,-0.216443155,0.169686064,-0.870260511,-0.466157941,-0.596439988,0.979362731,-2.541867919,-0.208966311,0.008895489,-0.003088402,-0.030187855
1759936359,2,7,1,1,0,768,0,0,-4.400645916,-1.499617548,1.10321552,3.892664118,4.564032555,0.645426691,-1.046418905,0.021170979,-0.156826556,-0.846586943,0.482047796,0.0000357963108399417,-4.401166112,-1.499601233,1.103084374,3.892087689,4.564280175,0.645377885,-1.047197551,0.02213071,-0.157216692,-0.839958915,0.480169801,0.0000232277865649556,0.272980102,-0.456982172,0.796236587,0.492729952,2.230277362,-1.488971939,-0.452042214,-0.2108753,0.170301818,-0.881971447,-0.458785652,-0.590857816,1.111861645,-2.50733267,-0.49532107,0.003997219,-0.003351699,-0.033027879
1759936359,2,7,1,1,0,768,0,0,-4.409021799,-1.499424056,1.101996247,3.885815306,4.567822933,0.645373821,-1.046197772,0.021769287,-0.160620794,-0.846417248,0.481510967,0.0000339935977535788,-4.409543693,-1.499424188,1.10182664,3.885368018,4.568121533,0.645378071,-1.047197551,0.02213071,-0.157216692,-0.839958915,0.480169801,0.0000232277865649556,0.269354898,-0.458670105,0.797577947,0.498447993,2.22184358,-1.496750332,-0.453579333,-0.205744768,0.171502799,-0.889785365,-0.448702075,-0.589841238,0.949212167,-2.759100932,-0.16847618,0.01310493,-0.002868408,-0.031050143
1759936359,2,7,1,1,0,768,0,0,-4.417303507,-1.499248461,1.10080177,3.878866358,4.571694374,0.645365298,-1.046905637,0.022578154,-0.158813,-0.836080849,0.481057346,0.0000323637468682136,-4.417921273,-1.499247142,1.100568907,3.878648346,4.571962891,0.645378257,-1.047197551,0.02213071,-0.157216692,-0.839958915,0.480169801,0.0000232277865649556,0.26576587,-0.460282429,0.798926046,0.503925557,2.213260726,-1.504522503,-0.454884214,-0.202741819,0.168565264,-0.882162013,-0.433956522,-0.589732611,1.102470146,-2.766731436,-0.031635275,0.012388135,-0.00377262,-0.033698424
1759936359,2,7,1,1,0,768,0,0,-4.425733272,-1.499089436,1.099583451,3.872342749,4.575590611,0.645376861,-1.04783082,0.023138314,-0.160237223,-0.834779501,0.480309516,0.0000308830494759604,-4.426298853,-1.499070096,1.099311173,3.871928675,4.57580425,0.645378442,-1.047197551,0.02213071,-0.157216692,-0.839958915,0.480169801,0.0000232277865649556,0.26210298,-0.461906559,0.80023805,0.509529543,2.205070649,-1.512072699,-0.456704673,-0.198439125,0.168486784,-0.886407625,-0.422837934,-0.590173316,1.079942662,-2.696790025,-0.390824838,0.007922794,-0.001519938,-0.033290381
1759936359,2,7,1,1,0,768,0,0,-4.434078757,-1.498904825,1.098310773,3.865868254,4.579461098,0.645410597,-1.045924783,0.021168515,-0.162852243,-0.840895772,0.476060838,0.00000251475285040214,-4.434676434,-1.498893051,1.09805344,3.865209004,4.579645608,0.645378628,-1.047197551,0.02213071,-0.157216692,-0.839958915,0.480169801,0.0000232277865649556,0.258467975,-0.463479268,0.80155472,0.514991998,2.196887816,-1.519619461,-0.458135618,-0.191225327,0.171227974,-0.901527738,-0.413721781,-0.591091032,1.133942979,-2.792060905,-0.480624143,0.004748648,-0.002788239,-0.035400143
1759936359,2,7,1,1,0,768,0,0,-4.442389194,-1.498699167,1.09708101,3.859095736,4.583327293,0.645381212,-1.0369519,0.021584935,-0.1591717,-0.839239299,0.471987277,0.0000000000457043812518431,-4.44301529,-1.498716823,1.09680152,3.858520393,4.583469211,0.645378813,-1.036798595,0.021910946,-0.155655487,-0.831617895,0.475401585,0.0000229971283424745,0.254839854,-0.465009666,0.802874235,0.52023028,2.188496305,-1.52742415,-0.455278493,-0.185441542,0.168674148,-0.90067647,-0.400063798,-0.584829777,1.397053383,-2.559364801,-0.345516754,0.005336764,-0.00034579,-0.03947094
1759936359,2,7,1,1,0,768,0,0,-4.450663749,-1.498582118,1.095849339,3.852255507,4.586921215,0.645373821,-1.0276829,0.023065031,-0.157324642,-0.82761693,0.470042855,0.000000000000000830654506427954,-4.451264998,-1.49854248,1.095562984,3.851903288,4.587251936,0.645378996,-1.025628488,0.021674885,-0.153978509,-0.822658333,0.470279773,0.0000227493652857817,0.251176084,-0.466438088,0.804247055,0.525577973,2.179980775,-1.535580504,-0.45171481,-0.180489588,0.165190978,-0.890588988,-0.384721085,-0.576314237,1.36860569,-2.597967431,-0.468458869,0.005699697,0.00089613,-0.03832592
1759936359,2,7,1,1,0,768,0,0,-4.45885009,-1.498395996,1.094635789,3.845544024,4.59059906,0.645409584,-1.016617656,0.023335801,-0.155469686,-0.812876642,0.467805088,0.000000000000000000015096734419,-4.459425346,-1.498370025,1.094337864,3.84535786,4.590993687,0.645379177,-1.014458381,0.021438825,-0.152301531,-0.813698771,0.465157962,0.0000225016022290888,0.247567613,-0.467860916,0.805555986,0.530731524,2.171642636,-1.543472159,-0.447460925,-0.174731773,0.161961392,-0.878415069,-0.369204867,-0.566361602,1.007915675,-2.465874234,-0.054883248,0.007778309,-0.000136353,-0.028586439
1759936359,2,7,1,1,0,768,0,0,-4.467023675,-1.498154552,1.093310658,3.839316531,4.594325066,0.645409584,-1.00504601,0.021639306,-0.152791902,-0.800542235,0.465179354,0.000000000000000000000000274376,-4.467496332,-1.498199459,1.093126159,3.838884108,4.594694463,0.645379356,-1.003288274,0.021202764,-0.150624553,-0.80473921,0.460036151,0.000022253839172396,0.243971597,-0.46928586,0.806827503,0.535768957,2.163761134,-1.551030125,-0.443269638,-0.167817533,0.15967328,-0.869465472,-0.354885038,-0.556354671,0.747717864,-2.650961224,-0.105319525,0.007554133,0.000165636,-0.024648445
1759936359,2,7,1,1,0,768,0,0,-4.474933807,-1.497969964,1.092115227,3.833033724,4.598041534,0.645376861,-0.992534697,0.021408727,-0.149589673,-0.800031483,0.461486548,0.000000000000000000000000000005,-4.475477958,-1.498030781,1.091927871,3.832482032,4.598354265,0.645379533,-0.992118167,0.020966703,-0.148947575,-0.795779648,0.45491434,0.0000220060761157032,0.240487475,-0.470600777,0.808069623,0.54039557,2.155907163,-1.558502122,-0.438536025,-0.161160174,0.157838987,-0.869879474,-0.343004421,-0.546420341,1.041246236,-2.595174122,-0.028973952,0.010484523,-0.001396066,-0.031878226
1759936359,2,7,1,1,0,768,0,0,-4.482864086,-1.497845383,1.090897862,3.826719447,4.601707458,0.645393372,-0.982025683,0.020965878,-0.148424938,-0.790488839,0.454670072,0.,-4.483370223,-1.497863992,1.090742998,3.826151634,4.601973093,0.645379708,-0.980948059,0.020730642,-0.147270597,-0.786820086,0.449792528,0.0000217583130590104,0.236971258,-0.471842788,0.809354365,0.545040112,2.147919825,-1.566131503,-0.434945924,-0.155096724,0.155987419,-0.863769485,-0.32875542,-0.541555805,1.070846245,-2.584327023,-0.140809857,0.007532121,-0.001452883,-0.0344086
1759936359,2,7,1,1,0,768,0,0,-4.490697567,-1.497581409,1.089675252,3.820192977,4.605418682,0.645376861,-0.96894294,0.020530064,-0.145146683,-0.77478677,0.445015341,0.,-4.491173127,-1.497699091,1.089571541,3.819892911,4.605550946,0.645379881,-0.969777952,0.020494581,-0.145593619,-0.777860524,0.444670717,0.0000215105500023175,0.233515429,-0.47310007,0.810592806,0.549401864,2.1398619,-1.573799506,-0.430211104,-0.149495641,0.152368198,-0.849545682,-0.312215268,-0.536919965,0.853673559,-2.668325158,-0.143565692,0.006913364,0.000399321,-0.027260245
1759936359,2,7,1,1,0,768,0,0,-4.498419229,-1.497524397,1.088469807,3.813902064,4.609017372,0.645365298,-0.959363878,0.020592628,-0.14483656,-0.762165546,0.437199682,0.,-4.49888667,-1.497536078,1.0884135,3.813705865,4.609087824,0.645380053,-0.958607845,0.02025852,-0.143916641,-0.768900962,0.439548906,0.0000212627869456247,0.230070564,-0.474188204,0.811897663,0.553669091,2.131867972,-1.581489428,-0.426893001,-0.144261954,0.150295008,-0.840367467,-0.297800025,-0.534069183,1.029336394,-2.387515169,-0.046092468,0.004945941,-0.003619083,-0.033110604
1759936359,2,7,1,1,0,768,0,0,-4.506011192,-1.497360581,1.087262932,3.808117552,4.612543106,0.645356715,-0.947059333,0.019526897,-0.141631365,-0.757867336,0.429889381,0.,-4.506510853,-1.497374954,1.087268875,3.807590496,4.612583728,0.645380222,-0.947437738,0.020022459,-0.142239663,-0.759941401,0.434427095,0.0000210150238889319,0.226696878,-0.475317887,0.813084279,0.557890085,2.124518591,-1.588690508,-0.422372565,-0.137969226,0.148449241,-0.837299371,-0.285462284,-0.528085281,0.877302232,-2.485350491,0.2016748,0.012275707,-0.004840976,-0.031278534
1759936359,2,7,1,1,0,768,0,0,-4.513565723,-1.49726458,1.086104695,3.802210017,4.615877628,0.645365298,-0.938254237,0.018104888,-0.138577148,-0.757126927,0.424406379,0.,-4.514045674,-1.497215719,1.086137665,3.801546803,4.616038658,0.645380389,-0.93626763,0.019786398,-0.140562685,-0.750981839,0.429305284,0.000020767260832239,0.223308797,-0.476369134,0.81429485,0.562162277,2.117046504,-1.596154805,-0.419335644,-0.131995715,0.14726631,-0.837964836,-0.274490576,-0.523844272,1.022660508,-2.39523721,-0.034041798,0.007889092,-0.00618058,-0.035813745
